harel-coffee/ML-for-Asymmetric-C-sp3-H-Reaction-auto/Data/MLS-model/LA/MLS-LA-Real-Synthetic.csv
Rx-MLS,DA3-4-5-6-MLS,DA4-5-1-2-MLS,DA4-5-6-7-MLS,DA9-10-11-14-MLS,DA9-10-11-12-MLS,DA1-5-6-7-MLS,DA1-12-11-14-MLS,DA1-5-4-20-MLS,DA6-5-4-20-MLS,BA1-2-3-MLS,BA3-4-20-MLS,BA1-5-4-MLS,BA5-4-20-MLS,BA5-6-7-MLS,BA7-6-22-MLS,BA10-11-12-MLS,BA10-11-14-MLS,BA1-12-11-MLS,BA5-1-12-MLS,NB1-12-MLS,NB7-12-MLS,BL1-2-MLS,BL5-6-MLS,BL6-7-MLS,BL11-12-MLS,BL4-20-MLS,BL4-19-MLS,BL6-22-MLS,BL10-15-MLS,HOMO-MLS,LUMO-MLS,DM-MLS,q1-MLS,q2-MLS,q3-MLS,q4-MLS,q5-MLS,q6-MLS,q7-MLS,q8-MLS,q9-MLS,q10-MLS,q11-MLS,q12-MLS,q13-MLS,q14-MLS,q15-MLS,q19-MLS,q20-MLS,q22-MLS,NMR1-MLS,NMR2-MLS,NMR3-MLS,NMR4-MLS,NMR5-MLS,NMR6-MLS,NMR7-MLS,NMR8-MLS,NMR9-MLS,NMR10-MLS,NMR11-MLS,NMR12-MLS,NMR13-MLS,NMR14-MLS,NMR15-MLS,NMR19-MLS,NMR20-MLS,NMR22-MLS,L-R14-MLS,B1-R14-MLS,B5-R14-MLS,L-R15-MLS,B1-R15-MLS,B5-R15-MLS,VF(C6=O7)-MLS,VI(C6=O7)-MLS,VF(C9=O13)-MLS,VI(C9=O13)-MLS,VF(C11-H12)-MLS,VI(C11-H12)-MLS,L-Y-MLS,B1-Y-MLS,B5-Y-MLS,L-X-MLS,B1-X-MLS,B5-X-MLS,L-R16-MLS,B1-R16-MLS,B5-R16-MLS,BV-MLS,BV-SW-MLS,BV-NW-MLS,BV-NE-MLS,BV-SE-MLS,Area-MLS,Volume-MLS,PSA-MLS,Ovality-MLS,HOMO-MC,LUMO-MC,DM-MC,Rx-MC,Ry-MC,Volume-MC,PSA-MC,Ovality-MC,q(Pd)-MC,DM-CP,HOMO-CP,LUMO-CP,Rx-CP,BL1-2-CP,BL1-6-CP,BL1-7-CP,NMR1-CP,NMR2-CP,NMR6-CP,NMR7-CP,q1-CP,q2-CP,q6-CP,Area-CP,Volume-CP,PSA-CP,Ovality-CP,Rx-B,Ry-B,Rz-B,DM-B,HOMO-B,LUMO-B,Area-B,Volume-B,PSA-B,Ovality-B,q(Ag)-A,Rx-A,Ry-A,Rz-A,HOMO-A,LUMO-A,DM-A,Area-A,Volume-A,PSA-A,Ovality-A,Eqv(L),Eqv(B),Eqv(A),Time(H)   ,Temp.,DC(Solvent),%ee
0.29514,143.9391256,27.48066328,175.0959477,141.0969381,18.10771535,0.916106136,101.8144468,90.09631516,95.00548186,113.6501501,108.8132403,110.5650865,113.3800938,122.4009693,119.1047297,126.7801015,117.7409376,103.9279641,92.91643356,1.864212234,2.443060038,2.026564887,1.341056011,1.254460566,1.120436715,1.562811281,1.094186941,1.525509937,1.08433118,-0.1984,-0.07227,3.092,0.5998,-0.67669,0.84343,-0.16562,-0.59981,0.68786,-0.75576,-0.71852,0.83896,-0.35761,-0.50903,0.26148,-0.71063,0.28603,0.28529,0.27404,-0.47511,-0.78036,-614.9391,110.6719,14.5404,120.3362,150.6288,24.7233,-7.5076,154.3553,18.4466,166.9077,211.4779,32.6681,-41.9511,32.1681,29.4536,27.6611,150.7007,169.4709,5.3,1.56,8.19,2.97,1.5,2.03,1618.31,1014.7613,1706.27,729.3513,2754.74,20.3405,2.75,1.02,1.88,2.71,1.03,1.9,2,1,1,36.4,9,53.6,73.4,9.7,356.27,330.19,78.725,1.54,-0.25089,-0.10865,0,6.15737,0.60887,123.19,54.714,1.35,0.74907,2.9017,-0.23066,-0.03108,5.49795,1.39245,1.394990094,2.163257702,61.5662,61.5965,61.6134,46.1174,-0.20895,-0.25249,-0.25274,195.67,172.91,20.079,1.3,6.0219779,1.9126339,1.4522648,10.1662,-0.20732,-0.02413,91.37,62.39,40.332,1.2,0.79875,4.46774,0.38892,0.35777,-0.203,-0.07991,8.3156,97.67,66.44,40.427,1.23,20,1.5,1.5,16,80,16.777,68
0.31588,143.1594154,25.15297715,173.4122368,142.3180692,17.46194776,6.302304862,98.47569546,96.7827533,94.83810806,113.579904,109.2906454,111.3637497,113.2187521,122.6478241,119.2027027,126.9262153,117.6694392,99.77146544,89.31557591,1.91287082,2.313143699,2.01834508,1.346065666,1.248138821,1.119632692,1.559011316,1.095571674,1.528565532,1.086206683,-0.1892,-0.05717,0.8226,0.57008,-0.65421,0.83092,-0.16462,-0.6137,0.6813,-0.71402,-0.69548,0.82414,-0.35675,-0.52812,0.27095,-0.67624,0.27922,0.28292,0.26581,-0.47733,-0.77846,-581.8196,102.201,16.5185,122.1551,153.0372,27.0601,-36.3902,137.1287,23.1359,168.4536,213.6384,31.8698,-63.1183,32.816,30.0307,27.7474,150.1253,169.5933,4.71,1.55,6.07,2.97,1.5,2.03,1659.01,383.9089,1749.71,444.1599,2767.56,42.7705,2.75,1.02,1.88,2.71,1.03,1.9,2,1,1,35,9.8,57,63.5,9.5,332.55,303.53,71.097,1.52,-0.25805,-0.10973,0,6.15825,0.61168,123.13,54.677,1.35,0.69974,4.3093,-0.25443,-0.05436,1.15223,1.406029791,1.406432386,1.559021459,60.8212,61.115,61.2353,82.7487,-0.38986,-0.20234,-0.20275,304.51,281.72,33.948,1.47,1.78781,0.89525,0.69034,14.8576,-0.19038,-0.02356,136.53,98.77,66.378,1.32,0.76466,4.5053,0.40063,0.36793,-0.18794,-0.07871,7.5468,96.82,66.16,40.159,1.22,20,1.5,1.5,12,80,13.63,94
0.25665,163.1559658,24.29590939,179.7846392,142.4057298,16.94566624,7.80928977,96.99248683,98.51805416,74.36508022,113.8809354,109.6612058,111.9907103,113.5571131,125.0622956,123.3141827,125.6140058,118.7094352,100.6514187,92.23813594,1.894124312,2.451286373,2.013011459,1.344056797,1.238268106,1.118651929,1.559915123,1.096140144,1.37322053,1.086046811,-0.19009,-0.05982,3.3372,0.57777,-0.65038,0.83071,-0.16245,-0.6481,0.94087,-0.73599,-0.69157,0.8243,-0.35759,-0.51801,0.26463,-0.67303,0.28283,0.28373,0.26976,-0.48184,-0.60843,-587.383,104.4669,16.2815,122.8334,182.302,40.171,82.0731,142.9909,23.1654,169.2276,211.9149,33.1771,-65.4037,32.528,30.0428,27.6973,151.6077,148.843,4.64,1.55,6.1,5.27,1.05,4.2,1700.28,797.4621,1752.4,441.0922,2786.48,15.6872,2.75,1.02,1.88,2.71,1.03,1.9,2,1,1,34.9,5.6,61.7,62.9,9.6,396.34,367.06,73.33,1.6,-0.25805,-0.10973,0,6.15825,0.61168,123.13,54.677,1.35,0.69974,4.3093,-0.25443,-0.05436,1.15223,1.406029791,1.406432386,1.559021459,60.8212,61.115,61.2353,82.7487,-0.38986,-0.20234,-0.20275,304.51,281.72,33.948,1.47,1.78781,0.89525,0.69034,14.8576,-0.19038,-0.02356,136.53,98.77,66.378,1.32,0.76466,4.5053,0.40063,0.36793,-0.18794,-0.07871,7.5468,96.82,66.16,40.159,1.22,20,1.5,1.5,12,80,13.63,80
0.34234,153.82595,11.36746177,172.0250909,148.752726,14.76981121,8.433212412,89.62008433,111.1363539,84.0647155,115.3782175,109.5721084,113.9234208,112.444224,125.0019691,123.1982664,125.221974,113.1831806,113.3237309,92.91663358,1.812370118,2.420799286,2.000320365,1.346603725,1.238271206,1.137409986,1.53559005,1.097087193,1.372714851,1.539194215,-0.18143,-0.05391,1.2105,0.57727,-0.64397,0.83207,-0.17166,-0.65132,0.9412,-0.73235,-0.69511,0.83664,-0.15721,-0.43679,0.22079,-0.67722,0.2701,-0.4518,0.26173,-0.6885,-0.60696,-574.0751,118.8551,15.3213,130.3669,175.6553,39.7174,75.8654,134.5403,18.0747,139.0856,162.5828,35.452,-55.4614,29.3188,154.6636,28.0482,168.2877,153.1524,2.97,1.51,2.03,5.27,1.05,4.2,1698.22,612.4328,1730.54,866.1244,2572.86,278.6365,2.75,1.02,1.88,2.71,1.03,1.9,4.05,1.5,3.14,23.8,6.7,47.1,30.8,10.7,374.8,336.15,73.697,1.6,-0.2582,-0.10974,0.0001,6.15816,0.61175,123.13,54.67,1.35,0.70235,2.3435,-0.24552,-0.02109,1.33336,1.406419107,1.406353917,1.554839652,66.6148,61.3157,61.3096,82.5072,-0.41996,-0.20006,-0.20008,251.49,233.49,13.863,1.37,6.1268961,1.9593751,1.4846016,9.2134,-0.1792,-0.02399,90.57,62.11,40.099,1.19,0.75582,4.5178,0.40418,0.371,-0.1898,-0.08443,7.2601,96.57,66.07,40.078,1.22,20,2,1.5,24,70,5.91,24
0.27783,151.9270882,13.66625607,173.6006233,147.0917359,12.79650888,7.710061002,88.0004729,109.0339911,84.04830519,115.586551,111.8073862,114.1553851,111.7456272,125.0424963,123.1813541,124.9192375,113.3225316,113.0806752,92.62038717,1.811065313,2.419291561,2.000672337,1.345574371,1.238643036,1.137683327,1.558911762,1.096283638,1.372970046,1.539707976,-0.18017,-0.05313,0.7172,0.57868,-0.64442,0.83183,-0.16855,-0.64779,0.94134,-0.73316,-0.69637,0.83742,-0.1571,-0.43746,0.22185,-0.67762,0.26955,-0.45155,0.26512,-0.25314,-0.60741,-572.0039,109.3706,17.2091,122.4976,177.5928,40.3148,77.5909,134.5924,17.905,139.4437,162.954,35.3644,-55.0399,29.2624,154.6221,28.108,155.8928,153.2861,4.14,1.92,3.18,5.27,1.05,4.2,1697.75,638.4225,1730.56,980.1647,2569.07,269.6491,2.75,1.02,1.88,2.71,1.03,1.9,4.05,1.5,3.14,26.6,7.2,48,40.5,10.8,410.65,372.38,72.579,1.64,-0.2582,-0.10974,0.0001,6.15816,0.61175,123.13,54.67,1.35,0.70235,2.3435,-0.24552,-0.02109,1.33336,1.406419107,1.406353917,1.554839652,66.6148,61.3157,61.3096,82.5072,-0.41996,-0.20006,-0.20008,251.49,233.49,13.863,1.37,6.1268961,1.9593751,1.4846016,9.2134,-0.1792,-0.02399,90.57,62.11,40.099,1.19,0.75582,4.5178,0.40418,0.371,-0.1898,-0.08443,7.2601,96.57,66.07,40.078,1.22,20,2,1.5,24,70,5.91,34
0.259,158.0779239,13.95146327,176.0698405,149.2321686,15.3368426,7.279197035,89.62863117,115.0275509,75.35481811,114.8149719,111.4435251,114.0641783,115.6162633,125.0014459,123.1189975,125.300874,113.1453415,112.8223119,93.25600889,1.815076083,2.427435805,2.002155123,1.342482248,1.239209682,1.137605541,1.548353443,1.099113568,1.373420035,1.539190846,-0.17887,-0.05336,1.1628,0.57528,-0.64514,0.83278,-0.17417,-0.64755,0.94283,-0.7357,-0.69648,0.83769,-0.15667,-0.43607,0.22203,-0.67761,0.26889,-0.451,0.26682,-0.46539,-0.60662,-571.0591,108.7482,14.2528,126.9497,177.8617,40.3887,78.3832,135.9636,18.1192,138.8606,161.9473,35.3567,-55.5919,29.2419,154.6992,27.9813,153.0404,150.2057,4.29,1.57,4.36,5.27,1.05,4.2,1700.01,638.1313,1730.89,906.193,2576.72,269.4667,2.75,1.02,1.88,2.71,1.03,1.9,4.05,1.5,3.14,30.6,4.8,57,50.3,10.1,425.73,390.2,72.666,1.65,-0.2582,-0.10974,0.0001,6.15816,0.61175,123.13,54.67,1.35,0.70235,2.3435,-0.24552,-0.02109,1.33336,1.406419107,1.406353917,1.554839652,66.6148,61.3157,61.3096,82.5072,-0.41996,-0.20006,-0.20008,251.49,233.49,13.863,1.37,6.1268961,1.9593751,1.4846016,9.2134,-0.1792,-0.02399,90.57,62.11,40.099,1.19,0.75582,4.5178,0.40418,0.371,-0.1898,-0.08443,7.2601,96.57,66.07,40.078,1.22,20,2,1.5,24,70,5.91,27
0.25982,133.138082,20.32470402,172.0185996,149.3626877,15.40619273,15.92654532,89.39712659,99.49810996,103.0407112,115.204063,111.5154995,112.9435057,112.8954024,124.2979054,123.0199073,125.1472785,112.8267289,112.4466925,92.42802962,1.821128886,2.431456928,2.002740399,1.34755485,1.23961851,1.13649864,1.575844637,1.093635611,1.369634981,1.539396972,-0.17971,-0.05178,2.0738,0.57709,-0.64746,0.83364,-0.16723,-0.64535,0.94386,-0.72949,-0.69765,0.83726,-0.15606,-0.44417,0.22509,-0.67879,0.26749,-0.45126,0.26844,-0.04955,-0.6042,-578.5702,114.2063,16.723,119.8434,182.7557,39.1856,67.624,137.8087,18.2267,139.0521,163.906,34.8961,-54.5748,29.327,154.6201,28.1296,153.5159,149.1214,4.12,2.75,3.18,5.27,1.05,4.2,1687.44,620.9756,1729.63,971.2261,2598.66,239.0371,2.75,1.02,1.88,2.71,1.03,1.9,4.05,1.5,3.14,28.6,9.1,49.5,45.2,10.5,426.24,389.9,72.543,1.65,-0.2582,-0.10974,0.0001,6.15816,0.61175,123.13,54.67,1.35,0.70235,2.3435,-0.24552,-0.02109,1.33336,1.406419107,1.406353917,1.554839652,66.6148,61.3157,61.3096,82.5072,-0.41996,-0.20006,-0.20008,251.49,233.49,13.863,1.37,6.1268961,1.9593751,1.4846016,9.2134,-0.1792,-0.02399,90.57,62.11,40.099,1.19,0.75582,4.5178,0.40418,0.371,-0.1898,-0.08443,7.2601,96.57,66.07,40.078,1.22,20,2,1.5,24,70,5.91,29
0.70093,140.1509292,21.26589452,170.9816356,142.5072179,18.40494256,8.523836847,99.8844229,96.96642952,99.04895352,114.7924584,108.9163533,111.9124217,112.0991682,122.7105548,119.0506571,127.1496213,118.1109522,101.0228468,88.28235254,1.899382758,2.262186121,2.008874143,1.347832439,1.248067541,1.120875475,1.537759707,1.095140298,1.528374349,1.086755632,-0.19088,-0.05885,1.2022,0.56327,-0.65466,0.83227,-0.17415,-0.61595,0.68023,-0.71332,-0.69639,0.82237,-0.35968,-0.52933,0.26895,-0.6746,0.28068,0.28347,0.25935,-0.69008,-0.77928,-563.8469,121.0921,15.4129,129.046,146.9877,26.5617,-37.6514,129.6416,22.2715,167.7388,213.7084,31.7537,-62.2461,32.3912,29.6239,28.0718,167.6881,170.1401,2.97,1.51,2.03,2.97,1.5,2.03,1656.94,632.2194,1745.45,1150.8225,2749.94,55.183,2.75,1.02,1.88,2.71,1.03,1.9,2,1,1,23.9,12.1,44.8,28.4,10.3,254.72,219.77,71.418,1.45,-0.25805,-0.10973,0,6.15825,0.61168,123.13,54.677,1.35,0.69974,4.3093,-0.25443,-0.05436,1.15223,1.406029791,1.406432386,1.559021459,60.8212,61.115,61.2353,82.7487,-0.38986,-0.20234,-0.20275,304.51,281.72,33.948,1.47,1.78781,0.89525,0.69034,14.8576,-0.19038,-0.02356,136.53,98.77,66.378,1.32,0.76466,4.5053,0.40063,0.36793,-0.18794,-0.07871,7.5468,96.82,66.16,40.159,1.22,20,1.5,1.5,12,80,13.63,88
0.54916,126.6407778,23.46235015,168.4353838,142.6904011,17.75098434,18.05191277,99.238567,96.3734835,111.3943554,114.3516167,108.8487146,111.1811583,113.9598866,122.2004635,118.4795885,126.7878397,117.9488986,100.6211594,88.11147221,1.90793708,2.248447198,2.01257817,1.35154571,1.248887645,1.119802092,1.558764484,1.094598164,1.527594833,1.086770259,-0.19057,-0.05756,1.8659,0.56252,-0.65735,0.8322,-0.17154,-0.61738,0.68349,-0.70888,-0.69551,0.82269,-0.35881,-0.53404,0.27139,-0.67574,0.27942,0.28321,0.26067,-0.25306,-0.77821,-579.1723,112.7171,15.858,120.5902,156.3324,22.9272,-55.5723,135.3246,22.4512,167.7021,213.9779,31.1436,-62.1121,32.3809,29.6249,28.1282,155.8658,169.0112,4.16,1.92,3.18,2.97,1.5,2.03,1647.31,590.3832,1743.79,1214.3361,2764.68,54.3056,2.75,1.02,1.88,2.71,1.03,1.9,2,1,1,27.9,15.5,47.7,38.5,10,289.87,256.03,71.541,1.49,-0.25805,-0.10973,0,6.15825,0.61168,123.13,54.677,1.35,0.69974,4.3093,-0.25443,-0.05436,1.15223,1.406029791,1.406432386,1.559021459,60.8212,61.115,61.2353,82.7487,-0.38986,-0.20234,-0.20275,304.51,281.72,33.948,1.47,1.78781,0.89525,0.69034,14.8576,-0.19038,-0.02356,136.53,98.77,66.378,1.32,0.76466,4.5053,0.40063,0.36793,-0.18794,-0.07871,7.5468,96.82,66.16,40.159,1.22,20,1.5,1.5,12,80,13.63,90
0.45489,143.07129,19.56261417,169.8271274,142.4451508,17.97810096,10.50857251,100.1899619,109.0441719,90.19526734,114.3018587,111.1610856,112.6512073,116.1657418,122.6145249,118.8995796,127.2969226,117.9749489,101.6221892,88.7212435,1.893579172,2.23812535,2.007661696,1.347078571,1.249580579,1.121784624,1.549794127,1.098319818,1.527471683,1.08662418,-0.18959,-0.05755,2.3335,0.55766,-0.65414,0.8334,-0.17778,-0.61259,0.68195,-0.71478,-0.69677,0.82305,-0.35957,-0.52455,0.26872,-0.6761,0.27912,0.28254,0.26462,-0.46351,-0.77656,-564.4207,107.8419,14.3962,125.6631,149.1202,25.8439,-44.7091,132.5177,22.1595,167.9613,211.6442,31.5277,-62.4166,32.3032,29.6609,27.9314,152.4658,169.4535,4.3,1.58,4.33,2.97,1.5,2.03,1651.48,626.6355,1742.58,1135.337,2741.94,55.4768,2.75,1.02,1.88,2.71,1.03,1.9,2,1,1,30.9,12.4,55.9,45.5,9.9,306.58,274.08,70.34,1.5,-0.25805,-0.10973,0,6.15825,0.61168,123.13,54.677,1.35,0.69974,4.3093,-0.25443,-0.05436,1.15223,1.406029791,1.406432386,1.559021459,60.8212,61.115,61.2353,82.7487,-0.38986,-0.20234,-0.20275,304.51,281.72,33.948,1.47,1.78781,0.89525,0.69034,14.8576,-0.19038,-0.02356,136.53,98.77,66.378,1.32,0.76466,4.5053,0.40063,0.36793,-0.18794,-0.07871,7.5468,96.82,66.16,40.159,1.22,20,1.5,1.5,12,80,13.63,90
0.51409,142.1851204,16.16455477,169.4544958,142.2362881,18.07479073,12.17158246,100.0838297,109.457199,91.78906215,115.3627688,111.738434,113.2443886,114.2085314,122.7193362,118.703128,127.2960942,118.055854,101.7026849,88.66044178,1.897635,2.232697335,2.006733962,1.349556584,1.248585496,1.120952034,1.565188144,1.096529246,1.528536886,1.086724348,-0.19079,-0.05841,1.0081,0.55859,-0.65193,0.83436,-0.17363,-0.61351,0.68197,-0.71269,-0.69479,0.82307,-0.35989,-0.52417,0.26849,-0.6757,0.28023,0.28256,0.26091,-0.25215,-0.77846,-571.3613,106.7413,16.7038,120.9313,145.1622,25.3065,-43.0804,133.6136,22.3092,168.0128,211.6502,31.7554,-62.0897,32.3453,29.7316,28.0157,147.5942,169.2914,4.2,1.93,4.36,2.97,1.5,2.03,1654.17,617.3428,1748.16,569.0092,2746.8,54.4837,2.75,1.02,1.88,2.71,1.03,1.9,2,1,1,28.9,11.9,50.1,43.2,10.5,308.85,274.39,70.146,1.51,-0.25805,-0.10973,0,6.15825,0.61168,123.13,54.677,1.35,0.69974,4.3093,-0.25443,-0.05436,1.15223,1.406029791,1.406432386,1.559021459,60.8212,61.115,61.2353,82.7487,-0.38986,-0.20234,-0.20275,304.51,281.72,33.948,1.47,1.78781,0.89525,0.69034,14.8576,-0.19038,-0.02356,136.53,98.77,66.378,1.32,0.76466,4.5053,0.40063,0.36793,-0.18794,-0.07871,7.5468,96.82,66.16,40.159,1.22,20,1.5,1.5,12,80,13.63,94
0.50531,122.5695689,25.8547587,168.534312,142.7127936,17.44514582,16.51250356,98.96196177,92.74265189,113.4092358,114.8453078,111.6493544,111.2110337,113.4231305,122.1287405,118.6559252,126.6500635,117.8707441,100.122842,88.57943918,1.917245002,2.270638252,2.01140889,1.350318326,1.249084584,1.119007993,1.576732924,1.094000287,1.527494028,1.086646874,-0.18942,-0.05687,1.5229,0.56058,-0.65686,0.83291,-0.16704,-0.61137,0.68343,-0.70901,-0.69628,0.82275,-0.35856,-0.53607,0.27258,-0.6761,0.27948,0.28313,0.25971,-0.05043,-0.77762,-578.597,115.4276,17.3677,116.9729,151.668,23.7042,-54.1564,135.459,22.6344,167.7056,214.6939,31.0582,-61.8343,32.3979,29.5923,28.3308,154.028,168.4575,4.13,2.75,3.19,2.97,1.5,2.03,1647.39,609.4376,1748.76,429.3106,2770.37,49.2506,2.75,1.02,1.88,2.71,1.03,1.9,2,1,1,28.7,14.9,48.8,40.8,10.3,305.09,273.66,70.523,1.5,-0.25805,-0.10973,0,6.15825,0.61168,123.13,54.677,1.35,0.69974,4.3093,-0.25443,-0.05436,1.15223,1.406029791,1.406432386,1.559021459,60.8212,61.115,61.2353,82.7487,-0.38986,-0.20234,-0.20275,304.51,281.72,33.948,1.47,1.78781,0.89525,0.69034,14.8576,-0.19038,-0.02356,136.53,98.77,66.378,1.32,0.76466,4.5053,0.40063,0.36793,-0.18794,-0.07871,7.5468,96.82,66.16,40.159,1.22,20,1.5,1.5,12,80,13.63,94
0.39949,146.3758142,23.74976814,174.8007576,142.195859,18.89084765,0.215276509,99.69822035,92.84498971,91.98996848,114.9900124,109.0495714,111.692789,114.0667758,122.6332969,119.6281044,127.0496541,118.2229217,100.7894264,89.08348073,1.890916788,2.307603251,2.012202081,1.348088115,1.246318897,1.121628725,1.534479893,1.095371116,1.527754455,1.086516215,-0.19365,-0.06085,2.1285,0.57173,-0.65164,0.84332,-0.18103,-0.61587,0.68439,-0.71118,-0.69417,0.82337,-0.35926,-0.52712,0.26905,-0.67243,0.28174,0.28435,0.27387,-0.04553,-0.78019,-564.3071,119.4024,17.1313,121.6944,153.9641,26.5772,-35.66,132.5589,22.3989,167.843,213.508,31.7965,-64.1001,32.1298,29.5556,26.9038,52.6804,169.8879,6.37,1.7,3.19,2.97,1.5,2.03,1666.58,668.1334,1753.36,384.4185,2748.59,45.2511,2.75,1.02,1.88,2.71,1.03,1.9,2,1,1,26.8,9.5,52.4,34.9,10.5,313.1,285.2,70.071,1.49,-0.25805,-0.10973,0,6.15825,0.61168,123.13,54.677,1.35,0.69974,4.3093,-0.25443,-0.05436,1.15223,1.406029791,1.406432386,1.559021459,60.8212,61.115,61.2353,82.7487,-0.38986,-0.20234,-0.20275,304.51,281.72,33.948,1.47,1.78781,0.89525,0.69034,14.8576,-0.19038,-0.02356,136.53,98.77,66.378,1.32,0.76466,4.5053,0.40063,0.36793,-0.18794,-0.07871,7.5468,96.82,66.16,40.159,1.22,20,1.5,1.5,12,80,13.63,76
0.25061,143.3182198,24.87602449,173.5529846,141.5803299,18.12585002,4.645734016,101.0806249,94.8222763,95.09654889,114.051538,109.0322932,111.1939352,113.1547531,122.753886,119.1334407,127.4282657,117.7869352,101.8875844,90.04205701,1.881867496,2.331402953,2.016228867,1.346853859,1.247475337,1.120854033,1.559286964,1.0950657,1.528997257,1.084476242,-0.18844,-0.05718,2.7231,0.56831,-0.65289,0.83205,-0.16417,-0.61413,0.68101,-0.7139,-0.69625,0.82711,-0.35526,-0.51891,0.26725,-0.68069,0.28071,0.28095,0.2646,-0.47622,-0.77848,-573.8674,101.2296,17.0167,121.4204,152.4005,27.3477,-36.0776,138.4912,21.987,168.2004,212.289,32.0968,-56.3131,32.5526,29.829,27.7623,150.3457,169.6239,6.75,1.56,8.45,2.97,1.5,2.03,1660.26,671.876,1730.73,1047.3169,2760.22,35.6915,2.75,1.02,1.88,2.71,1.03,1.9,2,1,1,35.9,9.9,55.1,68.9,9.7,400.48,374.97,70.818,1.59,-0.25805,-0.10973,0,6.15825,0.61168,123.13,54.677,1.35,0.69974,4.3093,-0.25443,-0.05436,1.15223,1.406029791,1.406432386,1.559021459,60.8212,61.115,61.2353,82.7487,-0.38986,-0.20234,-0.20275,304.51,281.72,33.948,1.47,1.78781,0.89525,0.69034,14.8576,-0.19038,-0.02356,136.53,98.77,66.378,1.32,0.76466,4.5053,0.40063,0.36793,-0.18794,-0.07871,7.5468,96.82,66.16,40.159,1.22,20,1.5,1.5,12,80,13.63,94
0.24055,144.4984261,29.32346441,174.804465,141.7409914,18.14443842,2.341882753,99.64997157,95.42186397,91.27954529,112.6853505,110.94055,110.584958,114.021813,122.6859309,119.4234301,127.3320574,117.4739038,100.7198528,89.54788297,1.888090816,2.344048445,2.020804554,1.344471151,1.248070449,1.120884646,1.571430109,1.095674643,1.528732565,1.085302827,-0.18925,-0.05654,2.132,0.56844,-0.65351,0.83113,-0.16616,-0.60987,0.68202,-0.71423,-0.69663,0.82576,-0.35416,-0.52283,0.26945,-0.67696,0.28042,0.28071,0.26733,-0.48502,-0.7777,-576.3671,99.2082,14.314,124.3111,151.2136,27.6182,-33.1202,138.818,23.195,168.4592,215.8518,32.5668,-64.9931,33.7529,30.283,27.7179,152.4637,169.6467,4.75,1.57,7.26,2.97,1.5,2.03,1659.78,685.0383,1748.18,556.5138,2748.92,39.2623,2.75,1.02,1.88,2.71,1.03,1.9,2,1,1,39.6,9.6,63.1,76.6,9.1,365.37,353.81,70.87,1.51,-0.25805,-0.10973,0,6.15825,0.61168,123.13,54.677,1.35,0.69974,4.3093,-0.25443,-0.05436,1.15223,1.406029791,1.406432386,1.559021459,60.8212,61.115,61.2353,82.7487,-0.38986,-0.20234,-0.20275,304.51,281.72,33.948,1.47,1.78781,0.89525,0.69034,14.8576,-0.19038,-0.02356,136.53,98.77,66.378,1.32,0.76466,4.5053,0.40063,0.36793,-0.18794,-0.07871,7.5468,96.82,66.16,40.159,1.22,20,1.5,1.5,12,80,13.63,90
0.26693,147.6541426,25.46137021,175.6557598,142.2426812,17.48153006,0.832073916,99.65815265,94.79376274,89.82676381,114.1003128,109.6914556,111.1127264,113.5347869,122.5797145,119.404022,127.2269331,117.7795196,101.1522573,89.98383845,1.891442119,2.328348677,2.013336698,1.346656778,1.247156311,1.120784064,1.563548156,1.094947461,1.527693595,1.085957926,-0.18967,-0.05779,2.4821,0.5613,-0.65341,0.83195,-0.16429,-0.61807,0.68526,-0.71346,-0.69574,0.824,-0.35747,-0.5195,0.26784,-0.67573,0.27906,0.28147,0.26723,-0.48663,-0.77707,-571.1606,110.8694,16.3768,124.2555,152.6834,27.0518,-36.1468,137.7155,22.9519,168.8687,212.7569,32.4881,-63.82,32.8678,30.1325,27.7926,161.5019,169.7269,4.76,1.54,6.05,2.97,1.5,2.03,1662.23,652.1358,1745.83,1097.3836,2754.23,37.5598,2.75,1.02,1.88,2.71,1.03,1.9,2,1,1,37,8.8,64.5,64.7,9.9,333.09,312.27,70.575,1.5,-0.25805,-0.10973,0,6.15825,0.61168,123.13,54.677,1.35,0.69974,4.3093,-0.25443,-0.05436,1.15223,1.406029791,1.406432386,1.559021459,60.8212,61.115,61.2353,82.7487,-0.38986,-0.20234,-0.20275,304.51,281.72,33.948,1.47,1.78781,0.89525,0.69034,14.8576,-0.19038,-0.02356,136.53,98.77,66.378,1.32,0.76466,4.5053,0.40063,0.36793,-0.18794,-0.07871,7.5468,96.82,66.16,40.159,1.22,20,1.5,1.5,12,80,13.63,86
0.09805,130.0876591,28.48245846,170.0931141,142.0885438,16.59656457,11.8476179,98.46271053,95.33055273,104.1365737,113.3602922,111.8371705,110.0877696,114.3461402,122.5415645,119.7313298,127.1603266,116.7969475,99.70991511,89.65434137,1.914186394,2.399565639,2.013074703,1.345219519,1.251189361,1.119217876,1.568990168,1.093407737,1.52733952,1.086020656,-0.18668,-0.05531,1.7267,0.57707,-0.65545,0.83598,-0.16356,-0.60921,0.69057,-0.71585,-0.70079,0.82517,-0.35385,-0.52407,0.26938,-0.67521,0.27326,0.28248,0.26413,-0.48164,-0.77192,-575.6234,105.6104,16.1608,123.6694,150.4009,24.0119,-23.3238,135.3153,22.5608,167.6719,215.0335,31.8706,-66.2735,32.6419,29.7941,28.3718,160.1354,170.8948,6.21,3.86,9.41,2.97,1.5,2.03,1639,694.0784,1743.5,1079.3204,2778.41,35.9609,2.75,1.02,1.88,2.71,1.03,1.9,2,1,1,45.9,12.2,72.7,76.9,21.9,694.46,701.18,68.868,1.82,-0.25805,-0.10973,0,6.15825,0.61168,123.13,54.677,1.35,0.69974,4.3093,-0.25443,-0.05436,1.15223,1.406029791,1.406432386,1.559021459,60.8212,61.115,61.2353,82.7487,-0.38986,-0.20234,-0.20275,304.51,281.72,33.948,1.47,1.78781,0.89525,0.69034,14.8576,-0.19038,-0.02356,136.53,98.77,66.378,1.32,0.76466,4.5053,0.40063,0.36793,-0.18794,-0.07871,7.5468,96.82,66.16,40.159,1.22,20,1.5,1.5,12,80,13.63,96
0.15158,134.3255949,28.00325589,171.4418572,141.6708388,17.37264094,9.491591376,98.28078486,95.48268224,100.7149486,113.5262677,111.3754391,110.4620282,114.0940853,122.4873568,119.4627456,126.9697356,117.2396347,99.976976,89.37795462,1.907537206,2.343990245,2.011347733,1.345003753,1.248997512,1.119358029,1.569697416,1.094267555,1.528102042,1.086187194,-0.18688,-0.05452,3.2233,0.56562,-0.6552,0.83386,-0.16344,-0.61036,0.68556,-0.71519,-0.69905,0.82417,-0.35522,-0.52521,0.2708,-0.67734,0.27553,0.28182,0.26491,-0.4819,-0.77531,-571.8694,104.1237,16.4414,124.2366,150.789,25.9219,-33.285,134.4731,22.6508,168.0483,214.9153,31.7729,-64.9194,32.7882,29.7891,28.4691,159.2985,169.7496,4.75,2.08,7.2,2.97,1.5,2.03,1652.03,537.802,1744.65,1112.6086,2777,40.4168,2.75,1.02,1.88,2.71,1.03,1.9,2,1,1,41.7,12.4,69.6,74.9,9.9,465.13,467.9,70.017,1.6,-0.25805,-0.10973,0,6.15825,0.61168,123.13,54.677,1.35,0.69974,4.3093,-0.25443,-0.05436,1.15223,1.406029791,1.406432386,1.559021459,60.8212,61.115,61.2353,82.7487,-0.38986,-0.20234,-0.20275,304.51,281.72,33.948,1.47,1.78781,0.89525,0.69034,14.8576,-0.19038,-0.02356,136.53,98.77,66.378,1.32,0.76466,4.5053,0.40063,0.36793,-0.18794,-0.07871,7.5468,96.82,66.16,40.159,1.22,20,1.5,1.5,12,80,13.63,94
0.14239,135.9066289,28.98323792,172.6294187,141.121824,17.93991325,7.295400897,102.0786738,93.44707546,99.57250836,113.4769685,111.1023288,110.1197869,114.1556446,122.5093872,119.4548519,128.0239539,116.9977061,102.5158848,89.52056138,1.879852029,2.350276665,2.012456367,1.344322921,1.248876717,1.120994649,1.570605043,1.094162501,1.52834077,1.085317467,-0.18772,-0.05591,3.37,0.56526,-0.65503,0.83341,-0.16316,-0.61058,0.68493,-0.71552,-0.70268,0.82488,-0.35557,-0.51554,0.2663,-0.67665,0.27614,0.28078,0.26546,-0.48156,-0.77538,-566.8848,101.8178,16.6512,123.7589,149.836,26.5729,-30.8479,138.4711,22.1697,168.0376,213.1576,32.0091,-68.1296,32.77,29.8587,28.4347,158.9846,169.567,4.81,2.06,7.76,2.97,1.5,2.03,1653.56,700.7613,1743.88,1042.2225,2744.55,37.9865,2.75,1.02,1.88,2.71,1.03,1.9,2,1,1,42.5,13.3,70.7,75.7,10.1,474.19,476.78,69.418,1.61,-0.25805,-0.10973,0,6.15825,0.61168,123.13,54.677,1.35,0.69974,4.3093,-0.25443,-0.05436,1.15223,1.406029791,1.406432386,1.559021459,60.8212,61.115,61.2353,82.7487,-0.38986,-0.20234,-0.20275,304.51,281.72,33.948,1.47,1.78781,0.89525,0.69034,14.8576,-0.19038,-0.02356,136.53,98.77,66.378,1.32,0.76466,4.5053,0.40063,0.36793,-0.18794,-0.07871,7.5468,96.82,66.16,40.159,1.22,20,1.5,1.5,12,80,13.63,90
0.14378,134.3930621,28.69632073,171.816448,141.4549113,17.37753978,8.449791591,101.4013787,93.78575101,101.0616403,113.4925214,111.075691,110.2281677,114.2201738,122.4841512,119.4588027,127.8108407,117.0202188,102.0059716,89.66414619,1.887512585,2.352174843,2.012207636,1.344541879,1.248979959,1.120253781,1.570521515,1.094084186,1.528300522,1.085309398,-0.18634,-0.0547,2.1288,0.56531,-0.65485,0.8341,-0.16322,-0.60967,0.68563,-0.71557,-0.70296,0.82453,-0.35532,-0.51719,0.26688,-0.67763,0.27649,0.28048,0.26446,-0.48141,-0.77523,-569.7801,103.2547,16.4753,124.019,150.4292,26.3249,-31.4212,139.2732,22.3119,168.1101,213.4421,31.9881,-66.9308,32.7525,29.8604,28.4682,159.0841,169.6493,4.76,2.29,8.22,2.97,1.5,2.03,1652.34,673.6842,1743.53,1047.2805,2756.19,36.6747,2.75,1.02,1.88,2.71,1.03,1.9,2,1,1,42.2,12.7,70.1,76,10.1,504.28,504.42,69.826,1.65,-0.25805,-0.10973,0,6.15825,0.61168,123.13,54.677,1.35,0.69974,4.3093,-0.25443,-0.05436,1.15223,1.406029791,1.406432386,1.559021459,60.8212,61.115,61.2353,82.7487,-0.38986,-0.20234,-0.20275,304.51,281.72,33.948,1.47,1.78781,0.89525,0.69034,14.8576,-0.19038,-0.02356,136.53,98.77,66.378,1.32,0.76466,4.5053,0.40063,0.36793,-0.18794,-0.07871,7.5468,96.82,66.16,40.159,1.22,20,1.5,1.5,12,80,13.63,90
0.14117,133.7935332,29.13566148,171.5431345,141.4103861,17.31632072,8.944630002,100.930279,94.0836818,101.4765753,113.2389008,111.1961265,110.1799474,114.2437311,122.4501156,119.4793566,127.6705303,117.0066167,101.8907849,89.55327817,1.888706473,2.357004559,2.012934025,1.344496143,1.249202127,1.120441951,1.570233704,1.094180073,1.528202434,1.085353252,-0.18575,-0.05458,4.8333,0.56393,-0.65548,0.83441,-0.16338,-0.60836,0.68581,-0.71573,-0.70339,0.82401,-0.35545,-0.51751,0.26664,-0.6777,0.27653,0.28062,0.26434,-0.48093,-0.77488,-568.8886,103.7643,16.4638,124.1007,151.0599,26.2114,-31.8337,138.1734,22.2898,168.07,213.7047,32.072,-66.9053,32.7755,29.8585,28.452,159.2927,169.6942,4.71,2.09,9.32,2.97,1.5,2.03,1651.39,681.3425,1743.45,1043.5588,2760.39,35.8154,2.75,1.02,1.88,2.71,1.03,1.9,2,1,1,42.2,12.5,69.8,76.4,10.2,523.24,522.15,83.8,1.67,-0.25805,-0.10973,0,6.15825,0.61168,123.13,54.677,1.35,0.69974,4.3093,-0.25443,-0.05436,1.15223,1.406029791,1.406432386,1.559021459,60.8212,61.115,61.2353,82.7487,-0.38986,-0.20234,-0.20275,304.51,281.72,33.948,1.47,1.78781,0.89525,0.69034,14.8576,-0.19038,-0.02356,136.53,98.77,66.378,1.32,0.76466,4.5053,0.40063,0.36793,-0.18794,-0.07871,7.5468,96.82,66.16,40.159,1.22,20,1.5,1.5,12,80,13.63,92
0.1089,133.614676,28.36771087,171.1273882,141.6031267,17.39251891,10.02691217,97.58145912,95.46548342,101.5120019,113.2922252,111.2326411,110.3789221,114.1635305,122.4628093,119.4712742,126.7430668,117.30744,99.6415467,89.00488013,1.911046318,2.344818575,2.013101517,1.345223646,1.249028949,1.119367192,1.569474722,1.094272466,1.527982093,1.086239628,-0.18687,-0.05473,3.5349,0.56512,-0.65564,0.83367,-0.16365,-0.60982,0.68585,-0.71445,-0.69912,0.82396,-0.35514,-0.52634,0.27106,-0.67702,0.27558,0.2821,0.26513,-0.48211,-0.77504,-573.1908,103.0546,16.2899,124.3786,151.0978,25.833,-34.0723,132.6618,22.593,167.8502,215.3685,31.7525,-65.3355,32.79,29.7304,28.4129,159.3018,169.6996,5,3.57,11.37,2.97,1.5,2.03,1651.52,641.1346,1744.18,1116.2452,2777.15,41.315,2.75,1.02,1.88,2.71,1.03,1.9,2,1,1,41.8,12.3,69.3,75.6,10,624.93,635.21,70.085,1.75,-0.25805,-0.10973,0,6.15825,0.61168,123.13,54.677,1.35,0.69974,4.3093,-0.25443,-0.05436,1.15223,1.406029791,1.406432386,1.559021459,60.8212,61.115,61.2353,82.7487,-0.38986,-0.20234,-0.20275,304.51,281.72,33.948,1.47,1.78781,0.89525,0.69034,14.8576,-0.19038,-0.02356,136.53,98.77,66.378,1.32,0.76466,4.5053,0.40063,0.36793,-0.18794,-0.07871,7.5468,96.82,66.16,40.159,1.22,20,1.5,1.5,12,80,13.63,84
0.12119,131.7709867,28.75472452,170.9986735,141.8427566,17.00021707,10.85233198,98.50410228,94.53290591,103.301651,113.3221543,111.3040226,110.1785392,114.227794,122.4334467,119.4626218,127.0473983,117.0563079,99.9507829,89.4957161,1.9069073,2.361236121,2.013122847,1.345312322,1.24905593,1.119674365,1.570478591,1.09403549,1.528301892,1.085758461,-0.1862,-0.05434,0.8173,0.56378,-0.65525,0.83435,-0.16337,-0.60917,0.68641,-0.71462,-0.7004,0.82364,-0.35465,-0.52523,0.27038,-0.67745,0.27615,0.28158,0.26419,-0.48204,-0.77519,-573.1308,103.1904,16.23,124.3675,151.1974,25.8224,-34.3298,135.0267,22.5608,167.7152,215.1624,31.8698,-66.1944,32.817,29.7785,28.49,159.5439,169.6151,4.74,3.28,9.7,2.97,1.5,2.03,1651.14,646.5808,1743.69,1109.9142,2771.64,37.7559,2.75,1.02,1.88,2.71,1.03,1.9,2,1,1,42.1,11.9,69.3,76.7,10.5,608.84,611.5,70,1.75,-0.25805,-0.10973,0,6.15825,0.61168,123.13,54.677,1.35,0.69974,4.3093,-0.25443,-0.05436,1.15223,1.406029791,1.406432386,1.559021459,60.8212,61.115,61.2353,82.7487,-0.38986,-0.20234,-0.20275,304.51,281.72,33.948,1.47,1.78781,0.89525,0.69034,14.8576,-0.19038,-0.02356,136.53,98.77,66.378,1.32,0.76466,4.5053,0.40063,0.36793,-0.18794,-0.07871,7.5468,96.82,66.16,40.159,1.22,20,1.5,1.5,12,80,13.63,94
0.15408,132.739708,29.02032336,173.0480822,141.3599782,17.20529255,11.79360442,99.33321775,94.46409165,102.2329546,113.269964,111.3939402,110.0100993,114.1846743,122.4935042,119.3933176,127.3351741,116.8790703,100.6665869,89.84050067,1.897276028,2.38673726,2.012240531,1.344548565,1.250655436,1.120356155,1.571319654,1.093820581,1.527875538,1.085466632,-0.18747,-0.05532,2.5061,0.56652,-0.65458,0.8341,-0.16344,-0.60893,0.68722,-0.71776,-0.70094,0.82393,-0.35462,-0.52066,0.26856,-0.67678,0.2759,0.28145,0.2648,-0.48204,-0.77424,-571.9027,104.419,16.413,123.9678,151.4434,24.8544,-22.8679,137.0943,22.4681,167.95,214.6446,32.0312,-67.3614,32.7316,29.8178,28.4725,158.9889,169.6981,4.75,2.04,8.02,2.97,1.5,2.03,1642.54,673.6812,1743.37,1058.5044,2764.84,34.0201,2.75,1.02,1.88,2.71,1.03,1.9,2,1,1,43,11.7,70.1,76.9,13.4,502.4,503.99,69.863,1.64,-0.25805,-0.10973,0,6.15825,0.61168,123.13,54.677,1.35,0.69974,4.3093,-0.25443,-0.05436,1.15223,1.406029791,1.406432386,1.559021459,60.8212,61.115,61.2353,82.7487,-0.38986,-0.20234,-0.20275,304.51,281.72,33.948,1.47,1.78781,0.89525,0.69034,14.8576,-0.19038,-0.02356,136.53,98.77,66.378,1.32,0.76466,4.5053,0.40063,0.36793,-0.18794,-0.07871,7.5468,96.82,66.16,40.159,1.22,20,1.5,1.5,12,80,13.63,94
0.12795,141.416246,15.47047683,169.2220766,141.9006839,17.96711699,20.16823873,99.45023701,119.4763279,89.95417166,113.7286718,111.4937499,112.8432137,117.1320433,122.6144113,118.545953,127.0466627,118.0152062,101.9897098,87.98611762,1.904643683,2.19885152,2.010478873,1.351892566,1.24855659,1.120340031,1.576938824,1.097494415,1.525190005,1.085105458,-0.1889,-0.05508,4.4241,0.56245,-0.65676,0.83977,-0.1691,-0.61944,0.68796,-0.7108,-0.69406,0.82956,-0.35412,-0.52467,0.26709,-0.6868,0.27686,0.28286,0.26478,-0.49092,-0.77576,-601.7343,119.5394,15.1439,127.8182,154.8868,22.0862,-50.1424,137.7047,20.9915,166.5253,211.0824,31.6248,-53.2288,32.4049,29.2015,28.2541,156.2723,167.6447,6.76,4.22,8.97,2.97,1.5,2.03,1652.09,571.0769,1732.3,1073.2525,2750.42,59.4449,2.75,1.02,1.88,2.71,1.03,1.9,2,1,1,41.1,17.3,58.1,77.9,11.1,580.01,575.91,95.752,1.73,-0.25805,-0.10973,0,6.15825,0.61168,123.13,54.677,1.35,0.69974,4.3093,-0.25443,-0.05436,1.15223,1.406029791,1.406432386,1.559021459,60.8212,61.115,61.2353,82.7487,-0.38986,-0.20234,-0.20275,304.51,281.72,33.948,1.47,1.78781,0.89525,0.69034,14.8576,-0.19038,-0.02356,136.53,98.77,66.378,1.32,0.76466,4.5053,0.40063,0.36793,-0.18794,-0.07871,7.5468,96.82,66.16,40.159,1.22,20,1.5,1.5,12,80,13.63,90
0.28995,142.8062763,26.74871204,173.6674815,141.4904278,17.1500482,2.083917528,102.7498027,91.28495499,96.18434151,113.9892372,108.7571354,110.8030912,113.2059099,122.7433911,119.2374316,127.6675183,117.6464635,103.4328963,90.66703181,1.877287092,2.358289132,2.019403513,1.346319935,1.247344697,1.120096734,1.562279816,1.094730635,1.529154882,1.084813531,-0.1864,-0.05834,3.3081,0.56335,-0.65022,0.83001,-0.16422,-0.61153,0.6779,-0.71909,-0.69772,0.82299,-0.35544,-0.5087,0.26183,-0.67788,0.28186,0.27777,0.26442,-0.47431,-0.778,-585.1276,99.5703,16.7728,120.6625,152.423,26.8719,-34.955,146.3225,21.0946,167.2866,210.8863,32.6031,-66.5008,32.2521,29.6412,27.8379,150.4168,169.7236,4.99,1.56,8.23,2.97,1.5,2.03,1661.01,709.1638,1730.33,1012.4079,2763,28.8662,2.75,1.02,1.88,2.71,1.03,1.9,2,1,1,36.3,9.4,53.7,72.7,9.6,354.97,330.13,77.639,1.54,-0.25805,-0.10973,0,6.15825,0.61168,123.13,54.677,1.35,0.69974,4.3093,-0.25443,-0.05436,1.15223,1.406029791,1.406432386,1.559021459,60.8212,61.115,61.2353,82.7487,-0.38986,-0.20234,-0.20275,304.51,281.72,33.948,1.47,1.78781,0.89525,0.69034,14.8576,-0.19038,-0.02356,136.53,98.77,66.378,1.32,0.76466,4.5053,0.40063,0.36793,-0.18794,-0.07871,7.5468,96.82,66.16,40.159,1.22,20,1.5,1.5,12,80,13.63,92
0.12119,131.7709867,28.75472452,170.9986735,141.8427566,17.00021707,10.85233198,98.50410228,94.53290591,103.301651,113.3221543,111.3040226,110.1785392,114.227794,122.4334467,119.4626218,127.0473983,117.0563079,99.9507829,89.4957161,1.9069073,2.361236121,2.013122847,1.345312322,1.24905593,1.119674365,1.570478591,1.09403549,1.528301892,1.085758461,-0.1862,-0.05434,0.8173,0.56378,-0.65525,0.83435,-0.16337,-0.60917,0.68641,-0.71462,-0.7004,0.82364,-0.35465,-0.52523,0.27038,-0.67745,0.27615,0.28158,0.26419,-0.48204,-0.77519,-573.1308,103.1904,16.23,124.3675,151.1974,25.8224,-34.3298,135.0267,22.5608,167.7152,215.1624,31.8698,-66.1944,32.817,29.7785,28.49,159.5439,169.6151,4.74,3.28,9.7,2.97,1.5,2.03,1651.14,646.5808,1743.69,1109.9142,2771.64,37.7559,2.75,1.02,1.88,2.71,1.03,1.9,2,1,1,42.1,11.9,69.3,76.7,10.5,608.84,611.5,70,1.75,-0.25805,-0.10973,0,6.15825,0.61168,123.13,54.677,1.35,0.69974,4.3093,-0.25443,-0.05436,1.15223,1.406029791,1.406432386,1.559021459,60.8212,61.115,61.2353,82.7487,-0.38986,-0.20234,-0.20275,304.51,281.72,33.948,1.47,1.78781,0.89525,0.69034,14.8576,-0.19038,-0.02356,136.53,98.77,66.378,1.32,0.74468,11.68568,1.47689,1.32194,-0.22374,-0.07308,4.4086,96.85,69.6,27.835,1.18,20,1.5,1.5,12,80,13.63,92
0.12119,131.7709867,28.75472452,170.9986735,141.8427566,17.00021707,10.85233198,98.50410228,94.53290591,103.301651,113.3221543,111.3040226,110.1785392,114.227794,122.4334467,119.4626218,127.0473983,117.0563079,99.9507829,89.4957161,1.9069073,2.361236121,2.013122847,1.345312322,1.24905593,1.119674365,1.570478591,1.09403549,1.528301892,1.085758461,-0.1862,-0.05434,0.8173,0.56378,-0.65525,0.83435,-0.16337,-0.60917,0.68641,-0.71462,-0.7004,0.82364,-0.35465,-0.52523,0.27038,-0.67745,0.27615,0.28158,0.26419,-0.48204,-0.77519,-573.1308,103.1904,16.23,124.3675,151.1974,25.8224,-34.3298,135.0267,22.5608,167.7152,215.1624,31.8698,-66.1944,32.817,29.7785,28.49,159.5439,169.6151,4.74,3.28,9.7,2.97,1.5,2.03,1651.14,646.5808,1743.69,1109.9142,2771.64,37.7559,2.75,1.02,1.88,2.71,1.03,1.9,2,1,1,42.1,11.9,69.3,76.7,10.5,608.84,611.5,70,1.75,-0.25805,-0.10973,0,6.15825,0.61168,123.13,54.677,1.35,0.69974,4.3093,-0.25443,-0.05436,1.15223,1.406029791,1.406432386,1.559021459,60.8212,61.115,61.2353,82.7487,-0.38986,-0.20234,-0.20275,304.51,281.72,33.948,1.47,1.78781,0.89525,0.69034,14.8576,-0.19038,-0.02356,136.53,98.77,66.378,1.32,-1.07941,24.48455,0.84973,0.82123,-0.19514,-0.07854,5.3151,68.37,36.97,23.532,1.27,20,1.5,1.5,12,80,13.63,86
0.12119,131.7709867,28.75472452,170.9986735,141.8427566,17.00021707,10.85233198,98.50410228,94.53290591,103.301651,113.3221543,111.3040226,110.1785392,114.227794,122.4334467,119.4626218,127.0473983,117.0563079,99.9507829,89.4957161,1.9069073,2.361236121,2.013122847,1.345312322,1.24905593,1.119674365,1.570478591,1.09403549,1.528301892,1.085758461,-0.1862,-0.05434,0.8173,0.56378,-0.65525,0.83435,-0.16337,-0.60917,0.68641,-0.71462,-0.7004,0.82364,-0.35465,-0.52523,0.27038,-0.67745,0.27615,0.28158,0.26419,-0.48204,-0.77519,-573.1308,103.1904,16.23,124.3675,151.1974,25.8224,-34.3298,135.0267,22.5608,167.7152,215.1624,31.8698,-66.1944,32.817,29.7785,28.49,159.5439,169.6151,4.74,3.28,9.7,2.97,1.5,2.03,1651.14,646.5808,1743.69,1109.9142,2771.64,37.7559,2.75,1.02,1.88,2.71,1.03,1.9,2,1,1,42.1,11.9,69.3,76.7,10.5,608.84,611.5,70,1.75,-0.28603,-0.15049,0.2333,1.96391,0.16748,151.44,54.622,1.43,0.79269,4.3093,-0.25443,-0.05436,1.15223,1.406029791,1.406432386,1.559021459,60.8212,61.115,61.2353,82.7487,-0.38986,-0.20234,-0.20275,304.51,281.72,33.948,1.47,1.78781,0.89525,0.69034,14.8576,-0.19038,-0.02356,136.53,98.77,66.378,1.32,0.76466,4.5053,0.40063,0.36793,-0.18794,-0.07871,7.5468,96.82,66.16,40.159,1.22,20,1.5,1.5,12,80,13.63,92
0.12119,131.7709867,28.75472452,170.9986735,141.8427566,17.00021707,10.85233198,98.50410228,94.53290591,103.301651,113.3221543,111.3040226,110.1785392,114.227794,122.4334467,119.4626218,127.0473983,117.0563079,99.9507829,89.4957161,1.9069073,2.361236121,2.013122847,1.345312322,1.24905593,1.119674365,1.570478591,1.09403549,1.528301892,1.085758461,-0.1862,-0.05434,0.8173,0.56378,-0.65525,0.83435,-0.16337,-0.60917,0.68641,-0.71462,-0.7004,0.82364,-0.35465,-0.52523,0.27038,-0.67745,0.27615,0.28158,0.26419,-0.48204,-0.77519,-573.1308,103.1904,16.23,124.3675,151.1974,25.8224,-34.3298,135.0267,22.5608,167.7152,215.1624,31.8698,-66.1944,32.817,29.7785,28.49,159.5439,169.6151,4.74,3.28,9.7,2.97,1.5,2.03,1651.14,646.5808,1743.69,1109.9142,2771.64,37.7559,2.75,1.02,1.88,2.71,1.03,1.9,2,1,1,42.1,11.9,69.3,76.7,10.5,608.84,611.5,70,1.75,-0.28351,-0.11334,0.9789,0.23059,0.15953,324.49,39.06,1.89,0.51468,4.3093,-0.25443,-0.05436,1.15223,1.406029791,1.406432386,1.559021459,60.8212,61.115,61.2353,82.7487,-0.38986,-0.20234,-0.20275,304.51,281.72,33.948,1.47,1.78781,0.89525,0.69034,14.8576,-0.19038,-0.02356,136.53,98.77,66.378,1.32,0.76466,4.5053,0.40063,0.36793,-0.18794,-0.07871,7.5468,96.82,66.16,40.159,1.22,20,1.5,1.5,12,80,13.63,88
0.12119,131.7709867,28.75472452,170.9986735,141.8427566,17.00021707,10.85233198,98.50410228,94.53290591,103.301651,113.3221543,111.3040226,110.1785392,114.227794,122.4334467,119.4626218,127.0473983,117.0563079,99.9507829,89.4957161,1.9069073,2.361236121,2.013122847,1.345312322,1.24905593,1.119674365,1.570478591,1.09403549,1.528301892,1.085758461,-0.1862,-0.05434,0.8173,0.56378,-0.65525,0.83435,-0.16337,-0.60917,0.68641,-0.71462,-0.7004,0.82364,-0.35465,-0.52523,0.27038,-0.67745,0.27615,0.28158,0.26419,-0.48204,-0.77519,-573.1308,103.1904,16.23,124.3675,151.1974,25.8224,-34.3298,135.0267,22.5608,167.7152,215.1624,31.8698,-66.1944,32.817,29.7785,28.49,159.5439,169.6151,4.74,3.28,9.7,2.97,1.5,2.03,1651.14,646.5808,1743.69,1109.9142,2771.64,37.7559,2.75,1.02,1.88,2.71,1.03,1.9,2,1,1,42.1,11.9,69.3,76.7,10.5,608.84,611.5,70,1.75,-0.24716,-0.10347,0,1.28177,0.50194,156.96,19.241,1.5,0.34416,4.3093,-0.25443,-0.05436,1.15223,1.406029791,1.406432386,1.559021459,60.8212,61.115,61.2353,82.7487,-0.38986,-0.20234,-0.20275,304.51,281.72,33.948,1.47,1.78781,0.89525,0.69034,14.8576,-0.19038,-0.02356,136.53,98.77,66.378,1.32,0.76466,4.5053,0.40063,0.36793,-0.18794,-0.07871,7.5468,96.82,66.16,40.159,1.22,20,1.5,1.5,12,80,13.63,86
0.12119,131.7709867,28.75472452,170.9986735,141.8427566,17.00021707,10.85233198,98.50410228,94.53290591,103.301651,113.3221543,111.3040226,110.1785392,114.227794,122.4334467,119.4626218,127.0473983,117.0563079,99.9507829,89.4957161,1.9069073,2.361236121,2.013122847,1.345312322,1.24905593,1.119674365,1.570478591,1.09403549,1.528301892,1.085758461,-0.1862,-0.05434,0.8173,0.56378,-0.65525,0.83435,-0.16337,-0.60917,0.68641,-0.71462,-0.7004,0.82364,-0.35465,-0.52523,0.27038,-0.67745,0.27615,0.28158,0.26419,-0.48204,-0.77519,-573.1308,103.1904,16.23,124.3675,151.1974,25.8224,-34.3298,135.0267,22.5608,167.7152,215.1624,31.8698,-66.1944,32.817,29.7785,28.49,159.5439,169.6151,4.74,3.28,9.7,2.97,1.5,2.03,1651.14,646.5808,1743.69,1109.9142,2771.64,37.7559,2.75,1.02,1.88,2.71,1.03,1.9,2,1,1,42.1,11.9,69.3,76.7,10.5,608.84,611.5,70,1.75,-0.24741,-0.10366,0,0.88902,0.08131,288.38,19.246,1.59,0.34889,4.3093,-0.25443,-0.05436,1.15223,1.406029791,1.406432386,1.559021459,60.8212,61.115,61.2353,82.7487,-0.38986,-0.20234,-0.20275,304.51,281.72,33.948,1.47,1.78781,0.89525,0.69034,14.8576,-0.19038,-0.02356,136.53,98.77,66.378,1.32,0.76466,4.5053,0.40063,0.36793,-0.18794,-0.07871,7.5468,96.82,66.16,40.159,1.22,20,1.5,1.5,12,80,13.63,88
0.12119,131.7709867,28.75472452,170.9986735,141.8427566,17.00021707,10.85233198,98.50410228,94.53290591,103.301651,113.3221543,111.3040226,110.1785392,114.227794,122.4334467,119.4626218,127.0473983,117.0563079,99.9507829,89.4957161,1.9069073,2.361236121,2.013122847,1.345312322,1.24905593,1.119674365,1.570478591,1.09403549,1.528301892,1.085758461,-0.1862,-0.05434,0.8173,0.56378,-0.65525,0.83435,-0.16337,-0.60917,0.68641,-0.71462,-0.7004,0.82364,-0.35465,-0.52523,0.27038,-0.67745,0.27615,0.28158,0.26419,-0.48204,-0.77519,-573.1308,103.1904,16.23,124.3675,151.1974,25.8224,-34.3298,135.0267,22.5608,167.7152,215.1624,31.8698,-66.1944,32.817,29.7785,28.49,159.5439,169.6151,4.74,3.28,9.7,2.97,1.5,2.03,1651.14,646.5808,1743.69,1109.9142,2771.64,37.7559,2.75,1.02,1.88,2.71,1.03,1.9,2,1,1,42.1,11.9,69.3,76.7,10.5,608.84,611.5,70,1.75,-0.2376,-0.06347,1.1414,1.55657,0.28081,184.51,0,1.51,0.23406,4.3093,-0.25443,-0.05436,1.15223,1.406029791,1.406432386,1.559021459,60.8212,61.115,61.2353,82.7487,-0.38986,-0.20234,-0.20275,304.51,281.72,33.948,1.47,1.78781,0.89525,0.69034,14.8576,-0.19038,-0.02356,136.53,98.77,66.378,1.32,0.76466,4.5053,0.40063,0.36793,-0.18794,-0.07871,7.5468,96.82,66.16,40.159,1.22,20,1.5,1.5,12,80,13.63,84
0.12119,131.7709867,28.75472452,170.9986735,141.8427566,17.00021707,10.85233198,98.50410228,94.53290591,103.301651,113.3221543,111.3040226,110.1785392,114.227794,122.4334467,119.4626218,127.0473983,117.0563079,99.9507829,89.4957161,1.9069073,2.361236121,2.013122847,1.345312322,1.24905593,1.119674365,1.570478591,1.09403549,1.528301892,1.085758461,-0.1862,-0.05434,0.8173,0.56378,-0.65525,0.83435,-0.16337,-0.60917,0.68641,-0.71462,-0.7004,0.82364,-0.35465,-0.52523,0.27038,-0.67745,0.27615,0.28158,0.26419,-0.48204,-0.77519,-573.1308,103.1904,16.23,124.3675,151.1974,25.8224,-34.3298,135.0267,22.5608,167.7152,215.1624,31.8698,-66.1944,32.817,29.7785,28.49,159.5439,169.6151,4.74,3.28,9.7,2.97,1.5,2.03,1651.14,646.5808,1743.69,1109.9142,2771.64,37.7559,2.75,1.02,1.88,2.71,1.03,1.9,2,1,1,42.1,11.9,69.3,76.7,10.5,608.84,611.5,70,1.75,-0.22546,-0.08008,1.156,0.09583,0.05344,632.39,0,1.79,-0.10657,4.3093,-0.25443,-0.05436,1.15223,1.406029791,1.406432386,1.559021459,60.8212,61.115,61.2353,82.7487,-0.38986,-0.20234,-0.20275,304.51,281.72,33.948,1.47,1.78781,0.89525,0.69034,14.8576,-0.19038,-0.02356,136.53,98.77,66.378,1.32,0.76466,4.5053,0.40063,0.36793,-0.18794,-0.07871,7.5468,96.82,66.16,40.159,1.22,20,1.5,1.5,12,80,13.63,82
0.12106,132.1949294,28.41259925,171.946388,141.5324561,16.88203925,11.69841951,98.27745744,94.70678708,103.037557,113.4150445,111.1337191,110.161914,114.1682206,122.4941438,119.3645095,127.1054237,117.0196999,99.96274093,89.34722966,1.909209401,2.354837347,2.012116735,1.344915943,1.248707534,1.119460036,1.57090859,1.094162688,1.529204591,1.085745504,-0.17545,-0.0434,1.3232,0.57035,-0.65035,0.8335,-0.16245,-0.61012,0.68596,-0.71285,-0.69636,0.82291,-0.35302,-0.52338,0.27072,-0.67526,0.27334,0.27807,0.26076,-0.48204,-0.77409,-576.9316,100.9552,16.6604,124.2766,151.4268,26.2724,-35.4324,133.6487,23.0785,167.6902,214.7532,31.8007,-67.2489,32.8554,29.8536,28.5594,159.3508,169.4575,4.74,3.28,9.69,2.97,1.5,2.03,1655.44,581.9125,1747.14,1053.5179,2775.88,35.6145,2.75,1.02,1.88,2.71,1.03,1.9,2,1,1,42.1,11.9,69.3,76.7,10.5,609.05,611.46,69.811,1.75,-0.2582,-0.10974,0.0001,6.15816,0.61175,123.13,54.67,1.35,0.70235,4.1608,-0.2533,-0.0535,1.15182,1.405997319,1.406414685,1.558334299,60.9872,61.1296,61.1732,82.73,-0.38951,-0.20077,-0.20098,304.47,281.7,33.924,1.47,1.84831,0.88232,0.69091,14.1865,-0.18759,-0.026,136.17,98.62,66.294,1.32,0.75582,4.5178,0.40418,0.371,-0.1898,-0.08443,7.2601,96.57,66.07,40.078,1.22,20,1.5,1.5,12,80,5.84,88
0.12021,137.9350826,29.93477173,173.7194579,141.5871358,17.62158599,8.663919356,97.27098524,97.10407822,96.24115515,112.3361379,112.223119,110.4710113,113.9068654,122.0280923,119.3543006,126.1342835,117.2745563,100.1281679,91.45376385,1.902850207,2.418275818,2.020517131,1.339088766,1.25654385,1.119654519,1.565034249,1.095088195,1.524246478,1.085643006,-0.2016,-0.06894,1.2656,0.59959,-0.67833,0.84613,-0.16518,-0.59435,0.69217,-0.7577,-0.71792,0.83727,-0.35816,-0.52034,0.26776,-0.71234,0.2816,0.28994,0.27573,-0.48101,-0.77645,-604.5061,111.8674,13.8866,123.7936,150.7318,23.2754,-6.0349,144.4416,18.9652,168.1077,215.2971,32.4137,-45.4924,32.5348,29.611,28.3545,159.8727,170.043,5.01,3.43,9.6,2.97,1.5,2.03,1608.73,903.5083,1696.83,1203.9769,2780.35,28.3347,2.75,1.02,1.88,2.71,1.03,1.9,2,1,1,42.1,11.9,69.3,76.7,10.5,607.65,610.91,70.563,1.75,-0.25089,-0.10865,0,6.15737,0.60887,123.19,54.714,1.35,0.74907,4.7122,-0.25675,-0.05852,1.15205,1.4060664,1.406283731,1.558168306,60.6965,60.9985,61.1484,82.7777,-0.38925,-0.2014,-0.20164,304.57,281.76,33.976,1.47,1.7646415,1.0102694,0.7401255,14.3025,-0.21037,-0.02886,139.98,100.02,70.903,1.34,0.79875,4.46774,0.38892,0.35777,-0.203,-0.07991,8.3156,97.19,69.71,27.931,1.19,20,1.5,1.5,12,80,16.82,78
0.12119,131.7709867,28.75472452,170.9986735,141.8427566,17.00021707,10.85233198,98.50410228,94.53290591,103.301651,113.3221543,111.3040226,110.1785392,114.227794,122.4334467,119.4626218,127.0473983,117.0563079,99.9507829,89.4957161,1.9069073,2.361236121,2.013122847,1.345312322,1.24905593,1.119674365,1.570478591,1.09403549,1.528301892,1.085758461,-0.1862,-0.05434,0.8173,0.56378,-0.65525,0.83435,-0.16337,-0.60917,0.68641,-0.71462,-0.7004,0.82364,-0.35465,-0.52523,0.27038,-0.67745,0.27615,0.28158,0.26419,-0.48204,-0.77519,-573.1308,103.1904,16.23,124.3675,151.1974,25.8224,-34.3298,135.0267,22.5608,167.7152,215.1624,31.8698,-66.1944,32.817,29.7785,28.49,159.5439,169.6151,4.74,3.28,9.7,2.97,1.5,2.03,1651.14,646.5808,1743.69,1109.9142,2771.64,37.7559,2.75,1.02,1.88,2.71,1.03,1.9,2,1,1,42.1,11.9,69.3,76.7,10.5,608.84,611.5,70,1.75,-0.25805,-0.10973,0,6.15825,0.61168,123.13,54.677,1.35,0.69974,4.3093,-0.25443,-0.05436,1.15223,1.406029791,1.406432386,1.559021459,60.8212,61.115,61.2353,82.7487,-0.38986,-0.20234,-0.20275,304.51,281.72,33.948,1.47,1.78781,0.89525,0.69034,14.8576,-0.19038,-0.02356,136.53,98.77,66.378,1.32,0.76466,4.5053,0.40063,0.36793,-0.18794,-0.07871,7.5468,96.82,66.16,40.159,1.22,20,1.5,1.5,12,70,13.63,94
0.12119,131.7709867,28.75472452,170.9986735,141.8427566,17.00021707,10.85233198,98.50410228,94.53290591,103.301651,113.3221543,111.3040226,110.1785392,114.227794,122.4334467,119.4626218,127.0473983,117.0563079,99.9507829,89.4957161,1.9069073,2.361236121,2.013122847,1.345312322,1.24905593,1.119674365,1.570478591,1.09403549,1.528301892,1.085758461,-0.1862,-0.05434,0.8173,0.56378,-0.65525,0.83435,-0.16337,-0.60917,0.68641,-0.71462,-0.7004,0.82364,-0.35465,-0.52523,0.27038,-0.67745,0.27615,0.28158,0.26419,-0.48204,-0.77519,-573.1308,103.1904,16.23,124.3675,151.1974,25.8224,-34.3298,135.0267,22.5608,167.7152,215.1624,31.8698,-66.1944,32.817,29.7785,28.49,159.5439,169.6151,4.74,3.28,9.7,2.97,1.5,2.03,1651.14,646.5808,1743.69,1109.9142,2771.64,37.7559,2.75,1.02,1.88,2.71,1.03,1.9,2,1,1,42.1,11.9,69.3,76.7,10.5,608.84,611.5,70,1.75,-0.25805,-0.10973,0,6.15825,0.61168,123.13,54.677,1.35,0.69974,4.3093,-0.25443,-0.05436,1.15223,1.406029791,1.406432386,1.559021459,60.8212,61.115,61.2353,82.7487,-0.38986,-0.20234,-0.20275,304.51,281.72,33.948,1.47,1.78781,0.89525,0.69034,14.8576,-0.19038,-0.02356,136.53,98.77,66.378,1.32,0.76466,4.5053,0.40063,0.36793,-0.18794,-0.07871,7.5468,96.82,66.16,40.159,1.22,20,1.5,1.5,12,90,13.63,80
0.12119,131.7709867,28.75472452,170.9986735,141.8427566,17.00021707,10.85233198,98.50410228,94.53290591,103.301651,113.3221543,111.3040226,110.1785392,114.227794,122.4334467,119.4626218,127.0473983,117.0563079,99.9507829,89.4957161,1.9069073,2.361236121,2.013122847,1.345312322,1.24905593,1.119674365,1.570478591,1.09403549,1.528301892,1.085758461,-0.1862,-0.05434,0.8173,0.56378,-0.65525,0.83435,-0.16337,-0.60917,0.68641,-0.71462,-0.7004,0.82364,-0.35465,-0.52523,0.27038,-0.67745,0.27615,0.28158,0.26419,-0.48204,-0.77519,-573.1308,103.1904,16.23,124.3675,151.1974,25.8224,-34.3298,135.0267,22.5608,167.7152,215.1624,31.8698,-66.1944,32.817,29.7785,28.49,159.5439,169.6151,4.74,3.28,9.7,2.97,1.5,2.03,1651.14,646.5808,1743.69,1109.9142,2771.64,37.7559,2.75,1.02,1.88,2.71,1.03,1.9,2,1,1,42.1,11.9,69.3,76.7,10.5,608.84,611.5,70,1.75,-0.25805,-0.10973,0,6.15825,0.61168,123.13,54.677,1.35,0.69974,4.3093,-0.25443,-0.05436,1.15223,1.406029791,1.406432386,1.559021459,60.8212,61.115,61.2353,82.7487,-0.38986,-0.20234,-0.20275,304.51,281.72,33.948,1.47,6.0916311,1.9518899,1.4782697,9.4425,-0.18124,-0.02116,90.74,62.17,40.147,1.2,0.76466,4.5053,0.40063,0.36793,-0.18794,-0.07871,7.5468,96.82,66.16,40.159,1.22,20,1.5,1.5,12,80,13.63,88
0.12119,131.7709867,28.75472452,170.9986735,141.8427566,17.00021707,10.85233198,98.50410228,94.53290591,103.301651,113.3221543,111.3040226,110.1785392,114.227794,122.4334467,119.4626218,127.0473983,117.0563079,99.9507829,89.4957161,1.9069073,2.361236121,2.013122847,1.345312322,1.24905593,1.119674365,1.570478591,1.09403549,1.528301892,1.085758461,-0.1862,-0.05434,0.8173,0.56378,-0.65525,0.83435,-0.16337,-0.60917,0.68641,-0.71462,-0.7004,0.82364,-0.35465,-0.52523,0.27038,-0.67745,0.27615,0.28158,0.26419,-0.48204,-0.77519,-573.1308,103.1904,16.23,124.3675,151.1974,25.8224,-34.3298,135.0267,22.5608,167.7152,215.1624,31.8698,-66.1944,32.817,29.7785,28.49,159.5439,169.6151,4.74,3.28,9.7,2.97,1.5,2.03,1651.14,646.5808,1743.69,1109.9142,2771.64,37.7559,2.75,1.02,1.88,2.71,1.03,1.9,2,1,1,42.1,11.9,69.3,76.7,10.5,608.84,611.5,70,1.75,-0.25805,-0.10973,0,6.15825,0.61168,123.13,54.677,1.35,0.69974,4.3093,-0.25443,-0.05436,1.15223,1.406029791,1.406432386,1.559021459,60.8212,61.115,61.2353,82.7487,-0.38986,-0.20234,-0.20275,304.51,281.72,33.948,1.47,11.5194601,1.9003028,1.6478714,8.3513,-0.20964,-0.01911,106.57,78.43,26.976,1.2,0.76466,4.5053,0.40063,0.36793,-0.18794,-0.07871,7.5468,96.82,66.16,40.159,1.22,20,1.5,1.5,12,80,13.63,88
0.12119,131.7709867,28.75472452,170.9986735,141.8427566,17.00021707,10.85233198,98.50410228,94.53290591,103.301651,113.3221543,111.3040226,110.1785392,114.227794,122.4334467,119.4626218,127.0473983,117.0563079,99.9507829,89.4957161,1.9069073,2.361236121,2.013122847,1.345312322,1.24905593,1.119674365,1.570478591,1.09403549,1.528301892,1.085758461,-0.1862,-0.05434,0.8173,0.56378,-0.65525,0.83435,-0.16337,-0.60917,0.68641,-0.71462,-0.7004,0.82364,-0.35465,-0.52523,0.27038,-0.67745,0.27615,0.28158,0.26419,-0.48204,-0.77519,-573.1308,103.1904,16.23,124.3675,151.1974,25.8224,-34.3298,135.0267,22.5608,167.7152,215.1624,31.8698,-66.1944,32.817,29.7785,28.49,159.5439,169.6151,4.74,3.28,9.7,2.97,1.5,2.03,1651.14,646.5808,1743.69,1109.9142,2771.64,37.7559,2.75,1.02,1.88,2.71,1.03,1.9,2,1,1,42.1,11.9,69.3,76.7,10.5,608.84,611.5,70,1.75,-0.25805,-0.10973,0,6.15825,0.61168,123.13,54.677,1.35,0.69974,4.3093,-0.25443,-0.05436,1.15223,1.406029791,1.406432386,1.559021459,60.8212,61.115,61.2353,82.7487,-0.38986,-0.20234,-0.20275,304.51,281.72,33.948,1.47,4.5536163,1.2698643,1.2489696,9.4438,-0.23977,-0.0227,116.98,82.32,76.793,1.28,0.76466,4.5053,0.40063,0.36793,-0.18794,-0.07871,7.5468,96.82,66.16,40.159,1.22,20,1.5,1.5,12,80,13.63,88
0.12119,131.7709867,28.75472452,170.9986735,141.8427566,17.00021707,10.85233198,98.50410228,94.53290591,103.301651,113.3221543,111.3040226,110.1785392,114.227794,122.4334467,119.4626218,127.0473983,117.0563079,99.9507829,89.4957161,1.9069073,2.361236121,2.013122847,1.345312322,1.24905593,1.119674365,1.570478591,1.09403549,1.528301892,1.085758461,-0.1862,-0.05434,0.8173,0.56378,-0.65525,0.83435,-0.16337,-0.60917,0.68641,-0.71462,-0.7004,0.82364,-0.35465,-0.52523,0.27038,-0.67745,0.27615,0.28158,0.26419,-0.48204,-0.77519,-573.1308,103.1904,16.23,124.3675,151.1974,25.8224,-34.3298,135.0267,22.5608,167.7152,215.1624,31.8698,-66.1944,32.817,29.7785,28.49,159.5439,169.6151,4.74,3.28,9.7,2.97,1.5,2.03,1651.14,646.5808,1743.69,1109.9142,2771.64,37.7559,2.75,1.02,1.88,2.71,1.03,1.9,2,1,1,42.1,11.9,69.3,76.7,10.5,608.84,611.5,70,1.75,-0.25805,-0.10973,0,6.15825,0.61168,123.13,54.677,1.35,0.69974,4.3093,-0.25443,-0.05436,1.15223,1.406029791,1.406432386,1.559021459,60.8212,61.115,61.2353,82.7487,-0.38986,-0.20234,-0.20275,304.51,281.72,33.948,1.47,0.75055,0.58661,0.48654,11.707,-0.21436,-0.02132,200.6,149.39,135.15,1.47,0.76466,4.5053,0.40063,0.36793,-0.18794,-0.07871,7.5468,96.82,66.16,40.159,1.22,20,1.5,1.5,12,80,13.63,86
0.12119,131.7709867,28.75472452,170.9986735,141.8427566,17.00021707,10.85233198,98.50410228,94.53290591,103.301651,113.3221543,111.3040226,110.1785392,114.227794,122.4334467,119.4626218,127.0473983,117.0563079,99.9507829,89.4957161,1.9069073,2.361236121,2.013122847,1.345312322,1.24905593,1.119674365,1.570478591,1.09403549,1.528301892,1.085758461,-0.1862,-0.05434,0.8173,0.56378,-0.65525,0.83435,-0.16337,-0.60917,0.68641,-0.71462,-0.7004,0.82364,-0.35465,-0.52523,0.27038,-0.67745,0.27615,0.28158,0.26419,-0.48204,-0.77519,-573.1308,103.1904,16.23,124.3675,151.1974,25.8224,-34.3298,135.0267,22.5608,167.7152,215.1624,31.8698,-66.1944,32.817,29.7785,28.49,159.5439,169.6151,4.74,3.28,9.7,2.97,1.5,2.03,1651.14,646.5808,1743.69,1109.9142,2771.64,37.7559,2.75,1.02,1.88,2.71,1.03,1.9,2,1,1,42.1,11.9,69.3,76.7,10.5,608.84,611.5,70,1.75,-0.25805,-0.10973,0,6.15825,0.61168,123.13,54.677,1.35,0.69974,4.3093,-0.25443,-0.05436,1.15223,1.406029791,1.406432386,1.559021459,60.8212,61.115,61.2353,82.7487,-0.38986,-0.20234,-0.20275,304.51,281.72,33.948,1.47,0.8795579,0.8724809,0.5383122,11.579,-0.15702,-0.02166,154.85,115.37,60.92,1.35,0.76466,4.5053,0.40063,0.36793,-0.18794,-0.07871,7.5468,96.82,66.16,40.159,1.22,20,1.5,1.5,12,80,13.63,92
0.12119,131.7709867,28.75472452,170.9986735,141.8427566,17.00021707,10.85233198,98.50410228,94.53290591,103.301651,113.3221543,111.3040226,110.1785392,114.227794,122.4334467,119.4626218,127.0473983,117.0563079,99.9507829,89.4957161,1.9069073,2.361236121,2.013122847,1.345312322,1.24905593,1.119674365,1.570478591,1.09403549,1.528301892,1.085758461,-0.1862,-0.05434,0.8173,0.56378,-0.65525,0.83435,-0.16337,-0.60917,0.68641,-0.71462,-0.7004,0.82364,-0.35465,-0.52523,0.27038,-0.67745,0.27615,0.28158,0.26419,-0.48204,-0.77519,-573.1308,103.1904,16.23,124.3675,151.1974,25.8224,-34.3298,135.0267,22.5608,167.7152,215.1624,31.8698,-66.1944,32.817,29.7785,28.49,159.5439,169.6151,4.74,3.28,9.7,2.97,1.5,2.03,1651.14,646.5808,1743.69,1109.9142,2771.64,37.7559,2.75,1.02,1.88,2.71,1.03,1.9,2,1,1,42.1,11.9,69.3,76.7,10.5,608.84,611.5,70,1.75,-0.25805,-0.10973,0,6.15825,0.61168,123.13,54.677,1.35,0.69974,4.3093,-0.25443,-0.05436,1.15223,1.406029791,1.406432386,1.559021459,60.8212,61.115,61.2353,82.7487,-0.38986,-0.20234,-0.20275,304.51,281.72,33.948,1.47,2.83831,0.21079,0.19635,14.4075,-0.09674,-0.0133,147.08,112.65,38.211,1.3,0.76466,4.5053,0.40063,0.36793,-0.18794,-0.07871,7.5468,96.82,66.16,40.159,1.22,20,1.5,1.5,12,80,13.63,90
0.26326,148.509503,18.63234866,175.4108809,145.3724872,10.88715667,9.029950025,86.96700788,103.1634298,89.32856829,114.297989,109.0313072,112.6120881,113.5153017,122.2901923,119.0072974,124.8690775,112.9820115,113.3331065,92.56201396,1.805477227,2.380643321,2.014409134,1.3438594,1.253056169,1.14047106,1.55585026,1.09609104,1.525459933,1.539099049,-0.19905,-0.07036,1.8939,0.57371,-0.64916,0.83164,-0.16567,-0.6172,0.67974,-0.71531,-0.70172,0.83729,-0.15631,-0.43609,0.2214,-0.68303,0.27077,-0.44911,0.26669,-0.47716,-0.77743,-575.7019,102.4444,15.7601,122.8541,150.3375,26.2,-39.4334,132.9387,16.5067,139.8145,164.103,35.3921,-55.9799,29.6087,153.0843,27.7723,150.3481,169.5647,4.91,1.56,5.96,2.97,1.5,2.03,1624.78,750.4423,1692.81,1052.4753,2538.38,300.8947,2.75,1.02,1.88,2.71,1.03,1.9,4.05,1.5,3.14,32.9,9.9,55.1,56.1,10.5,381.31,355.65,71.179,1.57,-0.25204,-0.10901,0,6.15532,0.60903,123.19,54.715,1.35,0.7371,4.5744,-0.25596,-0.05724,1.15225,1.406019492,1.406253972,1.558287756,60.7506,61.0436,61.1724,82.7828,-0.38931,-0.20144,-0.20169,304.55,281.75,33.973,1.47,1.7090757,0.9048213,0.6739296,14.5776,-0.20935,-0.02613,137.9,99.07,67.269,1.33,0.79003,4.44556,0.39348,0.36148,-0.19953,-0.08061,8.1307,97.42,66.37,40.344,1.23,20,1.5,2,12,60,12.58,50
0.11885,160.8754088,14.00956945,176.698016,146.8466106,13.01671733,2.812873705,85.78142545,108.8053909,76.77763054,115.0454916,109.1986043,113.5204229,113.4299385,124.9769979,123.1748761,124.9724142,112.9743099,114.3003654,94.32210208,1.808768601,2.47943138,2.002310385,1.342796829,1.238280674,1.138202645,1.555083513,1.097114723,1.374651429,1.539914242,-0.17983,-0.05944,6.5647,0.559,-0.64781,0.83597,-0.1599,-0.65654,0.94282,-0.73269,-0.65349,0.70564,-0.1264,-0.42395,0.22183,-0.6584,0.2743,-0.44872,0.2686,-0.48037,-0.60869,-524.0075,101.323,16.3379,123.649,171.0902,40.6507,80.7865,127.2721,18.9198,138.8872,161.1632,35.9767,-63.8554,29.3376,152.9247,27.7343,151.3283,151.5889,4.83,1.55,6,5.27,1.05,4.2,1701.51,661.274,1715.81,543.7827,2566.89,298.7754,2.75,1.02,1.88,6.17,1.49,7.78,4.05,1.5,3.14,32.3,4.8,57.1,57,10.4,571.92,545.87,76.608,1.77,-0.2582,-0.10974,0.0001,6.15816,0.61175,123.13,54.67,1.35,0.70235,2.3435,-0.24552,-0.02109,1.33336,1.406419107,1.406353917,1.554839652,66.6148,61.3157,61.3096,82.5072,-0.41996,-0.20006,-0.20008,251.49,233.49,13.863,1.37,6.1268961,1.9593751,1.4846016,9.2134,-0.1792,-0.02399,90.57,62.11,40.099,1.19,0.75582,4.5178,0.40418,0.371,-0.1898,-0.08443,7.2601,96.57,66.07,40.078,1.22,11,2,1.5,24,70,5.91,31
0.08556,161.5147332,14.05223809,176.1518306,147.6850569,14.06284615,0.901235885,86.54714773,108.0336446,76.32790864,115.0762819,108.9573988,113.3615687,113.7283483,126.0999946,123.3129028,124.925644,112.9396815,114.7790419,94.52629158,1.81184055,2.479289083,2.000164547,1.336434104,1.230408736,1.137423389,1.555112427,1.09491426,1.400160495,1.539315293,-0.18409,-0.06124,8.3906,0.56698,-0.64644,0.83681,-0.16065,-0.65159,0.93965,-0.7103,-0.65224,0.70557,-0.12644,-0.42397,0.22065,-0.65714,0.27316,-0.44869,0.27229,-0.47958,-0.61346,-527.5066,102.8123,16.7157,124.0053,167.536,42.5552,73.9543,127.9995,18.9157,139.1445,160.9796,36.0067,-65.7028,29.4422,152.9465,27.5455,151.3485,154.7959,4.82,1.55,6,6.47,2.19,6.81,1737.24,780.2769,1714.72,506.3875,2578.34,296.5422,2.75,1.02,1.88,6.17,1.49,7.78,4.05,1.5,3.14,33.9,9.6,59.5,56.1,10.5,686.88,661.2,74.768,1.87,-0.2582,-0.10974,0.0001,6.15816,0.61175,123.13,54.67,1.35,0.70235,2.3435,-0.24552,-0.02109,1.33336,1.406419107,1.406353917,1.554839652,66.6148,61.3157,61.3096,82.5072,-0.41996,-0.20006,-0.20008,251.49,233.49,13.863,1.37,6.1268961,1.9593751,1.4846016,9.2134,-0.1792,-0.02399,90.57,62.11,40.099,1.19,0.75582,4.5178,0.40418,0.371,-0.1898,-0.08443,7.2601,96.57,66.07,40.078,1.22,11,2,1.5,24,70,5.91,32
0.07453,128.7026074,19.77381029,164.3014591,148.3809987,16.10850569,16.21501068,90.04791138,103.6615055,106.1070715,114.6382209,110.7447252,111.3398421,114.1515442,124.2411017,122.877865,125.5359485,111.7408798,116.6310122,94.79248419,1.832210594,2.535763003,1.996948939,1.34744677,1.239284745,1.133835705,1.559839472,1.09352163,1.371620467,1.538218544,-0.17996,-0.0592,6.9739,0.56435,-0.65633,0.83625,-0.16008,-0.6615,0.94769,-0.72059,-0.66584,0.7052,-0.12353,-0.42874,0.21788,-0.66387,0.26451,-0.44597,0.27256,-0.48066,-0.6051,-527.502,100.5866,16.3738,124.7523,169.0119,37.9608,57.3058,129.5602,18.9809,138.6399,162.285,35.217,-60.3085,29.478,151.9083,28.228,159.4835,161.3855,5.08,2.08,7.84,5.27,1.05,4.2,1684.51,532.1729,1711.95,521.3315,2620.98,279.2364,2.75,1.02,1.88,6.17,1.49,7.78,4.05,1.5,3.14,40.3,17.3,64,69,10.9,711.8,718.85,76.952,1.83,-0.2582,-0.10974,0.0001,6.15816,0.61175,123.13,54.67,1.35,0.70235,2.3435,-0.24552,-0.02109,1.33336,1.406419107,1.406353917,1.554839652,66.6148,61.3157,61.3096,82.5072,-0.41996,-0.20006,-0.20008,251.49,233.49,13.863,1.37,6.1268961,1.9593751,1.4846016,9.2134,-0.1792,-0.02399,90.57,62.11,40.099,1.19,0.75582,4.5178,0.40418,0.371,-0.1898,-0.08443,7.2601,96.57,66.07,40.078,1.22,11,2,1.5,24,70,5.91,45
0.12119,131.7709867,28.75472452,170.9986735,141.8427566,17.00021707,10.85233198,98.50410228,94.53290591,103.301651,113.3221543,111.3040226,110.1785392,114.227794,122.4334467,119.4626218,127.0473983,117.0563079,99.9507829,89.4957161,1.9069073,2.361236121,2.013122847,1.345312322,1.24905593,1.119674365,1.570478591,1.09403549,1.528301892,1.085758461,-0.1862,-0.05434,0.8173,0.56378,-0.65525,0.83435,-0.16337,-0.60917,0.68641,-0.71462,-0.7004,0.82364,-0.35465,-0.52523,0.27038,-0.67745,0.27615,0.28158,0.26419,-0.48204,-0.77519,-573.1308,103.1904,16.23,124.3675,151.1974,25.8224,-34.3298,135.0267,22.5608,167.7152,215.1624,31.8698,-66.1944,32.817,29.7785,28.49,159.5439,169.6151,4.74,3.28,9.7,2.97,1.5,2.03,1651.14,646.5808,1743.69,1109.9142,2771.64,37.7559,2.75,1.02,1.88,2.71,1.03,1.9,2,1,1,42.1,11.9,69.3,76.7,10.5,608.84,611.5,70,1.75,-0.25805,-0.10973,0,6.15825,0.61168,123.13,54.677,1.35,0.69974,1.17654,-0.24583,-0.05997,5.9298,1.408167006,1.405771622,1.562001721,60.5658,61.3453,60.9547,83.0383,-0.38779,-0.2043,-0.20326,292.97,272.73,28.206,1.44,1.78781,0.89525,0.69034,14.8576,-0.19038,-0.02356,136.53,98.77,66.378,1.32,0.76466,4.5053,0.40063,0.36793,-0.18794,-0.07871,7.5468,96.82,66.16,40.159,1.22,20,1.5,1.5,12,80,13.63,96
0.12119,131.7709867,28.75472452,170.9986735,141.8427566,17.00021707,10.85233198,98.50410228,94.53290591,103.301651,113.3221543,111.3040226,110.1785392,114.227794,122.4334467,119.4626218,127.0473983,117.0563079,99.9507829,89.4957161,1.9069073,2.361236121,2.013122847,1.345312322,1.24905593,1.119674365,1.570478591,1.09403549,1.528301892,1.085758461,-0.1862,-0.05434,0.8173,0.56378,-0.65525,0.83435,-0.16337,-0.60917,0.68641,-0.71462,-0.7004,0.82364,-0.35465,-0.52523,0.27038,-0.67745,0.27615,0.28158,0.26419,-0.48204,-0.77519,-573.1308,103.1904,16.23,124.3675,151.1974,25.8224,-34.3298,135.0267,22.5608,167.7152,215.1624,31.8698,-66.1944,32.817,29.7785,28.49,159.5439,169.6151,4.74,3.28,9.7,2.97,1.5,2.03,1651.14,646.5808,1743.69,1109.9142,2771.64,37.7559,2.75,1.02,1.88,2.71,1.03,1.9,2,1,1,42.1,11.9,69.3,76.7,10.5,608.84,611.5,70,1.75,-0.25805,-0.10973,0,6.15825,0.61168,123.13,54.677,1.35,0.69974,1.07271,-0.2583,-0.04008,5.9894,1.405414302,1.40648859,1.562309767,61.7734,60.9808,60.8208,83.1233,-0.39316,-0.1946,-0.19489,287.76,265.85,13.779,1.44,1.78781,0.89525,0.69034,14.8576,-0.19038,-0.02356,136.53,98.77,66.378,1.32,0.76466,4.5053,0.40063,0.36793,-0.18794,-0.07871,7.5468,96.82,66.16,40.159,1.22,20,1.5,1.5,12,80,13.63,94
0.12119,131.7709867,28.75472452,170.9986735,141.8427566,17.00021707,10.85233198,98.50410228,94.53290591,103.301651,113.3221543,111.3040226,110.1785392,114.227794,122.4334467,119.4626218,127.0473983,117.0563079,99.9507829,89.4957161,1.9069073,2.361236121,2.013122847,1.345312322,1.24905593,1.119674365,1.570478591,1.09403549,1.528301892,1.085758461,-0.1862,-0.05434,0.8173,0.56378,-0.65525,0.83435,-0.16337,-0.60917,0.68641,-0.71462,-0.7004,0.82364,-0.35465,-0.52523,0.27038,-0.67745,0.27615,0.28158,0.26419,-0.48204,-0.77519,-573.1308,103.1904,16.23,124.3675,151.1974,25.8224,-34.3298,135.0267,22.5608,167.7152,215.1624,31.8698,-66.1944,32.817,29.7785,28.49,159.5439,169.6151,4.74,3.28,9.7,2.97,1.5,2.03,1651.14,646.5808,1743.69,1109.9142,2771.64,37.7559,2.75,1.02,1.88,2.71,1.03,1.9,2,1,1,42.1,11.9,69.3,76.7,10.5,608.84,611.5,70,1.75,-0.25805,-0.10973,0,6.15825,0.61168,123.13,54.677,1.35,0.69974,1.20367,-0.2652,-0.0919,8.6944,1.406851126,1.40684054,1.565189652,56.8393,59.9371,59.9703,83.3588,-0.36827,-0.19508,-0.19508,277.66,255.32,52.744,1.43,1.78781,0.89525,0.69034,14.8576,-0.19038,-0.02356,136.53,98.77,66.378,1.32,0.76466,4.5053,0.40063,0.36793,-0.18794,-0.07871,7.5468,96.82,66.16,40.159,1.22,20,1.5,1.5,12,80,13.63,94
0.12119,131.7709867,28.75472452,170.9986735,141.8427566,17.00021707,10.85233198,98.50410228,94.53290591,103.301651,113.3221543,111.3040226,110.1785392,114.227794,122.4334467,119.4626218,127.0473983,117.0563079,99.9507829,89.4957161,1.9069073,2.361236121,2.013122847,1.345312322,1.24905593,1.119674365,1.570478591,1.09403549,1.528301892,1.085758461,-0.1862,-0.05434,0.8173,0.56378,-0.65525,0.83435,-0.16337,-0.60917,0.68641,-0.71462,-0.7004,0.82364,-0.35465,-0.52523,0.27038,-0.67745,0.27615,0.28158,0.26419,-0.48204,-0.77519,-573.1308,103.1904,16.23,124.3675,151.1974,25.8224,-34.3298,135.0267,22.5608,167.7152,215.1624,31.8698,-66.1944,32.817,29.7785,28.49,159.5439,169.6151,4.74,3.28,9.7,2.97,1.5,2.03,1651.14,646.5808,1743.69,1109.9142,2771.64,37.7559,2.75,1.02,1.88,2.71,1.03,1.9,2,1,1,42.1,11.9,69.3,76.7,10.5,608.84,611.5,70,1.75,-0.25805,-0.10973,0,6.15825,0.61168,123.13,54.677,1.35,0.69974,1.3233,-0.25896,-0.05897,8.7529,1.406602025,1.406591234,1.56391865,59.9996,61.0573,61.0811,83.2863,-0.37778,-0.19867,-0.1987,272.93,253.33,29.165,1.41,1.78781,0.89525,0.69034,14.8576,-0.19038,-0.02356,136.53,98.77,66.378,1.32,0.76466,4.5053,0.40063,0.36793,-0.18794,-0.07871,7.5468,96.82,66.16,40.159,1.22,20,1.5,1.5,12,80,13.63,94
0.12119,131.7709867,28.75472452,170.9986735,141.8427566,17.00021707,10.85233198,98.50410228,94.53290591,103.301651,113.3221543,111.3040226,110.1785392,114.227794,122.4334467,119.4626218,127.0473983,117.0563079,99.9507829,89.4957161,1.9069073,2.361236121,2.013122847,1.345312322,1.24905593,1.119674365,1.570478591,1.09403549,1.528301892,1.085758461,-0.1862,-0.05434,0.8173,0.56378,-0.65525,0.83435,-0.16337,-0.60917,0.68641,-0.71462,-0.7004,0.82364,-0.35465,-0.52523,0.27038,-0.67745,0.27615,0.28158,0.26419,-0.48204,-0.77519,-573.1308,103.1904,16.23,124.3675,151.1974,25.8224,-34.3298,135.0267,22.5608,167.7152,215.1624,31.8698,-66.1944,32.817,29.7785,28.49,159.5439,169.6151,4.74,3.28,9.7,2.97,1.5,2.03,1651.14,646.5808,1743.69,1109.9142,2771.64,37.7559,2.75,1.02,1.88,2.71,1.03,1.9,2,1,1,42.1,11.9,69.3,76.7,10.5,608.84,611.5,70,1.75,-0.25805,-0.10973,0,6.15825,0.61168,123.13,54.677,1.35,0.69974,1.32496,-0.24228,-0.02013,4.1986,1.407389215,1.407386606,1.557288196,70.25,58.7646,58.7892,83.1413,-0.43267,-0.18602,-0.18608,257.72,238.35,13.79,1.39,1.78781,0.89525,0.69034,14.8576,-0.19038,-0.02356,136.53,98.77,66.378,1.32,0.76466,4.5053,0.40063,0.36793,-0.18794,-0.07871,7.5468,96.82,66.16,40.159,1.22,20,1.5,1.5,12,80,13.63,94
0.12119,131.7709867,28.75472452,170.9986735,141.8427566,17.00021707,10.85233198,98.50410228,94.53290591,103.301651,113.3221543,111.3040226,110.1785392,114.227794,122.4334467,119.4626218,127.0473983,117.0563079,99.9507829,89.4957161,1.9069073,2.361236121,2.013122847,1.345312322,1.24905593,1.119674365,1.570478591,1.09403549,1.528301892,1.085758461,-0.1862,-0.05434,0.8173,0.56378,-0.65525,0.83435,-0.16337,-0.60917,0.68641,-0.71462,-0.7004,0.82364,-0.35465,-0.52523,0.27038,-0.67745,0.27615,0.28158,0.26419,-0.48204,-0.77519,-573.1308,103.1904,16.23,124.3675,151.1974,25.8224,-34.3298,135.0267,22.5608,167.7152,215.1624,31.8698,-66.1944,32.817,29.7785,28.49,159.5439,169.6151,4.74,3.28,9.7,2.97,1.5,2.03,1651.14,646.5808,1743.69,1109.9142,2771.64,37.7559,2.75,1.02,1.88,2.71,1.03,1.9,2,1,1,42.1,11.9,69.3,76.7,10.5,608.84,611.5,70,1.75,-0.25805,-0.10973,0,6.15825,0.61168,123.13,54.677,1.35,0.69974,1.325,-0.24508,-0.03034,5.1475,1.40584728,1.405860311,1.55959306,67.1238,59.7062,59.7561,83.166,-0.4139,-0.18634,-0.18642,267.78,247.49,13.787,1.4,1.78781,0.89525,0.69034,14.8576,-0.19038,-0.02356,136.53,98.77,66.378,1.32,0.76466,4.5053,0.40063,0.36793,-0.18794,-0.07871,7.5468,96.82,66.16,40.159,1.22,20,1.5,1.5,12,80,13.63,94
0.12119,131.7709867,28.75472452,170.9986735,141.8427566,17.00021707,10.85233198,98.50410228,94.53290591,103.301651,113.3221543,111.3040226,110.1785392,114.227794,122.4334467,119.4626218,127.0473983,117.0563079,99.9507829,89.4957161,1.9069073,2.361236121,2.013122847,1.345312322,1.24905593,1.119674365,1.570478591,1.09403549,1.528301892,1.085758461,-0.1862,-0.05434,0.8173,0.56378,-0.65525,0.83435,-0.16337,-0.60917,0.68641,-0.71462,-0.7004,0.82364,-0.35465,-0.52523,0.27038,-0.67745,0.27615,0.28158,0.26419,-0.48204,-0.77519,-573.1308,103.1904,16.23,124.3675,151.1974,25.8224,-34.3298,135.0267,22.5608,167.7152,215.1624,31.8698,-66.1944,32.817,29.7785,28.49,159.5439,169.6151,4.74,3.28,9.7,2.97,1.5,2.03,1651.14,646.5808,1743.69,1109.9142,2771.64,37.7559,2.75,1.02,1.88,2.71,1.03,1.9,2,1,1,42.1,11.9,69.3,76.7,10.5,608.84,611.5,70,1.75,-0.25805,-0.10973,0,6.15825,0.61168,123.13,54.677,1.35,0.69974,1.31855,-0.23618,-0.01935,1.8075,1.405490099,1.408195256,1.556436817,69.6796,61.266,61.6429,82.7897,-0.43117,-0.19622,-0.1976,271.97,252.04,13.805,1.41,1.78781,0.89525,0.69034,14.8576,-0.19038,-0.02356,136.53,98.77,66.378,1.32,0.76466,4.5053,0.40063,0.36793,-0.18794,-0.07871,7.5468,96.82,66.16,40.159,1.22,20,1.5,1.5,12,80,13.63,98
0.12119,131.7709867,28.75472452,170.9986735,141.8427566,17.00021707,10.85233198,98.50410228,94.53290591,103.301651,113.3221543,111.3040226,110.1785392,114.227794,122.4334467,119.4626218,127.0473983,117.0563079,99.9507829,89.4957161,1.9069073,2.361236121,2.013122847,1.345312322,1.24905593,1.119674365,1.570478591,1.09403549,1.528301892,1.085758461,-0.1862,-0.05434,0.8173,0.56378,-0.65525,0.83435,-0.16337,-0.60917,0.68641,-0.71462,-0.7004,0.82364,-0.35465,-0.52523,0.27038,-0.67745,0.27615,0.28158,0.26419,-0.48204,-0.77519,-573.1308,103.1904,16.23,124.3675,151.1974,25.8224,-34.3298,135.0267,22.5608,167.7152,215.1624,31.8698,-66.1944,32.817,29.7785,28.49,159.5439,169.6151,4.74,3.28,9.7,2.97,1.5,2.03,1651.14,646.5808,1743.69,1109.9142,2771.64,37.7559,2.75,1.02,1.88,2.71,1.03,1.9,2,1,1,42.1,11.9,69.3,76.7,10.5,608.84,611.5,70,1.75,-0.25805,-0.10973,0,6.15825,0.61168,123.13,54.677,1.35,0.69974,1.0311,-0.24426,-0.02575,5.0978,1.404724823,1.406798816,1.558231722,69.0441,59.1183,59.064,83.2233,-0.42366,-0.18033,-0.18451,297.32,274.52,20.328,1.46,1.78781,0.89525,0.69034,14.8576,-0.19038,-0.02356,136.53,98.77,66.378,1.32,0.76466,4.5053,0.40063,0.36793,-0.18794,-0.07871,7.5468,96.82,66.16,40.159,1.22,20,1.5,1.5,12,80,13.63,94
0.12119,131.7709867,28.75472452,170.9986735,141.8427566,17.00021707,10.85233198,98.50410228,94.53290591,103.301651,113.3221543,111.3040226,110.1785392,114.227794,122.4334467,119.4626218,127.0473983,117.0563079,99.9507829,89.4957161,1.9069073,2.361236121,2.013122847,1.345312322,1.24905593,1.119674365,1.570478591,1.09403549,1.528301892,1.085758461,-0.1862,-0.05434,0.8173,0.56378,-0.65525,0.83435,-0.16337,-0.60917,0.68641,-0.71462,-0.7004,0.82364,-0.35465,-0.52523,0.27038,-0.67745,0.27615,0.28158,0.26419,-0.48204,-0.77519,-573.1308,103.1904,16.23,124.3675,151.1974,25.8224,-34.3298,135.0267,22.5608,167.7152,215.1624,31.8698,-66.1944,32.817,29.7785,28.49,159.5439,169.6151,4.74,3.28,9.7,2.97,1.5,2.03,1651.14,646.5808,1743.69,1109.9142,2771.64,37.7559,2.75,1.02,1.88,2.71,1.03,1.9,2,1,1,42.1,11.9,69.3,76.7,10.5,608.84,611.5,70,1.75,-0.25805,-0.10973,0,6.15825,0.61168,123.13,54.677,1.35,0.69974,0.78593,-0.25782,-0.03323,5.1694,1.406295584,1.403579133,1.561168239,65.0434,57.8614,63.2018,83.1293,-0.404,-0.18334,-0.17231,287.7,265.84,13.794,1.44,1.78781,0.89525,0.69034,14.8576,-0.19038,-0.02356,136.53,98.77,66.378,1.32,0.76466,4.5053,0.40063,0.36793,-0.18794,-0.07871,7.5468,96.82,66.16,40.159,1.22,20,1.5,1.5,12,80,13.63,84
0.12119,131.7709867,28.75472452,170.9986735,141.8427566,17.00021707,10.85233198,98.50410228,94.53290591,103.301651,113.3221543,111.3040226,110.1785392,114.227794,122.4334467,119.4626218,127.0473983,117.0563079,99.9507829,89.4957161,1.9069073,2.361236121,2.013122847,1.345312322,1.24905593,1.119674365,1.570478591,1.09403549,1.528301892,1.085758461,-0.1862,-0.05434,0.8173,0.56378,-0.65525,0.83435,-0.16337,-0.60917,0.68641,-0.71462,-0.7004,0.82364,-0.35465,-0.52523,0.27038,-0.67745,0.27615,0.28158,0.26419,-0.48204,-0.77519,-573.1308,103.1904,16.23,124.3675,151.1974,25.8224,-34.3298,135.0267,22.5608,167.7152,215.1624,31.8698,-66.1944,32.817,29.7785,28.49,159.5439,169.6151,4.74,3.28,9.7,2.97,1.5,2.03,1651.14,646.5808,1743.69,1109.9142,2771.64,37.7559,2.75,1.02,1.88,2.71,1.03,1.9,2,1,1,42.1,11.9,69.3,76.7,10.5,608.84,611.5,70,1.75,-0.25805,-0.10973,0,6.15825,0.61168,123.13,54.677,1.35,0.69974,0.84714,-0.25424,-0.04432,2.415,1.407174974,1.402386252,1.560554402,65.5282,56.5954,58.7003,82.9981,-0.41348,-0.17721,-0.15312,305,281.97,33.844,1.47,1.78781,0.89525,0.69034,14.8576,-0.19038,-0.02356,136.53,98.77,66.378,1.32,0.76466,4.5053,0.40063,0.36793,-0.18794,-0.07871,7.5468,96.82,66.16,40.159,1.22,20,1.5,1.5,12,80,13.63,90
0.12119,131.7709867,28.75472452,170.9986735,141.8427566,17.00021707,10.85233198,98.50410228,94.53290591,103.301651,113.3221543,111.3040226,110.1785392,114.227794,122.4334467,119.4626218,127.0473983,117.0563079,99.9507829,89.4957161,1.9069073,2.361236121,2.013122847,1.345312322,1.24905593,1.119674365,1.570478591,1.09403549,1.528301892,1.085758461,-0.1862,-0.05434,0.8173,0.56378,-0.65525,0.83435,-0.16337,-0.60917,0.68641,-0.71462,-0.7004,0.82364,-0.35465,-0.52523,0.27038,-0.67745,0.27615,0.28158,0.26419,-0.48204,-0.77519,-573.1308,103.1904,16.23,124.3675,151.1974,25.8224,-34.3298,135.0267,22.5608,167.7152,215.1624,31.8698,-66.1944,32.817,29.7785,28.49,159.5439,169.6151,4.74,3.28,9.7,2.97,1.5,2.03,1651.14,646.5808,1743.69,1109.9142,2771.64,37.7559,2.75,1.02,1.88,2.71,1.03,1.9,2,1,1,42.1,11.9,69.3,76.7,10.5,608.84,611.5,70,1.75,-0.25805,-0.10973,0,6.15825,0.61168,123.13,54.677,1.35,0.69974,0.56448,-0.25171,-0.04394,0.3952,1.41075387,1.402862302,1.578300102,56.4898,62.7951,64.5029,81.4542,-0.33183,-0.15138,-0.2248,299.61,280.75,30.515,1.44,1.78781,0.89525,0.69034,14.8576,-0.19038,-0.02356,136.53,98.77,66.378,1.32,0.76466,4.5053,0.40063,0.36793,-0.18794,-0.07871,7.5468,96.82,66.16,40.159,1.22,20,1.5,1.5,12,80,13.63,98
0.12119,131.7709867,28.75472452,170.9986735,141.8427566,17.00021707,10.85233198,98.50410228,94.53290591,103.301651,113.3221543,111.3040226,110.1785392,114.227794,122.4334467,119.4626218,127.0473983,117.0563079,99.9507829,89.4957161,1.9069073,2.361236121,2.013122847,1.345312322,1.24905593,1.119674365,1.570478591,1.09403549,1.528301892,1.085758461,-0.1862,-0.05434,0.8173,0.56378,-0.65525,0.83435,-0.16337,-0.60917,0.68641,-0.71462,-0.7004,0.82364,-0.35465,-0.52523,0.27038,-0.67745,0.27615,0.28158,0.26419,-0.48204,-0.77519,-573.1308,103.1904,16.23,124.3675,151.1974,25.8224,-34.3298,135.0267,22.5608,167.7152,215.1624,31.8698,-66.1944,32.817,29.7785,28.49,159.5439,169.6151,4.74,3.28,9.7,2.97,1.5,2.03,1651.14,646.5808,1743.69,1109.9142,2771.64,37.7559,2.75,1.02,1.88,2.71,1.03,1.9,2,1,1,42.1,11.9,69.3,76.7,10.5,608.84,611.5,70,1.75,-0.25805,-0.10973,0,6.15825,0.61168,123.13,54.677,1.35,0.69974,1.32655,-0.24689,-0.02215,2.4744,1.407188607,1.40714233,1.558678082,66.3684,61.5069,61.4315,82.825,-0.41935,-0.20325,-0.20325,251.98,233.75,13.784,1.37,1.78781,0.89525,0.69034,14.8576,-0.19038,-0.02356,136.53,98.77,66.378,1.32,0.76466,4.5053,0.40063,0.36793,-0.18794,-0.07871,7.5468,96.82,66.16,40.159,1.22,20,1.5,1.5,12,80,13.63,96
0.12119,131.7709867,28.75472452,170.9986735,141.8427566,17.00021707,10.85233198,98.50410228,94.53290591,103.301651,113.3221543,111.3040226,110.1785392,114.227794,122.4334467,119.4626218,127.0473983,117.0563079,99.9507829,89.4957161,1.9069073,2.361236121,2.013122847,1.345312322,1.24905593,1.119674365,1.570478591,1.09403549,1.528301892,1.085758461,-0.1862,-0.05434,0.8173,0.56378,-0.65525,0.83435,-0.16337,-0.60917,0.68641,-0.71462,-0.7004,0.82364,-0.35465,-0.52523,0.27038,-0.67745,0.27615,0.28158,0.26419,-0.48204,-0.77519,-573.1308,103.1904,16.23,124.3675,151.1974,25.8224,-34.3298,135.0267,22.5608,167.7152,215.1624,31.8698,-66.1944,32.817,29.7785,28.49,159.5439,169.6151,4.74,3.28,9.7,2.97,1.5,2.03,1651.14,646.5808,1743.69,1109.9142,2771.64,37.7559,2.75,1.02,1.88,2.71,1.03,1.9,2,1,1,42.1,11.9,69.3,76.7,10.5,608.84,611.5,70,1.75,-0.25805,-0.10973,0,6.15825,0.61168,123.13,54.677,1.35,0.69974,0.29832,-0.26125,-0.05336,4.3189,1.40402279,1.402010724,1.562156737,64.7371,55.6591,54.4489,83.1566,-0.40715,-0.1363,-0.13051,358.05,330.2,53.88,1.55,1.78781,0.89525,0.69034,14.8576,-0.19038,-0.02356,136.53,98.77,66.378,1.32,0.76466,4.5053,0.40063,0.36793,-0.18794,-0.07871,7.5468,96.82,66.16,40.159,1.22,20,1.5,1.5,12,80,13.63,94
0.12119,131.7709867,28.75472452,170.9986735,141.8427566,17.00021707,10.85233198,98.50410228,94.53290591,103.301651,113.3221543,111.3040226,110.1785392,114.227794,122.4334467,119.4626218,127.0473983,117.0563079,99.9507829,89.4957161,1.9069073,2.361236121,2.013122847,1.345312322,1.24905593,1.119674365,1.570478591,1.09403549,1.528301892,1.085758461,-0.1862,-0.05434,0.8173,0.56378,-0.65525,0.83435,-0.16337,-0.60917,0.68641,-0.71462,-0.7004,0.82364,-0.35465,-0.52523,0.27038,-0.67745,0.27615,0.28158,0.26419,-0.48204,-0.77519,-573.1308,103.1904,16.23,124.3675,151.1974,25.8224,-34.3298,135.0267,22.5608,167.7152,215.1624,31.8698,-66.1944,32.817,29.7785,28.49,159.5439,169.6151,4.74,3.28,9.7,2.97,1.5,2.03,1651.14,646.5808,1743.69,1109.9142,2771.64,37.7559,2.75,1.02,1.88,2.71,1.03,1.9,2,1,1,42.1,11.9,69.3,76.7,10.5,608.84,611.5,70,1.75,-0.25805,-0.10973,0,6.15825,0.61168,123.13,54.677,1.35,0.69974,0.25619,-0.21315,-0.0221,4.3887,1.40554127,1.40637385,1.570923054,74.1935,58.865,67.4812,82.874,-0.40251,0.18543,-0.22414,385.81,369.47,27.802,1.55,1.78781,0.89525,0.69034,14.8576,-0.19038,-0.02356,136.53,98.77,66.378,1.32,0.76466,4.5053,0.40063,0.36793,-0.18794,-0.07871,7.5468,96.82,66.16,40.159,1.22,20,1.5,1.5,12,80,13.63,98
0.09805,130.0876591,28.48245846,170.0931141,142.0885438,16.59656457,11.8476179,98.46271053,95.33055273,104.1365737,113.3602922,111.8371705,110.0877696,114.3461402,122.5415645,119.7313298,127.1603266,116.7969475,99.70991511,89.65434137,1.914186394,2.399565639,2.013074703,1.345219519,1.251189361,1.119217876,1.568990168,1.093407737,1.52733952,1.086020656,-0.18668,-0.05531,1.7267,0.57707,-0.65545,0.83598,-0.16356,-0.60921,0.69057,-0.71585,-0.70079,0.82517,-0.35385,-0.52407,0.26938,-0.67521,0.27326,0.28248,0.26413,-0.48164,-0.77192,-575.6234,105.6104,16.1608,123.6694,150.4009,24.0119,-23.3238,135.3153,22.5608,167.6719,215.0335,31.8706,-66.2735,32.6419,29.7941,28.3718,160.1354,170.8948,6.21,3.86,9.41,2.97,1.5,2.03,1639,694.0784,1743.5,1079.3204,2778.41,35.9609,2.75,1.02,1.88,2.71,1.03,1.9,2,1,1,45.9,12.2,72.7,76.9,21.9,694.46,701.18,68.868,1.82,-0.2376,-0.06347,1.1414,1.55657,0.28081,184.51,0,1.51,0.23406,0.5165,-0.21687,-0.05508,2.9133,1.342060019,1.473701487,2.200564065,51.8173,56.9703,51.6551,43.4357,-0.13919,-0.23455,-0.10834,253.91,240.6,0,1.36,1.78781,0.89525,0.69034,14.8576,-0.19038,-0.02356,136.53,98.77,66.378,1.32,0.76466,4.5053,0.40063,0.36793,-0.18794,-0.07871,7.5468,96.82,66.16,40.159,1.22,20,1.5,1.5,12,80,13.63,96
0.09805,130.0876591,28.48245846,170.0931141,142.0885438,16.59656457,11.8476179,98.46271053,95.33055273,104.1365737,113.3602922,111.8371705,110.0877696,114.3461402,122.5415645,119.7313298,127.1603266,116.7969475,99.70991511,89.65434137,1.914186394,2.399565639,2.013074703,1.345219519,1.251189361,1.119217876,1.568990168,1.093407737,1.52733952,1.086020656,-0.18668,-0.05531,1.7267,0.57707,-0.65545,0.83598,-0.16356,-0.60921,0.69057,-0.71585,-0.70079,0.82517,-0.35385,-0.52407,0.26938,-0.67521,0.27326,0.28248,0.26413,-0.48164,-0.77192,-575.6234,105.6104,16.1608,123.6694,150.4009,24.0119,-23.3238,135.3153,22.5608,167.6719,215.0335,31.8706,-66.2735,32.6419,29.7941,28.3718,160.1354,170.8948,6.21,3.86,9.41,2.97,1.5,2.03,1639,694.0784,1743.5,1079.3204,2778.41,35.9609,2.75,1.02,1.88,2.71,1.03,1.9,2,1,1,45.9,12.2,72.7,76.9,21.9,694.46,701.18,68.868,1.82,-0.2376,-0.06347,1.1414,1.55657,0.28081,184.51,0,1.51,0.23406,3.03363,-0.22201,-0.03871,2.7031,1.339480022,1.4957886,2.192571553,48.8053,58.3035,163.5176,45.7252,-0.12732,-0.26299,-0.73216,194.03,175.26,0,1.28,1.78781,0.89525,0.69034,14.8576,-0.19038,-0.02356,136.53,98.77,66.378,1.32,0.76466,4.5053,0.40063,0.36793,-0.18794,-0.07871,7.5468,96.82,66.16,40.159,1.22,20,1.5,1.5,12,80,13.63,94
0.09805,130.0876591,28.48245846,170.0931141,142.0885438,16.59656457,11.8476179,98.46271053,95.33055273,104.1365737,113.3602922,111.8371705,110.0877696,114.3461402,122.5415645,119.7313298,127.1603266,116.7969475,99.70991511,89.65434137,1.914186394,2.399565639,2.013074703,1.345219519,1.251189361,1.119217876,1.568990168,1.093407737,1.52733952,1.086020656,-0.18668,-0.05531,1.7267,0.57707,-0.65545,0.83598,-0.16356,-0.60921,0.69057,-0.71585,-0.70079,0.82517,-0.35385,-0.52407,0.26938,-0.67521,0.27326,0.28248,0.26413,-0.48164,-0.77192,-575.6234,105.6104,16.1608,123.6694,150.4009,24.0119,-23.3238,135.3153,22.5608,167.6719,215.0335,31.8706,-66.2735,32.6419,29.7941,28.3718,160.1354,170.8948,6.21,3.86,9.41,2.97,1.5,2.03,1639,694.0784,1743.5,1079.3204,2778.41,35.9609,2.75,1.02,1.88,2.71,1.03,1.9,2,1,1,45.9,12.2,72.7,76.9,21.9,694.46,701.18,68.868,1.82,-0.2376,-0.06347,1.1414,1.55657,0.28081,184.51,0,1.51,0.23406,1.71531,-0.22256,-0.03836,2.8776,1.339521658,1.501564541,2.202245108,39.7666,58.4786,158.5255,46.8279,-0.11895,-0.25939,-0.50726,213.94,193.84,0,1.32,1.78781,0.89525,0.69034,14.8576,-0.19038,-0.02356,136.53,98.77,66.378,1.32,0.76466,4.5053,0.40063,0.36793,-0.18794,-0.07871,7.5468,96.82,66.16,40.159,1.22,20,1.5,1.5,12,80,13.63,88
0.09805,130.0876591,28.48245846,170.0931141,142.0885438,16.59656457,11.8476179,98.46271053,95.33055273,104.1365737,113.3602922,111.8371705,110.0877696,114.3461402,122.5415645,119.7313298,127.1603266,116.7969475,99.70991511,89.65434137,1.914186394,2.399565639,2.013074703,1.345219519,1.251189361,1.119217876,1.568990168,1.093407737,1.52733952,1.086020656,-0.18668,-0.05531,1.7267,0.57707,-0.65545,0.83598,-0.16356,-0.60921,0.69057,-0.71585,-0.70079,0.82517,-0.35385,-0.52407,0.26938,-0.67521,0.27326,0.28248,0.26413,-0.48164,-0.77192,-575.6234,105.6104,16.1608,123.6694,150.4009,24.0119,-23.3238,135.3153,22.5608,167.6719,215.0335,31.8706,-66.2735,32.6419,29.7941,28.3718,160.1354,170.8948,6.21,3.86,9.41,2.97,1.5,2.03,1639,694.0784,1743.5,1079.3204,2778.41,35.9609,2.75,1.02,1.88,2.71,1.03,1.9,2,1,1,45.9,12.2,72.7,76.9,21.9,694.46,701.18,68.868,1.82,-0.2376,-0.06347,1.1414,1.55657,0.28081,184.51,0,1.51,0.23406,0.55287,-0.22067,-0.03803,2.8251,1.340521537,1.499297683,2.197978906,42.4519,58.981,149.4538,46.1955,-0.11444,-0.26079,-0.50896,253.39,230.52,0,1.39,1.78781,0.89525,0.69034,14.8576,-0.19038,-0.02356,136.53,98.77,66.378,1.32,0.76466,4.5053,0.40063,0.36793,-0.18794,-0.07871,7.5468,96.82,66.16,40.159,1.22,20,1.5,1.5,12,80,13.63,84
0.09805,130.0876591,28.48245846,170.0931141,142.0885438,16.59656457,11.8476179,98.46271053,95.33055273,104.1365737,113.3602922,111.8371705,110.0877696,114.3461402,122.5415645,119.7313298,127.1603266,116.7969475,99.70991511,89.65434137,1.914186394,2.399565639,2.013074703,1.345219519,1.251189361,1.119217876,1.568990168,1.093407737,1.52733952,1.086020656,-0.18668,-0.05531,1.7267,0.57707,-0.65545,0.83598,-0.16356,-0.60921,0.69057,-0.71585,-0.70079,0.82517,-0.35385,-0.52407,0.26938,-0.67521,0.27326,0.28248,0.26413,-0.48164,-0.77192,-575.6234,105.6104,16.1608,123.6694,150.4009,24.0119,-23.3238,135.3153,22.5608,167.6719,215.0335,31.8706,-66.2735,32.6419,29.7941,28.3718,160.1354,170.8948,6.21,3.86,9.41,2.97,1.5,2.03,1639,694.0784,1743.5,1079.3204,2778.41,35.9609,2.75,1.02,1.88,2.71,1.03,1.9,2,1,1,45.9,12.2,72.7,76.9,21.9,694.46,701.18,68.868,1.82,-0.2376,-0.06347,1.1414,1.55657,0.28081,184.51,0,1.51,0.23406,3.68364,-0.22836,-0.02976,3.2635,1.33878092,2.150184275,2.215393211,58.9317,59.8523,29.6876,48.1208,-0.14505,-0.02918,0.25988,151.06,127.86,0,1.23,1.78781,0.89525,0.69034,14.8576,-0.19038,-0.02356,136.53,98.77,66.378,1.32,0.76466,4.5053,0.40063,0.36793,-0.18794,-0.07871,7.5468,96.82,66.16,40.159,1.22,20,1.5,1.5,12,80,13.63,90
0.09805,130.0876591,28.48245846,170.0931141,142.0885438,16.59656457,11.8476179,98.46271053,95.33055273,104.1365737,113.3602922,111.8371705,110.0877696,114.3461402,122.5415645,119.7313298,127.1603266,116.7969475,99.70991511,89.65434137,1.914186394,2.399565639,2.013074703,1.345219519,1.251189361,1.119217876,1.568990168,1.093407737,1.52733952,1.086020656,-0.18668,-0.05531,1.7267,0.57707,-0.65545,0.83598,-0.16356,-0.60921,0.69057,-0.71585,-0.70079,0.82517,-0.35385,-0.52407,0.26938,-0.67521,0.27326,0.28248,0.26413,-0.48164,-0.77192,-575.6234,105.6104,16.1608,123.6694,150.4009,24.0119,-23.3238,135.3153,22.5608,167.6719,215.0335,31.8706,-66.2735,32.6419,29.7941,28.3718,160.1354,170.8948,6.21,3.86,9.41,2.97,1.5,2.03,1639,694.0784,1743.5,1079.3204,2778.41,35.9609,2.75,1.02,1.88,2.71,1.03,1.9,2,1,1,45.9,12.2,72.7,76.9,21.9,694.46,701.18,68.868,1.82,-0.2376,-0.06347,1.1414,1.55657,0.28081,184.51,0,1.51,0.23406,4.54434,-0.23134,-0.02928,3.2023,1.331729225,1.50369467,2.189718855,53.3826,59.9403,150.4843,46.9547,-0.16499,-0.23801,-0.50422,153.03,133.69,0,1.21,1.78781,0.89525,0.69034,14.8576,-0.19038,-0.02356,136.53,98.77,66.378,1.32,0.76466,4.5053,0.40063,0.36793,-0.18794,-0.07871,7.5468,96.82,66.16,40.159,1.22,20,1.5,1.5,12,80,13.63,96
0.09805,130.0876591,28.48245846,170.0931141,142.0885438,16.59656457,11.8476179,98.46271053,95.33055273,104.1365737,113.3602922,111.8371705,110.0877696,114.3461402,122.5415645,119.7313298,127.1603266,116.7969475,99.70991511,89.65434137,1.914186394,2.399565639,2.013074703,1.345219519,1.251189361,1.119217876,1.568990168,1.093407737,1.52733952,1.086020656,-0.18668,-0.05531,1.7267,0.57707,-0.65545,0.83598,-0.16356,-0.60921,0.69057,-0.71585,-0.70079,0.82517,-0.35385,-0.52407,0.26938,-0.67521,0.27326,0.28248,0.26413,-0.48164,-0.77192,-575.6234,105.6104,16.1608,123.6694,150.4009,24.0119,-23.3238,135.3153,22.5608,167.6719,215.0335,31.8706,-66.2735,32.6419,29.7941,28.3718,160.1354,170.8948,6.21,3.86,9.41,2.97,1.5,2.03,1639,694.0784,1743.5,1079.3204,2778.41,35.9609,2.75,1.02,1.88,2.71,1.03,1.9,2,1,1,45.9,12.2,72.7,76.9,21.9,694.46,701.18,68.868,1.82,-0.2376,-0.06347,1.1414,1.55657,0.28081,184.51,0,1.51,0.23406,1.18986,-0.20547,-0.02867,5.6119,1.339665675,1.500723139,2.161608358,76.4959,65.9378,155.2976,47.6981,-0.24444,-0.04871,-0.50219,256.81,231.51,17.907,1.41,1.78781,0.89525,0.69034,14.8576,-0.19038,-0.02356,136.53,98.77,66.378,1.32,0.76466,4.5053,0.40063,0.36793,-0.18794,-0.07871,7.5468,96.82,66.16,40.159,1.22,20,1.5,1.5,12,80,13.63,94
0.217537436,146.5748873,19.88926412,173.6460797,144.9861246,14.64219009,8.07492946,91.54661529,104.4705788,88.71229575,114.3432079,111.9664117,112.746044,112.5723408,123.889431,121.7174354,125.3840151,114.8342541,108.1261017,92.17413218,1.846174732,2.418903021,2.008263338,1.343093507,1.245490428,1.130786975,1.561253726,1.095826359,1.430836078,1.366019729,-0.188367371,-0.059177617,0.92697314,0.586678462,-0.657391202,0.837300014,-0.167260913,-0.627348212,0.846027868,-0.742547004,-0.704613273,0.837362622,-0.234009168,-0.469163132,0.239411424,-0.690901042,0.274159348,-0.167916365,0.269178521,-0.340304488,-0.672070926,-584.4365925,110.3256722,15.93818232,122.993344,167.3179708,33.79691444,45.60248523,138.3599011,18.3105461,150.40821,182.9762036,34.23570269,-51.38780471,30.51415351,106.8030427,28.20229081,157.4151853,159.6959241,4.472791087,2.49760292,5.635768708,4.390207472,1.222133321,3.369934876,1663.698204,739.82272,1717.657651,1065.777005,2649.888507,177.34188,2.75,1.02,1.88,2.71,1.03,1.9,3.265837095,1.308740755,2.321410431,32.5290366,8.997836905,56.14764384,54.34716935,10.68524445,486.0061426,463.6221355,71.80784272,1.682077034,-0.25540379,-0.109323055,6.17482E-05,6.15785781,0.610648347,123.1529511,54.68683081,1.35,0.720221264,3.249571548,-0.249815683,-0.035407667,1.264005573,1.40628419,1.40632707,1.556112924,64.35094082,61.19436513,61.24793802,82.61067125,-0.408212857,-0.200572575,-0.200676729,271.7940815,251.9541675,21.5565944,1.408251849,4.458253056,1.59632462,1.199825726,11.16007485,-0.191123101,-0.025852865,109.4702386,76.61127597,51.88209958,1.247377774,0.772241519,4.498651124,0.398342768,0.36593928,-0.194849244,-0.082701016,7.663848267,96.80716146,67.4623673,35.4315479,1.208524445,20,1.808740755,1.5,19.40977812,73.8251849,10.08327673,50.83081358
0.261924087,142.5400602,19.28956952,174.0934992,146.922069,12.64211004,11.70822101,87.9107368,101.7400144,94.65363565,114.64986,109.9960354,112.7407931,113.2745658,123.0698813,120.5655818,124.977116,112.921708,112.9888704,92.50998157,1.811555499,2.400376625,2.009877618,1.345294516,1.247837697,1.138928383,1.563615013,1.095137482,1.464945805,1.539214746,-0.191539372,-0.063144516,1.963763596,0.575022612,-0.64849981,0.832416694,-0.166275821,-0.628131964,0.782310167,-0.720816758,-0.700139428,0.83727835,-0.156212913,-0.439227842,0.222833,-0.681383409,0.269496222,-0.449944946,0.267369607,-0.311099008,-0.710156677,-576.8157952,107.0120967,16.13403917,121.6849042,162.9270055,31.24291672,2.142002936,134.8299491,17.17465656,139.5184244,164.0264957,35.19947997,-55.43423386,29.4993027,153.6807231,27.91105633,151.5783051,161.6256091,4.603205997,2.022132739,4.880395786,3.863197731,1.325243922,2.872712642,1649.113813,700.1643162,1707.108931,1020.92243,2561.789547,276.8724965,2.75,1.02,1.88,2.71,1.03,1.9,4.05,1.5,3.14,31.23010859,9.589322528,52.9252577,51.86701945,10.5,398.7584235,368.9508793,71.70870509,1.601067747,-0.254432217,-0.109293493,3.88347E-05,6.156422905,0.610086303,123.1666992,54.69752439,1.35,0.723604947,3.708037036,-0.251905659,-0.043201262,1.222583496,1.406174681,1.406292785,1.556948696,63.02794354,61.14926918,61.22568119,82.67577161,-0.401212831,-0.200904081,-0.201064762,283.9443167,263.0083815,26.16334506,1.431165316,3.42472229,1.314353935,0.988751509,12.49442988,-0.197641343,-0.025298938,119.5195441,84.71670081,56.71761637,1.275631442,0.776744655,4.473614176,0.397635311,0.365177062,-0.195751385,-0.082093485,7.792605242,97.08990519,66.25349595,40.24069974,1.226116532,20,1.69417342,1.80582658,16.66016207,63.8834684,9.98972658,41.84471637
0.340760751,153.8757636,11.38613171,172.0581112,148.7392568,14.75742331,8.393497383,89.59295919,111.1198826,84.01322273,115.3758664,109.5694691,113.9205731,112.4511894,125.0017926,123.1981011,125.2202105,113.1817047,113.3306321,92.92656505,1.812344669,2.421213598,2.000334427,1.346576824,1.238271273,1.137415587,1.535727797,1.097087388,1.372728535,1.539199303,-0.181418694,-0.053949077,1.248334411,0.577140899,-0.643997135,0.832097559,-0.1715769,-0.651356886,0.941211447,-0.732352403,-0.6948159,0.835714314,-0.156992287,-0.436699269,0.220797349,-0.677087012,0.270129678,-0.451778236,0.261778546,-0.68702929,-0.606972225,-573.7213071,118.7312128,15.32848361,130.3194293,175.6230416,39.72399498,75.90017399,134.4889407,18.08067173,139.084198,162.5727687,35.45570769,-55.52071457,29.31893285,154.6513124,28.04598189,168.1678597,153.1413518,2.983143328,1.510282652,2.058053232,5.27,1.05,4.2,1698.243248,612.7779268,1730.435913,863.8466352,2572.817814,278.7788076,2.75,1.02,1.88,2.734449416,1.0332505,1.941549875,4.05,1.5,3.14,23.86006359,6.68657402,47.17066305,30.9851372,10.69788011,376.1929101,337.6319455,73.71757001,1.601201272,-0.2582,-0.10974,0.0001,6.15816,0.61175,123.13,54.67,1.35,0.70235,2.3435,-0.24552,-0.02109,1.33336,1.406419107,1.406353917,1.554839652,66.6148,61.3157,61.3096,82.5072,-0.41996,-0.20006,-0.20008,251.49,233.49,13.863,1.37,6.1268961,1.9593751,1.4846016,9.2134,-0.1792,-0.02399,90.57,62.11,40.099,1.19,0.75582,4.5178,0.40418,0.371,-0.1898,-0.08443,7.2601,96.57,66.07,40.078,1.22,19.93640325,2,1.5,24,70,5.91,24.04946414
0.263161754,148.730174,18.52439609,175.4260781,145.4615008,10.98977722,8.989573415,87.02839137,103.4370452,89.00629972,114.3099119,109.0869388,112.6455768,113.563755,122.3527204,119.1021232,124.8790358,112.9857783,113.3213263,92.57801917,1.8056986,2.381722469,2.014126527,1.34382764,1.252736835,1.140404974,1.555677365,1.096160747,1.521953524,1.539101166,-0.1985846,-0.069967939,1.877039061,0.573746208,-0.649067289,0.831666291,-0.165866031,-0.617899945,0.685807493,-0.715780243,-0.701599153,0.837299225,-0.156318302,-0.436089539,0.221414529,-0.682905002,0.270726643,-0.449153588,0.266692998,-0.476888555,-0.773490707,-575.5948258,102.5897809,15.72533801,122.9485545,150.9722748,26.52722583,-36.71626349,133.0084615,16.54388816,139.7925008,164.0532843,35.39128359,-55.97095178,29.6002407,153.1215435,27.77712005,150.410191,169.1182345,4.895701296,1.560230624,5.92310012,3.023043578,1.489621909,2.080045462,1626.514986,747.852136,1693.688217,1049.101675,2539.264213,300.1698941,2.75,1.02,1.88,2.71,1.03,1.9,4.05,1.5,3.14,32.84695642,9.782381632,55.14381861,55.96623793,10.49077503,382.3344329,356.4468068,71.21329383,1.571844994,-0.252182065,-0.109026836,2.30624E-06,6.155385497,0.60909273,123.1886163,54.71396219,1.35,0.736298581,4.522950036,-0.255719228,-0.056406293,1.156426836,1.406028708,1.406256277,1.558208234,60.88584267,61.04987529,61.17556416,82.776444,-0.390016863,-0.201408174,-0.201652869,303.3263077,280.6370074,33.50921463,1.467693757,1.810961352,0.929141868,0.692625662,14.45388854,-0.208654668,-0.026080646,136.8084554,98.21761277,66.64239391,1.32677126,0.789241034,4.44722603,0.393726768,0.361699554,-0.199305603,-0.080698098,8.110621853,97.40039694,66.36308127,40.33786539,1.229769376,20,1.511531213,1.988468787,12.2767491,60.23062425,12.42617362,49.46956422
0.184336052,161.9591873,18.89789884,178.1648576,144.7361915,14.88385341,5.187297227,91.1092059,103.9165878,75.63112549,114.492065,109.4184443,112.7934647,113.4903751,125.0175335,123.2410781,125.2773148,115.6997868,107.8140401,93.33174856,1.849331798,2.466056159,2.007395807,1.343395598,1.238274701,1.128911649,1.557379617,1.096651578,1.37397143,1.324224938,-0.184705812,-0.059620586,5.030910216,0.56791998,-0.649031329,0.833470315,-0.161111825,-0.652529098,0.941893311,-0.734258244,-0.671586581,0.762030239,-0.236267346,-0.468649695,0.242169645,-0.665352547,0.278353672,-0.1006412,0.269151261,-0.481068581,-0.608566441,-554.1251435,102.8170609,16.31109729,123.2614062,176.4183315,40.4227344,81.39792492,134.7420721,20.9374167,153.3057269,185.2816939,34.64625914,-64.59119139,30.85375892,94.52810732,27.71671666,151.461078,150.2839787,4.739707185,1.55,6.047522534,5.27,1.05,4.2,1700.925473,725.9940361,1733.198495,494.9815722,2671.244732,164.244714,2.75,1.02,1.88,4.525720324,1.271396344,4.985675002,3.075788054,1.26238733,2.123017773,33.53558588,5.180180272,59.28603656,59.8038295,10.01981973,488.4799348,460.894957,75.05021134,1.689211692,-0.258128716,-0.109735248,5.24775E-05,6.15820277,0.611716734,123.13,54.67332658,1.35,0.701109662,3.277697973,-0.249754258,-0.036900747,1.247282434,1.406234094,1.406391207,1.556826953,63.86153447,61.22032227,61.27429076,82.62196692,-0.405655717,-0.201143514,-0.201348852,276.6864475,256.4101181,23.40790095,1.417522534,4.064852434,1.453675888,1.107148361,11.89566686,-0.184513019,-0.023785653,112.4113566,79.53176095,52.5874467,1.251779294,0.760020992,4.511859683,0.40249295,0.369541058,-0.188916081,-0.081711711,7.396347105,96.68880633,66.11277028,40.11649325,1.22,15.27702806,1.76238733,1.5,18.29729592,74.7522534,9.578739623,54.28604165
0.266529382,155.6184448,13.83742004,175.0824969,148.3762931,14.32106229,7.45148272,88.97759422,112.6309603,78.8310043,115.1234963,111.589019,114.1006483,114.068547,125.0178604,123.1439315,125.1482725,113.2161929,112.9256213,93.00184857,1.813472333,2.42417924,2.001562215,1.343718667,1.238983102,1.137636645,1.552575303,1.097981989,1.373240102,1.539397626,-0.179389819,-0.053268032,0.984621951,0.576639527,-0.6448521,0.832400132,-0.171922781,-0.647645967,0.942234207,-0.734684353,-0.696436015,0.837582038,-0.15684194,-0.436625807,0.221958025,-0.677613999,0.269153908,-0.451219924,0.266140236,-0.380519509,-0.60693589,-571.4368886,108.9970735,15.43490899,125.169479,177.7541774,40.35915027,78.06639015,135.4153106,18.03354978,139.0937589,162.34984,35.35977893,-55.37117674,29.25009715,154.6683707,28.03196239,154.1809634,151.4374317,4.230020854,1.70995134,3.888164053,5.27,1.05,4.2,1699.106314,638.2477395,1730.758046,935.7713958,2573.661064,269.5396346,2.75,1.02,1.88,2.71,1.03,1.9,4.05,1.5,3.14,29.00055611,5.759666332,53.40125125,46.38136248,10.37990268,419.7000965,383.0744775,72.6312121,1.64600139,-0.2582,-0.10974,0.0001,6.15816,0.61175,123.13,54.67,1.35,0.70235,2.3435,-0.24552,-0.02109,1.33336,1.406419107,1.406353917,1.554839652,66.6148,61.3157,61.3096,82.5072,-0.41996,-0.20006,-0.20008,251.49,233.49,13.863,1.37,6.1268961,1.9593751,1.4846016,9.2134,-0.1792,-0.02399,90.57,62.11,40.099,1.19,0.75582,4.5178,0.40418,0.371,-0.1898,-0.08443,7.2601,96.57,66.07,40.078,1.22,20,2,1.5,24,70,5.91,29.7990268
0.127565442,138.5880288,29.17559066,173.7139124,141.8440116,17.39642057,8.619406923,96.83837063,97.66079552,95.67216772,112.4878206,112.2037186,110.642945,113.8060098,122.1687615,119.5328926,126.0775826,117.0901324,100.7326052,91.5082051,1.898567004,2.418323218,2.019591061,1.339391421,1.255708497,1.120495845,1.564748539,1.095143981,1.517187063,1.106832249,-0.200599955,-0.068202216,1.24000855,0.598614221,-0.676747567,0.845462681,-0.165337263,-0.596843813,0.703797683,-0.756554825,-0.716914355,0.837277,-0.348777402,-0.51647235,0.265617579,-0.710719768,0.281037679,0.255337877,0.275234877,-0.470376295,-0.768561636,-602.9893633,111.7508852,14.04164667,123.7331213,151.9852864,24.0705549,-2.132446581,143.9819805,18.91572506,166.7700754,212.8544745,32.55139637,-45.93794042,32.38209128,35.44472589,28.34299691,159.6869753,169.2610281,4.969400873,3.359534849,9.300406442,3.077331025,1.479000452,2.131264489,1612.884177,891.1378953,1698.404033,1193.532555,2770.490479,39.59579652,2.75,1.02,1.88,2.71,1.03,1.9,2.09566461,1.023332832,1.099864519,41.37668222,11.68067138,68.30602137,75.01070299,10.5139997,598.4568643,599.7788394,70.65707798,1.744866777,-0.251231126,-0.108700866,4.66657E-06,6.157406866,0.609004397,123.1872001,54.71194671,1.35,0.74688978,4.601663044,-0.256225945,-0.056773304,1.160510951,1.406082859,1.406287006,1.558012972,60.97268139,61.01330235,61.1559225,82.76507694,-0.390683103,-0.201337468,-0.201567202,302.0929866,279.5074484,33.03741352,1.465333434,1.968209004,1.054560047,0.774866971,14.06501377,-0.208915431,-0.028632738,137.6742496,98.25090471,69.46551091,1.333000151,0.796746643,4.470076083,0.389632118,0.358387387,-0.202384013,-0.080120929,8.266344392,97.16106729,69.54013699,28.49784781,1.19139997,20,1.523332832,1.5,12.55998796,79.53334337,16.31087761,75.94671082
