harel-coffee/ML-for-Asymmetric-C-sp3-H-Reaction-auto/Data/MLS-model/LB/MLS-LB-Real.csv
Rx-MLS,DA3-4-5-6-MLS,DA4-5-1-2-MLS,DA4-5-6-7-MLS,DA9-10-11-14-MLS,DA9-10-11-12-MLS,DA1-5-6-7-MLS,DA1-12-11-14-MLS,DA1-5-4-20-MLS,DA6-5-4-20-MLS,BA1-2-3-MLS,BA3-4-20-MLS,BA1-5-4-MLS,BA5-4-20-MLS,BA5-6-7-MLS,BA7-6-22-MLS,BA10-11-12-MLS,BA10-11-14-MLS,BA1-12-11-MLS,BA5-1-12-MLS,NB1-12-MLS,NB7-12-MLS,BL1-2-MLS,BL5-6-MLS,BL6-7-MLS,BL11-12-MLS,BL4-20-MLS,BL4-19-MLS,BL6-22-MLS,BL10-15-MLS,HOMO-MLS,LUMO-MLS,DM-MLS,q1-MLS,q2-MLS,q3-MLS,q4-MLS,q5-MLS,q6-MLS,q7-MLS,q8-MLS,q9-MLS,q10-MLS,q11-MLS,q12-MLS,q13-MLS,q14-MLS,q15-MLS,q19-MLS,q20-MLS,q22-MLS,NMR1-MLS,NMR2-MLS,NMR3-MLS,NMR4-MLS,NMR5-MLS,NMR6-MLS,NMR7-MLS,NMR8-MLS,NMR9-MLS,NMR10-MLS,NMR11-MLS,NMR12-MLS,NMR13-MLS,NMR14-MLS,NMR15-MLS,NMR19-MLS,NMR20-MLS,NMR22-MLS,L-R14-MLS,B1-R14-MLS,B5-R14-MLS,L-R15-MLS,B1-R15-MLS,B5-R15-MLS,VF(C6=O7)-MLS,VI(C6=O7)-MLS,VF(C9=O13)-MLS,VI(C9=O13)-MLS,VF(C11-H12)-MLS,VI(C11-H12)-MLS,L-Y-MLS,B1-Y-MLS,B5-Y-MLS,L-X-MLS,B1-X-MLS,B5-X-MLS,L-R16-MLS,B1-R16-MLS,B5-R16-MLS,BV-MLS,BV-SW-MLS,BV-NW-MLS,BV-NE-MLS,BV-SE-MLS,Area-MLS,Volume-MLS,PSA-MLS,Ovality-MLS,HOMO-MC,LUMO-MC,DM-MC,Rx-MC,Ry-MC,Volume-MC,PSA-MC,Ovality-MC,q(Pd)-MC,DM-CP,HOMO-CP,LUMO-CP,Rx-CP,BL1-2-CP,BL1-6-CP,BL1-7-CP,NMR1-CP,NMR2-CP,NMR6-CP,NMR7-CP,q1-CP,q2-CP,q6-CP,Area-CP,Volume-CP,PSA-CP,Ovality-CP,Rx-B,Ry-B,Rz-B,DM-B,HOMO-B,LUMO-B,Area-B,Volume-B,PSA-B,Ovality-B,q(Ag)-A,Rx-A,Ry-A,Rz-A,HOMO-A,LUMO-A,DM-A,Area-A,Volume-A,PSA-A,Ovality-A,Eqv(L),Eqv(B),Eqv(A),Time(H)   ,Temp.,DC(Solvent),%ee
0.13002,153.3455751,16.32135022,172.3632142,151.0334746,19.43681333,8.638842531,86.49560596,115.177747,80.51442184,118.0626017,110.974536,115.8641975,115.2589696,124.7773995,123.0808291,123.7545011,112.2620185,115.3150891,94.00521157,1.891794146,2.453219731,1.988417433,1.342649391,1.240258783,1.126292666,1.547276213,1.099118523,1.373325139,1.539296372,-0.17903,-0.05316,4.3915,0.47777,-0.30199,0.65954,-0.13953,-0.64743,0.94539,-0.72994,-0.66681,0.70341,-0.12702,-0.42796,0.21994,-0.66236,0.26434,-0.44791,0.26511,-0.4639,-0.60598,-456.5242,16.1083,17.4046,131.027,164.8028,39.8751,72.9119,125.9675,18.4687,137.8066,158.105,33.5586,-64.1256,28.9841,153.976,28.2394,154.2173,149.4097,4.29,1.57,4.35,5.27,1.05,4.2,1690.36,557.5325,1709.51,715.5608,2694.12,355.2023,4.81,1.45,3.51,6.17,1.49,7.78,4.05,1.5,3.14,35.3,2.6,54.3,56.3,28.2,580.27,548.18,78.936,1.79,-0.2582,-0.10974,0.0001,6.15816,0.61175,123.13,54.67,1.35,0.70235,2.3435,-0.24552,-0.02109,1.33336,1.406419107,1.406353917,1.554839652,66.6148,61.3157,61.3096,82.5072,-0.41996,-0.20006,-0.20008,251.49,233.49,13.863,1.37,6.1268961,1.9593751,1.4846016,9.2134,-0.1792,-0.02399,90.57,62.11,40.099,1.19,0.75582,4.5178,0.40418,0.371,-0.1898,-0.08443,7.2601,96.57,66.07,40.078,1.22,11,2,1.5,24,70,5.91,79
0.11852,151.7205058,19.85113922,171.4454977,151.2796088,20.76708518,7.98718325,87.51680318,114.590275,81.31010668,116.7259473,111.5406152,115.590153,115.6793692,124.71271,123.2628817,123.2646887,112.08389,116.6536654,93.55717173,1.960623516,2.480406998,1.996212386,1.343214193,1.239888471,1.121103448,1.546256351,1.099500949,1.372742178,1.539263156,-0.17968,-0.05536,4.6702,0.50205,-0.29882,0.65532,-0.13855,-0.64864,0.94506,-0.7261,-0.67938,0.7021,-0.12739,-0.43154,0.21967,-0.66568,0.26077,-0.44699,0.26484,-0.46446,-0.60548,-493.7785,24.9737,19.2229,130.9732,167.6698,39.6246,71.5104,127.7839,18.0155,138.1795,157.8918,32.9227,-64.6205,29.0943,153.7267,28.1708,154.5705,148.3871,4.29,1.57,4.35,5.27,1.05,4.2,1690.17,564.1121,1703.94,772.2863,2785.73,397.1205,5.82,1.5,4.49,6.17,1.49,7.78,4.05,1.5,3.14,37.5,4.6,53.4,58,34.1,615.17,585.14,77.948,1.82,-0.2582,-0.10974,0.0001,6.15816,0.61175,123.13,54.67,1.35,0.70235,2.3435,-0.24552,-0.02109,1.33336,1.406419107,1.406353917,1.554839652,66.6148,61.3157,61.3096,82.5072,-0.41996,-0.20006,-0.20008,251.49,233.49,13.863,1.37,6.1268961,1.9593751,1.4846016,9.2134,-0.1792,-0.02399,90.57,62.11,40.099,1.19,0.75582,4.5178,0.40418,0.371,-0.1898,-0.08443,7.2601,96.57,66.07,40.078,1.22,11,2,1.5,24,70,5.91,60
0.0997,159.1153493,11.22354861,174.26305,147.867718,22.37952912,14.94976887,80.36751244,126.2557283,75.10751295,115.8630534,111.5781345,117.8068166,115.2402474,122.8184136,123.9523026,117.4615535,111.2772197,113.6882053,99.44925048,2.582670031,3.469052613,1.997832655,1.33896933,1.244582525,1.096142357,1.54558345,1.10160191,1.363885542,1.539462212,-0.18367,-0.06191,5.3344,0.54876,-0.30688,0.66281,-0.14009,-0.65391,0.94578,-0.71251,-0.71324,0.70711,-0.12976,-0.43816,0.23242,-0.66069,0.24204,-0.44988,0.26227,-0.46419,-0.59802,-616.5524,35.8915,15.3368,134.1935,179.3603,37.5203,89.4795,124.6908,15.8547,136.293,151.9917,28.1047,-81.1152,28.0757,155.4304,28.4382,153.7485,140.3992,4.27,1.57,4.39,5.27,1.05,4.2,1661.55,414.6788,1698.7,579.6561,3043.94,76.0953,5.8,1.46,4.84,6.17,1.49,7.78,4.05,1.5,3.14,38.8,1.3,46.3,63.5,44.2,641.29,603.98,79.14,1.86,-0.2582,-0.10974,0.0001,6.15816,0.61175,123.13,54.67,1.35,0.70235,2.3435,-0.24552,-0.02109,1.33336,1.406419107,1.406353917,1.554839652,66.6148,61.3157,61.3096,82.5072,-0.41996,-0.20006,-0.20008,251.49,233.49,13.863,1.37,6.1268961,1.9593751,1.4846016,9.2134,-0.1792,-0.02399,90.57,62.11,40.099,1.19,0.75582,4.5178,0.40418,0.371,-0.1898,-0.08443,7.2601,96.57,66.07,40.078,1.22,11,2,1.5,24,70,5.91,43
0.11932,155.5697699,22.90025945,172.7929824,151.5899576,20.99026091,6.839927061,86.06453497,116.3938519,77.09317755,113.563783,111.8548452,115.5701546,116.3804875,125.7151117,121.4992688,122.5616677,112.4997322,116.7440533,92.88149989,1.960287469,2.482021706,2.011964703,1.33715957,1.238637559,1.120667706,1.546733989,1.100573322,1.382293105,1.538372026,-0.18288,-0.05663,4.6923,0.49876,-0.30469,0.66165,-0.14011,-0.64325,0.94036,-0.72268,-0.69183,0.7006,-0.12697,-0.43019,0.21845,-0.67119,0.26049,-0.44572,0.26437,-0.46537,-0.59021,-510.225,22.6728,15.9591,132.1927,170.2465,40.426,74.616,130.6249,17.9657,138.1898,157.3085,32.917,-59.9479,29.0977,154.0349,28.1923,155.1241,162.4164,4.3,1.57,4.36,4.88,1.28,6.99,1707.86,695.7551,1697.2,566.1278,2795.77,409.6022,5.8,1.46,4.84,6.17,1.49,7.78,4.05,1.5,3.14,39.1,5.9,54.3,60,36.1,649.53,631.88,79.404,1.82,-0.2582,-0.10974,0.0001,6.15816,0.61175,123.13,54.67,1.35,0.70235,2.3435,-0.24552,-0.02109,1.33336,1.406419107,1.406353917,1.554839652,66.6148,61.3157,61.3096,82.5072,-0.41996,-0.20006,-0.20008,251.49,233.49,13.863,1.37,6.1268961,1.9593751,1.4846016,9.2134,-0.1792,-0.02399,90.57,62.11,40.099,1.19,0.75582,4.5178,0.40418,0.371,-0.1898,-0.08443,7.2601,96.57,66.07,40.078,1.22,11,2,1.5,24,70,5.91,78
0.08993,145.3173602,21.68518974,169.2908092,152.0885035,21.62484412,15.34698524,85.89827202,117.9993646,87.53544638,113.5346552,111.7932687,115.2205257,115.8282533,125.5693389,121.1145116,122.5390108,112.0746289,116.2477902,92.49791433,1.968948588,2.529954335,2.01233262,1.340790184,1.23842893,1.120343431,1.544721795,1.099521126,1.382000205,1.538484781,-0.18593,-0.05761,3.0188,0.49634,-0.30519,0.66085,-0.14156,-0.64857,0.93953,-0.7151,-0.68986,0.70059,-0.12628,-0.43219,0.219,-0.6699,0.25838,-0.4458,0.26707,-0.46294,-0.59122,-519.9184,21.7818,15.7427,132.2926,178.1414,38.6567,70.7058,131.2851,18.0267,137.4502,157.9455,32.7562,-60.6213,28.9399,154.0404,28.0349,154.3421,177.8159,4.29,1.58,4.37,6.81,1.35,7.89,1704.19,653.8504,1696.85,555.8962,2784.01,407.0011,5.8,1.46,4.84,6.17,1.49,7.78,4.05,1.5,3.14,38.3,93.6,48.7,41.3,63.3,740.11,722.96,80.057,1.9,-0.2582,-0.10974,0.0001,6.15816,0.61175,123.13,54.67,1.35,0.70235,2.3435,-0.24552,-0.02109,1.33336,1.406419107,1.406353917,1.554839652,66.6148,61.3157,61.3096,82.5072,-0.41996,-0.20006,-0.20008,251.49,233.49,13.863,1.37,6.1268961,1.9593751,1.4846016,9.2134,-0.1792,-0.02399,90.57,62.11,40.099,1.19,0.75582,4.5178,0.40418,0.371,-0.1898,-0.08443,7.2601,96.57,66.07,40.078,1.22,11,2,1.5,24,70,5.91,79
0.11775,154.7581453,25.7128113,172.592197,152.3253797,21.76630585,4.11096731,87.95994159,112.7753799,78.45370145,113.1268991,111.1337427,114.1185415,116.8513662,125.3183447,114.6807706,122.9326433,112.2201773,117.6519876,93.51451989,1.963022094,2.426488536,2.009295921,1.330075447,1.242964354,1.12087729,1.546887592,1.095437416,1.557059154,1.537542417,-0.19137,-0.06218,4.0501,0.49929,-0.30113,0.66141,-0.14954,-0.60308,0.57064,-0.66621,-0.68754,0.70089,-0.1268,-0.42966,0.21711,-0.66851,0.25944,-0.44638,0.27379,-0.46968,1.0686,-514.9804,24.2888,16.7251,132.7008,132.7698,38.5893,-19.0488,132.2499,17.9023,138.2983,157.5864,33.0486,-62.8529,29.1627,154.3002,27.5886,154.0981,69.0574,4.3,1.58,4.34,3.39,1.96,2.62,1690.02,604.5167,1701.03,551.5644,2783.66,461.5289,5.8,1.46,4.84,6.17,1.49,7.78,4.05,1.5,3.14,39.2,6.4,54.1,59.7,36.5,572.86,552.47,74.44,1.76,-0.2582,-0.10974,0.0001,6.15816,0.61175,123.13,54.67,1.35,0.70235,2.3435,-0.24552,-0.02109,1.33336,1.406419107,1.406353917,1.554839652,66.6148,61.3157,61.3096,82.5072,-0.41996,-0.20006,-0.20008,251.49,233.49,13.863,1.37,6.1268961,1.9593751,1.4846016,9.2134,-0.1792,-0.02399,90.57,62.11,40.099,1.19,0.75582,4.5178,0.40418,0.371,-0.1898,-0.08443,7.2601,96.57,66.07,40.078,1.22,11,2,1.5,24,70,5.91,69
0.12799,140.8628573,28.31122147,171.66712,149.8478078,19.31760775,10.89013374,90.27914507,106.4257592,91.16349899,115.9871945,112.3049176,113.8591163,115.6191456,126.5725388,120.0518186,123.8649076,111.907985,119.0014193,91.87242813,1.939079797,2.528749594,2.004979332,1.33683178,1.240973143,1.120711654,1.545615287,1.10141997,1.114643904,1.542108063,-0.18114,-0.05637,2.7395,0.46997,-0.30529,0.66129,-0.14082,-0.62774,0.49293,-0.68804,-0.69747,0.70202,-0.12638,-0.43768,0.2207,-0.67098,0.26002,-0.44616,0.25902,-0.46415,0.14349,-482.0781,33.7832,17.2109,130.6894,136.8068,33.3594,-27.9578,126.9907,18.6834,138.9024,162.6528,31.6975,-58.2803,29.6306,152.3022,28.1794,150.7336,23.1978,4.3,1.58,4.34,2,1,1,1707.3,806.8401,1696.48,611.2824,2809.93,273.6793,5.8,1.46,4.84,6.17,1.49,7.78,4.05,1.5,3.14,39.5,17.6,54.9,47.1,38.4,550.13,521.34,73.712,1.76,-0.2582,-0.10974,0.0001,6.15816,0.61175,123.13,54.67,1.35,0.70235,2.3435,-0.24552,-0.02109,1.33336,1.406419107,1.406353917,1.554839652,66.6148,61.3157,61.3096,82.5072,-0.41996,-0.20006,-0.20008,251.49,233.49,13.863,1.37,6.1268961,1.9593751,1.4846016,9.2134,-0.1792,-0.02399,90.57,62.11,40.099,1.19,0.75582,4.5178,0.40418,0.371,-0.1898,-0.08443,7.2601,96.57,66.07,40.078,1.22,11,2,1.5,24,70,5.91,40
0.14958,151.5315742,17.0855574,171.2222494,149.6350288,17.45561813,8.240428848,84.23161637,109.7374351,86.59200816,118.0688693,109.3123718,115.5781128,112.265517,124.7812576,123.2067794,123.2813615,112.5579685,114.323717,93.55658112,1.885469108,2.461808938,1.988204901,1.345772031,1.239138486,1.127046893,1.534427301,1.097428618,1.372256959,1.539975669,-0.18137,-0.05321,4.1291,0.47738,-0.2999,0.65884,-0.13743,-0.64586,0.94419,-0.72821,-0.66263,0.70333,-0.12795,-0.43136,0.22208,-0.66108,0.26674,-0.44923,0.26125,-0.68743,-0.60586,-457.3295,18.251,18.4931,135.1558,163.4728,39.6085,71.9163,125.6124,18.4141,138.1678,159.0582,33.6462,-65.0864,29.0703,154.0555,28.3138,168.8961,151.8537,2.97,1.51,2.03,5.27,1.05,4.2,1691.44,532.7542,1710.63,678.3539,2694.1,346.9713,4.81,1.45,3.51,6.17,1.49,7.78,4.05,1.5,3.14,28.8,2.6,46.9,37.4,28.2,529.05,494.01,80.427,1.75,-0.2582,-0.10974,0.0001,6.15816,0.61175,123.13,54.67,1.35,0.70235,2.3435,-0.24552,-0.02109,1.33336,1.406419107,1.406353917,1.554839652,66.6148,61.3157,61.3096,82.5072,-0.41996,-0.20006,-0.20008,251.49,233.49,13.863,1.37,6.1268961,1.9593751,1.4846016,9.2134,-0.1792,-0.02399,90.57,62.11,40.099,1.19,0.75582,4.5178,0.40418,0.371,-0.1898,-0.08443,7.2601,96.57,66.07,40.078,1.22,11,2,1.5,24,70,5.91,74
0.1333,134.366505,20.09829826,169.7269463,150.2648692,19.69333309,16.52050276,85.6350056,102.5926796,103.6281237,118.8189646,108.8606754,114.6628769,113.1515853,124.0379962,123.1053056,122.8724903,112.0120608,115.58703,93.50673606,1.97078642,2.497280015,1.990572356,1.349061735,1.239902796,1.120647976,1.554916222,1.094683993,1.368275484,1.540005782,-0.18192,-0.05449,4.2524,0.49091,-0.30245,0.65703,-0.13745,-0.64904,0.94639,-0.72128,-0.67224,0.70282,-0.12781,-0.43675,0.22262,-0.66256,0.26077,-0.44849,0.26781,-0.25174,-0.6021,-493.8882,18.9968,19.3037,127.8156,172.9893,38.1883,62.2395,128.8341,18.1762,138.0685,158.4859,32.6044,-67.0895,29.129,153.8844,28.331,156.2194,147.0775,4.14,1.92,3.18,5.27,1.05,4.2,1681.19,473.7874,1707.26,680.124,2785.04,358.6604,4.81,1.45,3.51,6.17,1.49,7.78,4.05,1.5,3.14,32.8,4.5,48.6,48.9,29,566.36,530.49,80.288,1.79,-0.2582,-0.10974,0.0001,6.15816,0.61175,123.13,54.67,1.35,0.70235,2.3435,-0.24552,-0.02109,1.33336,1.406419107,1.406353917,1.554839652,66.6148,61.3157,61.3096,82.5072,-0.41996,-0.20006,-0.20008,251.49,233.49,13.863,1.37,6.1268961,1.9593751,1.4846016,9.2134,-0.1792,-0.02399,90.57,62.11,40.099,1.19,0.75582,4.5178,0.40418,0.371,-0.1898,-0.08443,7.2601,96.57,66.07,40.078,1.22,11,2,1.5,24,70,5.91,80
0.12464,129.3153176,19.99591933,170.4369893,149.9999479,19.43271439,16.27431107,85.0296688,99.8233477,105.5624483,119.6291906,112.2264087,114.9501135,112.7736376,123.9472405,123.0347799,122.7128216,112.0831002,115.5724502,93.55282345,1.971689445,2.505838603,1.989171948,1.348603868,1.240220362,1.120584578,1.573261689,1.093882654,1.368478284,1.540059071,-0.18133,-0.05405,4.4325,0.48847,-0.29553,0.65591,-0.13444,-0.64627,0.94689,-0.72105,-0.67515,0.70283,-0.1276,-0.43629,0.2222,-0.66395,0.26046,-0.44829,0.27026,-0.04923,-0.60241,-487.6323,18.8745,19.8718,124.6283,168.528,38.4696,61.4843,129.0591,18.1092,137.967,158.274,32.659,-65.5806,29.0601,153.8767,28.4497,153.3614,146.0929,4.12,2.75,3.19,5.27,1.05,4.2,1679.45,447.1821,1705.42,978.4384,2785.38,368.9036,4.81,1.45,3.51,6.17,1.49,7.78,4.05,1.5,3.14,33.6,4.1,49.2,50.6,30.4,581.16,547.89,79.62,1.79,-0.2582,-0.10974,0.0001,6.15816,0.61175,123.13,54.67,1.35,0.70235,2.3435,-0.24552,-0.02109,1.33336,1.406419107,1.406353917,1.554839652,66.6148,61.3157,61.3096,82.5072,-0.41996,-0.20006,-0.20008,251.49,233.49,13.863,1.37,6.1268961,1.9593751,1.4846016,9.2134,-0.1792,-0.02399,90.57,62.11,40.099,1.19,0.75582,4.5178,0.40418,0.371,-0.1898,-0.08443,7.2601,96.57,66.07,40.078,1.22,11,2,1.5,24,70,5.91,68
0.11042,156.7492783,16.01414951,172.8999533,148.6001341,16.69850124,6.989476582,84.02506578,112.939266,80.55454059,117.681319,109.370777,115.711193,113.270923,124.894759,123.1202103,123.3972994,112.391343,114.8862468,93.47739736,1.880158225,2.450756951,1.990753361,1.343567865,1.239202816,1.127899574,1.552250495,1.097846224,1.374139152,1.53848715,-0.18011,-0.05303,4.2621,0.49425,-0.29801,0.65707,-0.1272,-0.64707,0.9445,-0.72812,-0.66397,0.70425,-0.12694,-0.42696,0.21864,-0.66307,0.26789,-0.44736,0.26628,-0.48028,-0.6079,-465.8288,15.5113,19.4268,129.2264,169.0584,40.0169,75.5705,126.1771,18.4583,138.4809,158.8634,34.1352,-62.8217,29.3361,153.5133,28.0985,152.478,149.1952,4.86,1.55,5.99,5.27,1.05,4.2,1693.81,514.618,1709.47,951.2781,2676.73,344.9104,4.81,1.45,3.51,6.17,1.49,7.78,4.05,1.5,3.14,36.3,3.1,54.7,59.8,27.8,602.18,577.42,79.411,1.8,-0.2582,-0.10974,0.0001,6.15816,0.61175,123.13,54.67,1.35,0.70235,2.3435,-0.24552,-0.02109,1.33336,1.406419107,1.406353917,1.554839652,66.6148,61.3157,61.3096,82.5072,-0.41996,-0.20006,-0.20008,251.49,233.49,13.863,1.37,6.1268961,1.9593751,1.4846016,9.2134,-0.1792,-0.02399,90.57,62.11,40.099,1.19,0.75582,4.5178,0.40418,0.371,-0.1898,-0.08443,7.2601,96.57,66.07,40.078,1.22,11,2,1.5,24,70,5.91,82
0.07165,155.7128311,17.58167403,172.9757855,147.5498996,15.33180978,4.592646478,82.76585531,109.5798475,81.45214673,118.1278112,109.3367709,115.5520441,113.5092797,125.0707239,123.0684547,123.1894995,112.6866286,114.7680132,93.39729477,1.87511928,2.448769705,1.992352131,1.343263446,1.238820623,1.127958176,1.553250704,1.097405332,1.374920519,1.537321791,-0.17818,-0.05195,6.9268,0.49611,-0.2979,0.65461,-0.12757,-0.64568,0.94387,-0.72955,-0.66573,0.70536,-0.12677,-0.42829,0.22011,-0.66322,0.26788,-0.44393,0.26591,-0.47744,-0.60812,-466.0562,15.3113,19.5534,129.1869,167.6815,40.3967,76.4732,126.3685,17.8127,138.9733,159.2498,33.9991,-63.2267,29.3695,152.2889,28.1636,152.8565,150.5733,7.58,1.56,8.78,5.27,1.05,4.2,1696.42,498.6433,1708.55,965.8213,2668.35,317.215,4.81,1.45,3.51,6.17,1.49,7.78,4.05,1.5,3.14,36.9,2.9,54.5,61.9,28.1,680.66,658.07,85.477,1.86,-0.2582,-0.10974,0.0001,6.15816,0.61175,123.13,54.67,1.35,0.70235,2.3435,-0.24552,-0.02109,1.33336,1.406419107,1.406353917,1.554839652,66.6148,61.3157,61.3096,82.5072,-0.41996,-0.20006,-0.20008,251.49,233.49,13.863,1.37,6.1268961,1.9593751,1.4846016,9.2134,-0.1792,-0.02399,90.57,62.11,40.099,1.19,0.75582,4.5178,0.40418,0.371,-0.1898,-0.08443,7.2601,96.57,66.07,40.078,1.22,11,2,1.5,24,70,5.91,80
0.08734,157.2760478,16.60329418,173.0239984,145.2398005,14.01500616,4.590208584,81.28454004,111.099453,79.99935851,118.160265,109.4611605,115.9715065,113.2107183,124.8432252,123.1920664,122.384023,112.5008132,115.3733399,93.11594073,1.956880515,2.437260528,1.993784309,1.343436253,1.239144374,1.122077756,1.554303621,1.097476601,1.373681641,1.539331113,-0.18029,-0.05568,3.9024,0.51269,-0.29762,0.65451,-0.12723,-0.64721,0.94377,-0.72663,-0.67345,0.70572,-0.12775,-0.43152,0.21976,-0.66182,0.26463,-0.44686,0.26768,-0.48003,-0.60772,-502.4751,16.6822,20.0059,129.6968,169.6231,39.9062,76.1133,126.9819,17.1555,140.0238,160.0846,33.5101,-67.487,29.7384,156.8699,28.0841,152.0837,148.479,5.56,1.55,8.12,5.27,1.05,4.2,1693.76,524.6993,1707.24,859.0484,2775.23,364.3108,4.81,1.45,3.51,6.17,1.49,7.78,4.05,1.5,3.14,37.5,3.3,57.4,61.2,28,641.08,628.07,79.687,1.81,-0.2582,-0.10974,0.0001,6.15816,0.61175,123.13,54.67,1.35,0.70235,2.3435,-0.24552,-0.02109,1.33336,1.406419107,1.406353917,1.554839652,66.6148,61.3157,61.3096,82.5072,-0.41996,-0.20006,-0.20008,251.49,233.49,13.863,1.37,6.1268961,1.9593751,1.4846016,9.2134,-0.1792,-0.02399,90.57,62.11,40.099,1.19,0.75582,4.5178,0.40418,0.371,-0.1898,-0.08443,7.2601,96.57,66.07,40.078,1.22,11,2,1.5,24,70,5.91,80
0.10504,155.0154368,13.80413608,175.3301611,147.7050572,16.82756979,5.71913692,83.30657636,108.8769977,81.01305408,119.7783757,110.1809618,115.863029,113.181043,124.8479797,123.3139719,122.5982448,112.6145769,115.7996605,94.14472318,1.954814824,2.453377536,1.990517521,1.345288697,1.238141891,1.122070977,1.553893638,1.096155108,1.37190571,1.537828835,-0.17955,-0.05579,5.4933,0.50178,-0.29313,0.65158,-0.12633,-0.65399,0.94865,-0.72772,-0.6732,0.70347,-0.12822,-0.42945,0.21949,-0.66458,0.26396,-0.4463,0.2709,-0.48666,-0.60655,-492.6838,19.496,20.9651,130.6285,169.3581,39.8576,76.2495,128.5685,18.0473,139.0297,158.0651,33.4049,-64.4844,29.284,152.8599,28.1497,162.4967,150.9453,4.97,1.54,5.94,5.27,1.05,4.2,1697.09,559.8992,1707.76,701.1574,2772.69,396.7341,4.81,1.45,3.51,6.17,1.49,7.78,4.05,1.5,3.14,38.1,2.4,57.8,62.4,29.8,603.53,585.62,79.847,1.78,-0.2582,-0.10974,0.0001,6.15816,0.61175,123.13,54.67,1.35,0.70235,2.3435,-0.24552,-0.02109,1.33336,1.406419107,1.406353917,1.554839652,66.6148,61.3157,61.3096,82.5072,-0.41996,-0.20006,-0.20008,251.49,233.49,13.863,1.37,6.1268961,1.9593751,1.4846016,9.2134,-0.1792,-0.02399,90.57,62.11,40.099,1.19,0.75582,4.5178,0.40418,0.371,-0.1898,-0.08443,7.2601,96.57,66.07,40.078,1.22,11,2,1.5,24,70,5.91,83
0.07654,124.1960712,21.58874156,164.3127456,149.1260278,19.22908727,17.64140117,88.99777605,102.9711976,109.3887201,118.7106707,110.9307085,113.5074693,114.7839538,124.2173576,122.8276786,123.4821263,111.4752992,119.3400885,93.41183347,1.954292615,2.513091799,1.998574974,1.351669505,1.238683857,1.120092068,1.558556457,1.092869255,1.369666212,1.537171879,-0.17952,-0.05441,4.1705,0.51305,-0.31072,0.65531,-0.12963,-0.65756,0.94965,-0.71398,-0.69169,0.70256,-0.12481,-0.43235,0.2159,-0.67336,0.25639,-0.44408,0.27317,-0.4809,-0.60255,-493.9002,20.6363,19.6392,129.8194,165.3143,37.4266,50.9606,131.5213,17.7855,139.3309,159.5162,32.8119,-59.8628,29.5069,152.1957,28.5492,160.84,154.7363,5.23,2,7.31,5.27,1.05,4.2,1683.01,496.91,1699.7,577.9178,2814.72,330.4615,4.81,1.45,3.51,6.17,1.49,7.78,4.05,1.5,3.14,44.9,12.8,63,72.5,31.3,734.69,741.83,80.071,1.85,-0.2582,-0.10974,0.0001,6.15816,0.61175,123.13,54.67,1.35,0.70235,2.3435,-0.24552,-0.02109,1.33336,1.406419107,1.406353917,1.554839652,66.6148,61.3157,61.3096,82.5072,-0.41996,-0.20006,-0.20008,251.49,233.49,13.863,1.37,6.1268961,1.9593751,1.4846016,9.2134,-0.1792,-0.02399,90.57,62.11,40.099,1.19,0.75582,4.5178,0.40418,0.371,-0.1898,-0.08443,7.2601,96.57,66.07,40.078,1.22,11,2,1.5,24,70,5.91,87
0.06576,123.4989447,20.91235282,162.8680685,148.5996466,18.33993317,15.45393901,85.91032126,102.3326871,109.1968388,118.6430786,111.501039,113.5170986,115.1754994,124.1833063,122.8795417,122.9637866,111.8031014,117.3058229,93.07453396,1.959050765,2.4894077,2.002700779,1.352590003,1.238465584,1.119350542,1.560229168,1.092648303,1.369682821,1.538367809,-0.17866,-0.05321,6.9671,0.51728,-0.3059,0.65536,-0.12781,-0.65701,0.94926,-0.71368,-0.68958,0.70326,-0.12576,-0.43727,0.22013,-0.66842,0.25691,-0.44421,0.27213,-0.4808,-0.60241,-498.6358,17.585,19.0999,129.0623,165.3553,37.6583,49.6088,127.875,18.0977,139.4091,160.1291,32.6754,-62.8738,29.5615,153.4087,28.5866,161.1843,154.7136,5.46,3.34,11.19,5.27,1.05,4.2,1683.73,462.4811,1701.73,720.8615,2811.64,297.5165,4.81,1.45,3.51,6.17,1.49,7.78,4.05,1.5,3.14,45.3,10.4,61.9,74.6,34.4,879.3,907.43,77.345,1.94,-0.2582,-0.10974,0.0001,6.15816,0.61175,123.13,54.67,1.35,0.70235,2.3435,-0.24552,-0.02109,1.33336,1.406419107,1.406353917,1.554839652,66.6148,61.3157,61.3096,82.5072,-0.41996,-0.20006,-0.20008,251.49,233.49,13.863,1.37,6.1268961,1.9593751,1.4846016,9.2134,-0.1792,-0.02399,90.57,62.11,40.099,1.19,0.75582,4.5178,0.40418,0.371,-0.1898,-0.08443,7.2601,96.57,66.07,40.078,1.22,11,2,1.5,24,70,5.91,84
0.05831,130.6746054,17.25019203,161.9324938,153.1641652,24.33652175,3.881737111,96.47680233,98.21579742,102.3275473,117.8474597,112.3316828,114.0979906,115.1896377,125.0967531,122.8757234,123.6014202,111.729803,124.9612172,93.82264925,1.938654818,2.429724856,2.009577012,1.348118531,1.237845607,1.118424187,1.55869299,1.092803067,1.373103078,1.538570866,-0.1721,-0.05549,3.4605,0.52237,-0.31502,0.65871,-0.12732,-0.66703,0.9484,-0.72056,-0.70237,0.7,-0.12527,-0.42341,0.20884,-0.67795,0.25062,-0.44814,0.272,-0.47875,-0.60474,-488.5735,18.0176,18.282,127.4586,163.5292,39.0436,64.1911,134.857,18.6925,139.5701,157.4886,31.7321,-55.4423,29.2618,153.2342,28.7039,160.8555,155.9999,4.72,2.53,9.21,5.27,1.05,4.2,1690.58,630.9163,1698.91,526.6211,2815.23,322.9825,4.81,1.45,3.51,6.17,1.49,7.78,4.05,1.5,3.14,45.8,23.2,71.6,55.4,32.9,790.63,795.81,91.756,1.9,-0.2582,-0.10974,0.0001,6.15816,0.61175,123.13,54.67,1.35,0.70235,2.3435,-0.24552,-0.02109,1.33336,1.406419107,1.406353917,1.554839652,66.6148,61.3157,61.3096,82.5072,-0.41996,-0.20006,-0.20008,251.49,233.49,13.863,1.37,6.1268961,1.9593751,1.4846016,9.2134,-0.1792,-0.02399,90.57,62.11,40.099,1.19,0.75582,4.5178,0.40418,0.371,-0.1898,-0.08443,7.2601,96.57,66.07,40.078,1.22,11,2,1.5,24,70,5.91,81
0.07182,124.647574,21.61605485,162.428719,149.9634033,20.09903635,15.33533842,89.67674002,102.7132381,109.1456622,118.7129344,110.5772927,113.4501433,115.1659374,124.1986571,122.7589316,123.6413488,111.2529457,119.2820055,93.73608328,1.955090965,2.534858424,1.997160668,1.351687653,1.238543036,1.120294975,1.558572575,1.092992388,1.370709574,1.53731323,-0.18058,-0.05526,4.8194,0.51268,-0.31122,0.65504,-0.12863,-0.65778,0.94897,-0.71199,-0.69245,0.70224,-0.12445,-0.43167,0.2155,-0.67284,0.2543,-0.44422,0.27231,-0.48126,-0.60353,-492.1606,21.427,19.7128,129.3907,163.0354,36.9669,49.238,132.1157,18.0163,139.1734,159.4067,32.8967,-59.8436,29.52,152.4886,28.6174,161.1534,157.2278,5.26,2.03,7.85,5.27,1.05,4.2,1682.09,488.9262,1700.13,572.7038,2814.17,330.73,4.81,1.45,3.51,6.17,1.49,7.78,4.05,1.5,3.14,45.1,12.5,63.7,72.6,31.5,740.84,750.4,79.913,1.86,-0.2582,-0.10974,0.0001,6.15816,0.61175,123.13,54.67,1.35,0.70235,2.3435,-0.24552,-0.02109,1.33336,1.406419107,1.406353917,1.554839652,66.6148,61.3157,61.3096,82.5072,-0.41996,-0.20006,-0.20008,251.49,233.49,13.863,1.37,6.1268961,1.9593751,1.4846016,9.2134,-0.1792,-0.02399,90.57,62.11,40.099,1.19,0.75582,4.5178,0.40418,0.371,-0.1898,-0.08443,7.2601,96.57,66.07,40.078,1.22,11,2,1.5,24,70,5.91,88
0.07182,124.647574,21.61605485,162.428719,149.9634033,20.09903635,15.33533842,89.67674002,102.7132381,109.1456622,118.7129344,110.5772927,113.4501433,115.1659374,124.1986571,122.7589316,123.6413488,111.2529457,119.2820055,93.73608328,1.955090965,2.534858424,1.997160668,1.351687653,1.238543036,1.120294975,1.558572575,1.092992388,1.370709574,1.53731323,-0.18058,-0.05526,4.8194,0.51268,-0.31122,0.65504,-0.12863,-0.65778,0.94897,-0.71199,-0.69245,0.70224,-0.12445,-0.43167,0.2155,-0.67284,0.2543,-0.44422,0.27231,-0.48126,-0.60353,-492.1606,21.427,19.7128,129.3907,163.0354,36.9669,49.238,132.1157,18.0163,139.1734,159.4067,32.8967,-59.8436,29.52,152.4886,28.6174,161.1534,157.2278,5.26,2.03,7.85,5.27,1.05,4.2,1682.09,488.9262,1700.13,572.7038,2814.17,330.73,4.81,1.45,3.51,6.17,1.49,7.78,4.05,1.5,3.14,45.1,12.5,63.7,72.6,31.5,740.84,750.4,79.913,1.86,-0.2582,-0.10974,0.0001,6.15816,0.61175,123.13,54.67,1.35,0.70235,2.3435,-0.24552,-0.02109,1.33336,1.406419107,1.406353917,1.554839652,66.6148,61.3157,61.3096,82.5072,-0.41996,-0.20006,-0.20008,251.49,233.49,13.863,1.37,9.4901587,5.6727247,3.5504524,7.1339,-0.227,-0.00511,77.38,52.94,41.422,1.13,0.75582,4.5178,0.40418,0.371,-0.1898,-0.08443,7.2601,96.57,66.07,40.078,1.22,11,3,1.5,24,70,5.91,80
0.07182,124.647574,21.61605485,162.428719,149.9634033,20.09903635,15.33533842,89.67674002,102.7132381,109.1456622,118.7129344,110.5772927,113.4501433,115.1659374,124.1986571,122.7589316,123.6413488,111.2529457,119.2820055,93.73608328,1.955090965,2.534858424,1.997160668,1.351687653,1.238543036,1.120294975,1.558572575,1.092992388,1.370709574,1.53731323,-0.18058,-0.05526,4.8194,0.51268,-0.31122,0.65504,-0.12863,-0.65778,0.94897,-0.71199,-0.69245,0.70224,-0.12445,-0.43167,0.2155,-0.67284,0.2543,-0.44422,0.27231,-0.48126,-0.60353,-492.1606,21.427,19.7128,129.3907,163.0354,36.9669,49.238,132.1157,18.0163,139.1734,159.4067,32.8967,-59.8436,29.52,152.4886,28.6174,161.1534,157.2278,5.26,2.03,7.85,5.27,1.05,4.2,1682.09,488.9262,1700.13,572.7038,2814.17,330.73,4.81,1.45,3.51,6.17,1.49,7.78,4.05,1.5,3.14,45.1,12.5,63.7,72.6,31.5,740.84,750.4,79.913,1.86,-0.2582,-0.10974,0.0001,6.15816,0.61175,123.13,54.67,1.35,0.70235,2.3435,-0.24552,-0.02109,1.33336,1.406419107,1.406353917,1.554839652,66.6148,61.3157,61.3096,82.5072,-0.41996,-0.20006,-0.20008,251.49,233.49,13.863,1.37,11.8094949,6.0852569,4.1187292,3.6404,-0.24634,0.00093,87.07,62.98,28.452,1.14,0.75582,4.5178,0.40418,0.371,-0.1898,-0.08443,7.2601,96.57,66.07,40.078,1.22,11,3,1.5,24,70,5.91,67
0.07182,124.647574,21.61605485,162.428719,149.9634033,20.09903635,15.33533842,89.67674002,102.7132381,109.1456622,118.7129344,110.5772927,113.4501433,115.1659374,124.1986571,122.7589316,123.6413488,111.2529457,119.2820055,93.73608328,1.955090965,2.534858424,1.997160668,1.351687653,1.238543036,1.120294975,1.558572575,1.092992388,1.370709574,1.53731323,-0.18058,-0.05526,4.8194,0.51268,-0.31122,0.65504,-0.12863,-0.65778,0.94897,-0.71199,-0.69245,0.70224,-0.12445,-0.43167,0.2155,-0.67284,0.2543,-0.44422,0.27231,-0.48126,-0.60353,-492.1606,21.427,19.7128,129.3907,163.0354,36.9669,49.238,132.1157,18.0163,139.1734,159.4067,32.8967,-59.8436,29.52,152.4886,28.6174,161.1534,157.2278,5.26,2.03,7.85,5.27,1.05,4.2,1682.09,488.9262,1700.13,572.7038,2814.17,330.73,4.81,1.45,3.51,6.17,1.49,7.78,4.05,1.5,3.14,45.1,12.5,63.7,72.6,31.5,740.84,750.4,79.913,1.86,-0.2582,-0.10974,0.0001,6.15816,0.61175,123.13,54.67,1.35,0.70235,2.3435,-0.24552,-0.02109,1.33336,1.406419107,1.406353917,1.554839652,66.6148,61.3157,61.3096,82.5072,-0.41996,-0.20006,-0.20008,251.49,233.49,13.863,1.37,11.6007918,3.0893724,2.477202,5.9639,-0.2245,-0.02223,93.91,67.65,27.89,1.17,0.75582,4.5178,0.40418,0.371,-0.1898,-0.08443,7.2601,96.57,66.07,40.078,1.22,11,3,1.5,24,70,5.91,86
0.07182,124.647574,21.61605485,162.428719,149.9634033,20.09903635,15.33533842,89.67674002,102.7132381,109.1456622,118.7129344,110.5772927,113.4501433,115.1659374,124.1986571,122.7589316,123.6413488,111.2529457,119.2820055,93.73608328,1.955090965,2.534858424,1.997160668,1.351687653,1.238543036,1.120294975,1.558572575,1.092992388,1.370709574,1.53731323,-0.18058,-0.05526,4.8194,0.51268,-0.31122,0.65504,-0.12863,-0.65778,0.94897,-0.71199,-0.69245,0.70224,-0.12445,-0.43167,0.2155,-0.67284,0.2543,-0.44422,0.27231,-0.48126,-0.60353,-492.1606,21.427,19.7128,129.3907,163.0354,36.9669,49.238,132.1157,18.0163,139.1734,159.4067,32.8967,-59.8436,29.52,152.4886,28.6174,161.1534,157.2278,5.26,2.03,7.85,5.27,1.05,4.2,1682.09,488.9262,1700.13,572.7038,2814.17,330.73,4.81,1.45,3.51,6.17,1.49,7.78,4.05,1.5,3.14,45.1,12.5,63.7,72.6,31.5,740.84,750.4,79.913,1.86,-0.2582,-0.10974,0.0001,6.15816,0.61175,123.13,54.67,1.35,0.70235,2.3435,-0.24552,-0.02109,1.33336,1.406419107,1.406353917,1.554839652,66.6148,61.3157,61.3096,82.5072,-0.41996,-0.20006,-0.20008,251.49,233.49,13.863,1.37,11.5234403,1.9156834,1.6594806,8.1907,-0.20765,-0.02233,106.36,78.35,26.913,1.2,0.75582,4.5178,0.40418,0.371,-0.1898,-0.08443,7.2601,96.57,66.07,40.078,1.22,11,3,1.5,24,70,5.91,69
0.07182,124.647574,21.61605485,162.428719,149.9634033,20.09903635,15.33533842,89.67674002,102.7132381,109.1456622,118.7129344,110.5772927,113.4501433,115.1659374,124.1986571,122.7589316,123.6413488,111.2529457,119.2820055,93.73608328,1.955090965,2.534858424,1.997160668,1.351687653,1.238543036,1.120294975,1.558572575,1.092992388,1.370709574,1.53731323,-0.18058,-0.05526,4.8194,0.51268,-0.31122,0.65504,-0.12863,-0.65778,0.94897,-0.71199,-0.69245,0.70224,-0.12445,-0.43167,0.2155,-0.67284,0.2543,-0.44422,0.27231,-0.48126,-0.60353,-492.1606,21.427,19.7128,129.3907,163.0354,36.9669,49.238,132.1157,18.0163,139.1734,159.4067,32.8967,-59.8436,29.52,152.4886,28.6174,161.1534,157.2278,5.26,2.03,7.85,5.27,1.05,4.2,1682.09,488.9262,1700.13,572.7038,2814.17,330.73,4.81,1.45,3.51,6.17,1.49,7.78,4.05,1.5,3.14,45.1,12.5,63.7,72.6,31.5,740.84,750.4,79.913,1.86,-0.2582,-0.10974,0.0001,6.15816,0.61175,123.13,54.67,1.35,0.70235,2.3435,-0.24552,-0.02109,1.33336,1.406419107,1.406353917,1.554839652,66.6148,61.3157,61.3096,82.5072,-0.41996,-0.20006,-0.20008,251.49,233.49,13.863,1.37,12.1510087,3.2802025,2.5829347,7.0648,-0.23403,-0.02445,82,56.12,48.065,1.16,0.75582,4.5178,0.40418,0.371,-0.1898,-0.08443,7.2601,96.57,66.07,40.078,1.22,11,3,1.5,24,70,5.91,87
0.07182,124.647574,21.61605485,162.428719,149.9634033,20.09903635,15.33533842,89.67674002,102.7132381,109.1456622,118.7129344,110.5772927,113.4501433,115.1659374,124.1986571,122.7589316,123.6413488,111.2529457,119.2820055,93.73608328,1.955090965,2.534858424,1.997160668,1.351687653,1.238543036,1.120294975,1.558572575,1.092992388,1.370709574,1.53731323,-0.18058,-0.05526,4.8194,0.51268,-0.31122,0.65504,-0.12863,-0.65778,0.94897,-0.71199,-0.69245,0.70224,-0.12445,-0.43167,0.2155,-0.67284,0.2543,-0.44422,0.27231,-0.48126,-0.60353,-492.1606,21.427,19.7128,129.3907,163.0354,36.9669,49.238,132.1157,18.0163,139.1734,159.4067,32.8967,-59.8436,29.52,152.4886,28.6174,161.1534,157.2278,5.26,2.03,7.85,5.27,1.05,4.2,1682.09,488.9262,1700.13,572.7038,2814.17,330.73,4.81,1.45,3.51,6.17,1.49,7.78,4.05,1.5,3.14,45.1,12.5,63.7,72.6,31.5,740.84,750.4,79.913,1.86,-0.2582,-0.10974,0.0001,6.15816,0.61175,123.13,54.67,1.35,0.70235,2.3435,-0.24552,-0.02109,1.33336,1.406419107,1.406353917,1.554839652,66.6148,61.3157,61.3096,82.5072,-0.41996,-0.20006,-0.20008,251.49,233.49,13.863,1.37,12.0723481,1.9815776,1.7021876,9.2522,-0.21725,-0.02406,94.41,66.8,47.176,1.19,0.75582,4.5178,0.40418,0.371,-0.1898,-0.08443,7.2601,96.57,66.07,40.078,1.22,11,3,1.5,24,70,5.91,88
0.07182,124.647574,21.61605485,162.428719,149.9634033,20.09903635,15.33533842,89.67674002,102.7132381,109.1456622,118.7129344,110.5772927,113.4501433,115.1659374,124.1986571,122.7589316,123.6413488,111.2529457,119.2820055,93.73608328,1.955090965,2.534858424,1.997160668,1.351687653,1.238543036,1.120294975,1.558572575,1.092992388,1.370709574,1.53731323,-0.18058,-0.05526,4.8194,0.51268,-0.31122,0.65504,-0.12863,-0.65778,0.94897,-0.71199,-0.69245,0.70224,-0.12445,-0.43167,0.2155,-0.67284,0.2543,-0.44422,0.27231,-0.48126,-0.60353,-492.1606,21.427,19.7128,129.3907,163.0354,36.9669,49.238,132.1157,18.0163,139.1734,159.4067,32.8967,-59.8436,29.52,152.4886,28.6174,161.1534,157.2278,5.26,2.03,7.85,5.27,1.05,4.2,1682.09,488.9262,1700.13,572.7038,2814.17,330.73,4.81,1.45,3.51,6.17,1.49,7.78,4.05,1.5,3.14,45.1,12.5,63.7,72.6,31.5,740.84,750.4,79.913,1.86,-0.2582,-0.10974,0.0001,6.15816,0.61175,123.13,54.67,1.35,0.70235,2.3435,-0.24552,-0.02109,1.33336,1.406419107,1.406353917,1.554839652,66.6148,61.3157,61.3096,82.5072,-0.41996,-0.20006,-0.20008,251.49,233.49,13.863,1.37,2.3412478,1.6808921,1.2202094,12.5824,-0.20078,-0.03014,112.65,77.76,68.639,1.28,0.75582,4.5178,0.40418,0.371,-0.1898,-0.08443,7.2601,96.57,66.07,40.078,1.22,11,3,1.5,24,70,5.91,88
0.07182,124.647574,21.61605485,162.428719,149.9634033,20.09903635,15.33533842,89.67674002,102.7132381,109.1456622,118.7129344,110.5772927,113.4501433,115.1659374,124.1986571,122.7589316,123.6413488,111.2529457,119.2820055,93.73608328,1.955090965,2.534858424,1.997160668,1.351687653,1.238543036,1.120294975,1.558572575,1.092992388,1.370709574,1.53731323,-0.18058,-0.05526,4.8194,0.51268,-0.31122,0.65504,-0.12863,-0.65778,0.94897,-0.71199,-0.69245,0.70224,-0.12445,-0.43167,0.2155,-0.67284,0.2543,-0.44422,0.27231,-0.48126,-0.60353,-492.1606,21.427,19.7128,129.3907,163.0354,36.9669,49.238,132.1157,18.0163,139.1734,159.4067,32.8967,-59.8436,29.52,152.4886,28.6174,161.1534,157.2278,5.26,2.03,7.85,5.27,1.05,4.2,1682.09,488.9262,1700.13,572.7038,2814.17,330.73,4.81,1.45,3.51,6.17,1.49,7.78,4.05,1.5,3.14,45.1,12.5,63.7,72.6,31.5,740.84,750.4,79.913,1.86,-0.2582,-0.10974,0.0001,6.15816,0.61175,123.13,54.67,1.35,0.70235,2.3435,-0.24552,-0.02109,1.33336,1.406419107,1.406353917,1.554839652,66.6148,61.3157,61.3096,82.5072,-0.41996,-0.20006,-0.20008,251.49,233.49,13.863,1.37,6.1268961,1.9593751,1.4846016,9.2134,-0.1792,-0.02399,90.57,62.11,40.099,1.19,0.75582,4.5178,0.40418,0.371,-0.1898,-0.08443,7.2601,96.57,66.07,40.078,1.22,11,1,1.5,24,70,5.91,87
0.07182,124.647574,21.61605485,162.428719,149.9634033,20.09903635,15.33533842,89.67674002,102.7132381,109.1456622,118.7129344,110.5772927,113.4501433,115.1659374,124.1986571,122.7589316,123.6413488,111.2529457,119.2820055,93.73608328,1.955090965,2.534858424,1.997160668,1.351687653,1.238543036,1.120294975,1.558572575,1.092992388,1.370709574,1.53731323,-0.18058,-0.05526,4.8194,0.51268,-0.31122,0.65504,-0.12863,-0.65778,0.94897,-0.71199,-0.69245,0.70224,-0.12445,-0.43167,0.2155,-0.67284,0.2543,-0.44422,0.27231,-0.48126,-0.60353,-492.1606,21.427,19.7128,129.3907,163.0354,36.9669,49.238,132.1157,18.0163,139.1734,159.4067,32.8967,-59.8436,29.52,152.4886,28.6174,161.1534,157.2278,5.26,2.03,7.85,5.27,1.05,4.2,1682.09,488.9262,1700.13,572.7038,2814.17,330.73,4.81,1.45,3.51,6.17,1.49,7.78,4.05,1.5,3.14,45.1,12.5,63.7,72.6,31.5,740.84,750.4,79.913,1.86,-0.2582,-0.10974,0.0001,6.15816,0.61175,123.13,54.67,1.35,0.70235,2.3435,-0.24552,-0.02109,1.33336,1.406419107,1.406353917,1.554839652,66.6148,61.3157,61.3096,82.5072,-0.41996,-0.20006,-0.20008,251.49,233.49,13.863,1.37,6.1268961,1.9593751,1.4846016,9.2134,-0.1792,-0.02399,90.57,62.11,40.099,1.19,0.75582,4.5178,0.40418,0.371,-0.1898,-0.08443,7.2601,96.57,66.07,40.078,1.22,11,3,1.5,24,70,5.91,88
0.07182,124.647574,21.61605485,162.428719,149.9634033,20.09903635,15.33533842,89.67674002,102.7132381,109.1456622,118.7129344,110.5772927,113.4501433,115.1659374,124.1986571,122.7589316,123.6413488,111.2529457,119.2820055,93.73608328,1.955090965,2.534858424,1.997160668,1.351687653,1.238543036,1.120294975,1.558572575,1.092992388,1.370709574,1.53731323,-0.18058,-0.05526,4.8194,0.51268,-0.31122,0.65504,-0.12863,-0.65778,0.94897,-0.71199,-0.69245,0.70224,-0.12445,-0.43167,0.2155,-0.67284,0.2543,-0.44422,0.27231,-0.48126,-0.60353,-492.1606,21.427,19.7128,129.3907,163.0354,36.9669,49.238,132.1157,18.0163,139.1734,159.4067,32.8967,-59.8436,29.52,152.4886,28.6174,161.1534,157.2278,5.26,2.03,7.85,5.27,1.05,4.2,1682.09,488.9262,1700.13,572.7038,2814.17,330.73,4.81,1.45,3.51,6.17,1.49,7.78,4.05,1.5,3.14,45.1,12.5,63.7,72.6,31.5,740.84,750.4,79.913,1.86,-0.2582,-0.10974,0.0001,6.15816,0.61175,123.13,54.67,1.35,0.70235,2.3435,-0.24552,-0.02109,1.33336,1.406419107,1.406353917,1.554839652,66.6148,61.3157,61.3096,82.5072,-0.41996,-0.20006,-0.20008,251.49,233.49,13.863,1.37,6.1268961,1.9593751,1.4846016,9.2134,-0.1792,-0.02399,90.57,62.11,40.099,1.19,0.75582,4.5178,0.40418,0.371,-0.1898,-0.08443,7.2601,96.57,66.07,40.078,1.22,11,2,2,24,70,5.91,91
0.07182,124.647574,21.61605485,162.428719,149.9634033,20.09903635,15.33533842,89.67674002,102.7132381,109.1456622,118.7129344,110.5772927,113.4501433,115.1659374,124.1986571,122.7589316,123.6413488,111.2529457,119.2820055,93.73608328,1.955090965,2.534858424,1.997160668,1.351687653,1.238543036,1.120294975,1.558572575,1.092992388,1.370709574,1.53731323,-0.18058,-0.05526,4.8194,0.51268,-0.31122,0.65504,-0.12863,-0.65778,0.94897,-0.71199,-0.69245,0.70224,-0.12445,-0.43167,0.2155,-0.67284,0.2543,-0.44422,0.27231,-0.48126,-0.60353,-492.1606,21.427,19.7128,129.3907,163.0354,36.9669,49.238,132.1157,18.0163,139.1734,159.4067,32.8967,-59.8436,29.52,152.4886,28.6174,161.1534,157.2278,5.26,2.03,7.85,5.27,1.05,4.2,1682.09,488.9262,1700.13,572.7038,2814.17,330.73,4.81,1.45,3.51,6.17,1.49,7.78,4.05,1.5,3.14,45.1,12.5,63.7,72.6,31.5,740.84,750.4,79.913,1.86,-0.2582,-0.10974,0.0001,6.15816,0.61175,123.13,54.67,1.35,0.70235,2.3435,-0.24552,-0.02109,1.33336,1.406419107,1.406353917,1.554839652,66.6148,61.3157,61.3096,82.5072,-0.41996,-0.20006,-0.20008,251.49,233.49,13.863,1.37,6.1268961,1.9593751,1.4846016,9.2134,-0.1792,-0.02399,90.57,62.11,40.099,1.19,0.75582,4.5178,0.40418,0.371,-0.1898,-0.08443,7.2601,96.57,66.07,40.078,1.22,11,2,3,24,70,5.91,91
0.07174,133.1454532,22.88572277,164.8649443,149.2527601,18.96608404,10.83784453,87.06441027,104.8574857,99.82801266,118.468931,111.5952393,113.8696751,115.0234282,124.2244887,122.282447,122.7500207,111.7527688,118.5048981,96.72412157,1.954276107,2.623070763,1.995921603,1.34277518,1.243696727,1.12071659,1.55579941,1.094624434,1.372019842,1.537977783,-0.1931,-0.06556,4.4499,0.53393,-0.30516,0.66039,-0.12871,-0.65067,0.95017,-0.7435,-0.6824,0.70865,-0.1255,-0.43078,0.21246,-0.70902,0.25857,-0.44466,0.27556,-0.48268,-0.61319,-505.2791,23.6474,19.2813,129.023,157.6977,36.3746,68.8678,132.7665,15.8281,139.0393,159.4493,33.1707,-38.0447,29.3477,152.6428,28.5742,161.946,162.2055,5.25,2.08,7.72,5.27,1.05,4.2,1647.94,620.0538,1652.04,935.0863,2802.42,385.3405,4.81,1.45,3.51,6.17,1.49,7.78,4.05,1.5,3.14,45.1,12.5,63.7,72.6,31.5,739.96,749.86,79.769,1.85,-0.25816,-0.10977,0,6.15707,0.61171,123.13,54.675,1.35,0.70145,2.408,-0.24711,-0.02286,1.33383,1.406432464,1.406317826,1.553534443,67.0192,61.3224,61.3176,82.5207,-0.42252,-0.20032,-0.20036,251.5,233.5,13.883,1.37,6.0613836,1.9246289,1.4617137,9.8938,-0.20254,-0.02589,91.14,62.31,40.269,1.2,0.78947,4.4813483,0.3935912,0.3618136,-0.20209,-0.08394,7.9939,96.67,66.1,40.111,1.22,11,2,2,24,70,7.54,88
0.07179,131.7494033,23.62778711,164.3344889,148.9275909,18.65476076,10.78602391,86.96295511,103.8561768,101.2376387,118.2951739,111.6145699,113.7058576,115.0729507,124.1569921,122.3603671,122.5936792,111.7723663,119.1699014,96.24142413,1.94965337,2.627180504,1.998716455,1.343669618,1.244235265,1.120959589,1.556963721,1.094399741,1.370486993,1.537762851,-0.20145,-0.07396,5.1178,0.53089,-0.30731,0.6608,-0.12993,-0.65188,0.95002,-0.74498,-0.68345,0.70903,-0.12545,-0.43024,0.20923,-0.71039,0.26213,-0.4449,0.27716,-0.48229,-0.61309,-506.9978,23.0601,18.7143,129.1164,158.3651,36.2021,69.5215,132.9152,15.3546,139.0769,159.53,33.3633,-38.1399,29.3441,152.5933,28.5295,162.0042,160.6519,5.26,2.1,7.75,5.27,1.05,4.2,1643.05,737.6464,1649.63,877.7825,2798.73,462.0751,4.81,1.45,3.51,6.17,1.49,7.78,4.05,1.5,3.14,45.1,12.5,63.7,72.6,31.5,743.71,750.48,80.824,1.86,-0.25142,-0.10894,0,6.15622,0.6088,123.19,54.719,1.35,0.74198,2.5161,-0.24837,-0.02391,1.33396,1.406728243,1.40661246,1.554466949,66.9916,61.4462,61.4408,82.5485,-0.42364,-0.20273,-0.20279,251.54,233.53,13.899,1.37,6.0485758,1.9136106,1.4536996,10.069,-0.20468,-0.02361,91.3,62.37,40.317,1.2,0.79558,4.4456008,0.390774,0.3591999,-0.20082,-0.07915,8.2938,97.6,66.42,40.401,1.23,11,2,2,24,70,19.36,77
0.07188,124.2263216,22.1756402,161.148572,149.7349784,19.84458659,14.12506513,89.28634867,102.470188,109.43633,118.6171935,110.6681271,113.4375554,115.282838,124.0802337,122.9606819,123.5183566,111.3430594,119.2231956,93.64943428,1.954028545,2.543475345,1.998278883,1.352977689,1.23918895,1.120662198,1.558913745,1.093142205,1.368058919,1.537192717,-0.19123,-0.06561,5.499,0.50463,-0.31323,0.65597,-0.12958,-0.6582,0.95003,-0.71454,-0.69313,0.70332,-0.12474,-0.43277,0.21371,-0.67491,0.25833,-0.4446,0.27322,-0.48134,-0.6018,-489.5906,21.7846,19.3255,129.3637,163.4483,36.7776,50.3508,132.1147,17.4319,139.122,159.6377,32.9921,-59.4873,29.4844,152.48,28.5972,161.3014,155.4686,5.27,2.06,7.86,5.27,1.05,4.2,1675.92,522.2204,1697.76,618.4528,2811.39,394.5941,4.81,1.45,3.51,6.17,1.49,7.78,4.05,1.5,3.14,45.1,12.5,63.7,72.6,31.5,744.25,750.85,80.676,1.86,-0.25802,-0.10975,0,6.1584,0.61159,123.14,54.678,1.35,0.69933,2.4764,-0.2471,-0.02241,1.33402,1.406673044,1.406618023,1.555768304,66.5713,61.4323,61.4274,82.5261,-0.42147,-0.20314,-0.20319,251.5,233.51,13.887,1.37,6.0863326,1.9498707,1.4767706,9.4772,-0.18155,-0.02074,90.77,62.18,40.157,1.2,0.76602,4.5001774,0.4001288,0.3674773,-0.18766,-0.07783,7.5956,96.87,66.17,40.173,1.22,11,2,2,24,70,16.88,83
0.07182,124.647574,21.61605485,162.428719,149.9634033,20.09903635,15.33533842,89.67674002,102.7132381,109.1456622,118.7129344,110.5772927,113.4501433,115.1659374,124.1986571,122.7589316,123.6413488,111.2529457,119.2820055,93.73608328,1.955090965,2.534858424,1.997160668,1.351687653,1.238543036,1.120294975,1.558572575,1.092992388,1.370709574,1.53731323,-0.18058,-0.05526,4.8194,0.51268,-0.31122,0.65504,-0.12863,-0.65778,0.94897,-0.71199,-0.69245,0.70224,-0.12445,-0.43167,0.2155,-0.67284,0.2543,-0.44422,0.27231,-0.48126,-0.60353,-492.1606,21.427,19.7128,129.3907,163.0354,36.9669,49.238,132.1157,18.0163,139.1734,159.4067,32.8967,-59.8436,29.52,152.4886,28.6174,161.1534,157.2278,5.26,2.03,7.85,5.692915751,1.017589744,4.6803663,1682.09,488.9262,1700.13,572.7038,2814.17,330.73,4.81,1.45,3.51,6.17,1.49,7.78,4.05,1.5,3.14,45.1,12.5,63.7,72.6,31.5,740.84,750.4,79.913,1.86,-0.25612,-0.10781,0.0787,1.68435,0.19147,231.77,52.545,1.5,0.70254,2.3435,-0.24552,-0.02109,1.33336,1.406419107,1.406353917,1.554839652,66.6148,61.3157,61.3096,82.5072,-0.41996,-0.20006,-0.20008,251.49,233.49,13.863,1.37,6.1268961,1.9593751,1.4846016,9.2134,-0.1792,-0.02399,90.57,62.11,40.099,1.19,0.75582,4.5178,0.40418,0.371,-0.1898,-0.08443,7.2601,96.57,66.07,40.078,1.22,11,2,2.5,24,70,5.91,81
0.06857,126.4545957,22.02845759,163.3647921,149.9688778,20.22065159,15.68594967,89.69780437,103.879843,107.4175373,118.2564039,110.6259479,113.5554644,114.9101971,124.2367411,122.7070364,123.5161729,111.2948622,119.4470365,93.92474532,1.957180585,2.547359468,2.00112574,1.350588335,1.238848213,1.12060711,1.558535522,1.09346,1.37145,1.53731,-0.17874,-0.05117,2.6499,0.51201,-0.31395,0.65489,-0.12819,-0.65981,0.94846,-0.71316,-0.69238,0.7008,-0.12391,-0.43092,0.21463,-0.67753,0.25382,-0.44424,0.27117,-0.48117,-0.60423,-496.8141,22.4095,20.0205,129.5742,164.3152,37.1793,51.3024,138.0721,18.512,139.3146,159.1329,32.9071,-55.4649,29.491,152.2391,28.6494,160.8789,157.5525,5.26,2.03,7.85,5.729990604,1.010750438,4.715940436,1681.58,506.6271,1676.16,370.6851,2807.07,342.1,4.81,1.45,3.51,5.83,1.64,7.44,4.05,1.5,3.14,44.7,13.4,64,71.7,29.8,753.06,762.67,63.244,1.87,-0.2582,-0.10974,0.0001,6.15816,0.61175,123.13,54.67,1.35,0.70235,2.3435,-0.24552,-0.02109,1.33336,1.406419107,1.406353917,1.554839652,66.6148,61.3157,61.3096,82.5072,-0.41996,-0.20006,-0.20008,251.49,233.49,13.863,1.37,6.1268961,1.9593751,1.4846016,9.2134,-0.1792,-0.02399,90.57,62.11,40.099,1.19,0.75582,4.5178,0.40418,0.371,-0.1898,-0.08443,7.2601,96.57,66.07,40.078,1.22,11,2,2.5,24,70,5.91,85
0.12462,153.1600145,16.69231606,171.6539649,151.0343045,20.46048409,7.493128774,85.80500305,114.683723,80.64241121,118.0316947,111.0375179,116.0660727,115.4200566,124.7174814,123.1741172,122.8896835,112.1419818,115.6084554,93.86661496,1.968414789,2.458355416,1.989842071,1.342778405,1.240258756,1.120959181,1.547521275,1.099156727,1.372703222,1.539160417,-0.17939,-0.05497,4.5587,0.49083,-0.2996,0.65898,-0.13967,-0.64826,0.94517,-0.72792,-0.67438,0.70284,-0.12817,-0.43195,0.22134,-0.66042,0.26116,-0.44751,0.26517,-0.46377,-0.60556,-487.5422,17.5867,17.744,131.1335,165.9796,39.6828,72.9967,126.6121,18.0122,138.0331,157.9205,32.8096,-68.7963,29.0196,153.8449,28.267,154.1152,148.6559,4.29,1.57,4.35,5.27,1.05,4.2,1689.72,567.3683,1708.25,695.7268,2776.77,384.9786,5.51,1.45,4.5,6.17,1.49,7.78,4.05,1.5,3.14,35.7,2.2,53.8,57.1,29.5,597.69,566.82,79.208,1.8,-0.2582,-0.10974,0.0001,6.15816,0.61175,123.13,54.67,1.35,0.70235,2.3435,-0.24552,-0.02109,1.33336,1.406419107,1.406353917,1.554839652,66.6148,61.3157,61.3096,82.5072,-0.41996,-0.20006,-0.20008,251.49,233.49,13.863,1.37,6.1268961,1.9593751,1.4846016,9.2134,-0.1792,-0.02399,90.57,62.11,40.099,1.19,0.75582,4.5178,0.40418,0.371,-0.1898,-0.08443,7.2601,96.57,66.07,40.078,1.22,11,2,1.5,24,70,5.91,79
0.1067,153.2985996,14.94363222,171.4679139,150.5803206,19.89139632,8.947968621,85.90838154,116.5267058,80.5074507,118.7141398,110.9820597,116.2929085,115.5190211,124.5671399,123.179199,123.1445105,112.029741,115.313001,93.49865441,1.969379216,2.442686926,1.984765332,1.343305199,1.240332057,1.120996737,1.547634827,1.099095435,1.371929247,1.539716802,-0.18023,-0.05481,5.6867,0.49662,-0.29817,0.66033,-0.13967,-0.64948,0.94601,-0.72716,-0.67366,0.7028,-0.12789,-0.43248,0.22154,-0.66015,0.26081,-0.44748,0.26572,-0.46418,-0.60475,-487.9231,21.826,17.4617,131.2663,166.0226,39.4986,71.8818,126.4221,18.0021,137.9182,157.9211,32.8217,-68.8562,28.9368,153.9053,28.1812,154.1501,148.0652,4.29,1.57,4.36,5.27,1.05,4.2,1688.66,554.1403,1708.23,702.933,2781.68,388.3736,6.54,1.5,7.31,6.17,1.49,7.78,4.05,1.5,3.14,36.1,2.4,54,55.9,32,639.81,629.96,78.202,1.8,-0.2582,-0.10974,0.0001,6.15816,0.61175,123.13,54.67,1.35,0.70235,2.3435,-0.24552,-0.02109,1.33336,1.406419107,1.406353917,1.554839652,66.6148,61.3157,61.3096,82.5072,-0.41996,-0.20006,-0.20008,251.49,233.49,13.863,1.37,6.1268961,1.9593751,1.4846016,9.2134,-0.1792,-0.02399,90.57,62.11,40.099,1.19,0.75582,4.5178,0.40418,0.371,-0.1898,-0.08443,7.2601,96.57,66.07,40.078,1.22,11,2,1.5,24,70,5.91,78
0.11722,158.5566128,14.74293841,173.1601528,150.0620867,19.51138313,4.461715388,85.05816734,111.9285531,78.94026617,118.6737181,109.1624731,115.9654259,113.2042948,124.8308511,123.0717666,122.7190291,112.2215155,116.0708814,95.58468324,1.964404633,2.494705,1.988419646,1.341458644,1.23949532,1.121263865,1.535393772,1.098956004,1.375816151,1.539224456,-0.17921,-0.05505,5.759,0.49626,-0.29809,0.66156,-0.15677,-0.64411,0.94272,-0.7281,-0.6713,0.70296,-0.12744,-0.4272,0.21754,-0.66473,0.2599,-0.44938,0.26445,-0.10579,-0.60996,-495.6111,18.1197,20.5701,130.7242,169.6769,40.1767,78.4764,128.8889,18.3758,137.8193,156.6525,33.0576,-63.213,28.8346,152.9852,28.722,128.6241,147.7219,6.09,1.54,4.82,5.27,1.05,4.2,1694.49,572.9903,1707.77,646.7688,2772.91,417.3666,4.81,1.45,3.51,6.17,1.49,7.78,4.05,1.5,3.14,34.3,2.3,56.2,50.2,28.5,611.78,576.21,86.425,1.83,-0.2582,-0.10974,0.0001,6.15816,0.61175,123.13,54.67,1.35,0.70235,2.3435,-0.24552,-0.02109,1.33336,1.406419107,1.406353917,1.554839652,66.6148,61.3157,61.3096,82.5072,-0.41996,-0.20006,-0.20008,251.49,233.49,13.863,1.37,6.1268961,1.9593751,1.4846016,9.2134,-0.1792,-0.02399,90.57,62.11,40.099,1.19,0.75582,4.5178,0.40418,0.371,-0.1898,-0.08443,7.2601,96.57,66.07,40.078,1.22,11,2,1.5,24,70,5.91,76
0.09369,156.3789072,18.64982533,173.3734262,145.6223051,14.54931963,2.530940643,82.45060777,109.9079693,78.81559585,118.0990022,110.6876341,115.6692703,114.0280103,124.9290896,123.2132526,122.5941334,112.6090581,115.6585548,93.06961779,1.956013875,2.452332967,1.993949695,1.342004813,1.238898322,1.122247075,1.563175325,1.097252622,1.375173308,1.539524932,-0.17998,-0.05596,5.5288,0.51856,-0.29458,0.65335,-0.12809,-0.64729,0.94464,-0.72617,-0.67384,0.70544,-0.12766,-0.4326,0.21934,-0.6632,0.26682,-0.44639,0.26852,-0.48582,-0.60898,-502.9137,17.6152,18.427,130.5241,168.0423,40.1858,78.0883,127.6787,17.6706,139.9315,160.5175,33.7785,-66.0937,30.2037,153.5782,28.075,153.5757,147.7507,5.01,1.56,7.16,5.27,1.05,4.2,1697.22,525.6317,1705.44,1171.2572,2775.87,369.5038,4.81,1.45,3.51,6.17,1.49,7.78,4.05,1.5,3.14,39,3.3,58.1,66.5,28.1,637.77,627.27,79.393,1.8,-0.2582,-0.10974,0.0001,6.15816,0.61175,123.13,54.67,1.35,0.70235,2.3435,-0.24552,-0.02109,1.33336,1.406419107,1.406353917,1.554839652,66.6148,61.3157,61.3096,82.5072,-0.41996,-0.20006,-0.20008,251.49,233.49,13.863,1.37,6.1268961,1.9593751,1.4846016,9.2134,-0.1792,-0.02399,90.57,62.11,40.099,1.19,0.75582,4.5178,0.40418,0.371,-0.1898,-0.08443,7.2601,96.57,66.07,40.078,1.22,11,2,1.5,24,70,5.91,82
0.0858,156.2257068,14.89844446,175.0219823,144.1495152,12.62570106,3.332503414,81.60893585,107.0563157,80.91265084,119.7633871,109.6448852,116.198709,112.9055144,124.7043514,123.4166766,122.2115318,113.0072269,116.9981651,92.70910685,1.947505363,2.41258798,1.994218579,1.345523179,1.237766115,1.122247986,1.557215599,1.095867945,1.371084992,1.538740353,-0.18237,-0.05868,4.3895,0.49957,-0.29439,0.6472,-0.12513,-0.65627,0.94994,-0.72392,-0.67619,0.70504,-0.12752,-0.42587,0.21758,-0.663,0.25824,-0.44888,0.27407,-0.48762,-0.60703,-495.9979,18.009,21.6951,130.9872,170.8916,39.8868,73.8775,128.5184,16.9196,139.947,158.5917,33.4848,-65.9268,29.0801,154.2447,28.1447,162.21,150.3416,4.62,1.54,6.72,5.27,1.05,4.2,1697.52,520.7211,1707.33,754.8869,2778.95,430.3774,4.81,1.45,3.51,6.17,1.49,7.78,4.05,1.5,3.14,39.9,3.4,61.8,65.4,29.3,612.86,598.16,79.803,1.79,-0.2582,-0.10974,0.0001,6.15816,0.61175,123.13,54.67,1.35,0.70235,2.3435,-0.24552,-0.02109,1.33336,1.406419107,1.406353917,1.554839652,66.6148,61.3157,61.3096,82.5072,-0.41996,-0.20006,-0.20008,251.49,233.49,13.863,1.37,6.1268961,1.9593751,1.4846016,9.2134,-0.1792,-0.02399,90.57,62.11,40.099,1.19,0.75582,4.5178,0.40418,0.371,-0.1898,-0.08443,7.2601,96.57,66.07,40.078,1.22,11,2,1.5,24,70,5.91,75
0.09288,124.0254889,19.18052272,168.1683186,148.7653115,18.23300377,25.76463194,84.51772613,104.9289519,112.86208,118.8412002,108.3800002,114.2075975,114.9136154,123.6105734,123.2109664,122.5555975,112.0082203,116.0752435,92.61091606,1.975248963,2.4855392,1.992749364,1.358349557,1.238423756,1.120437354,1.570686653,1.092558976,1.36210696,1.537570736,-0.18379,-0.05555,3.1503,0.50745,-0.29793,0.65176,-0.12255,-0.65681,0.94964,-0.71039,-0.67557,0.70344,-0.12651,-0.43744,0.22107,-0.66441,0.26089,-0.44677,0.27861,-0.28167,-0.59682,-514.2617,16.9119,18.8515,123.7421,175.4695,36.5027,47.754,130.6405,18.2316,138.8383,159.9792,32.6545,-65.5041,29.3258,152.7436,27.6247,135.4129,142.5498,5.11,2.26,6,5.27,1.05,4.2,1681.22,336.1956,1703.77,1046.077,2784.64,331.1156,4.81,1.45,3.51,6.17,1.49,7.78,4.05,1.5,3.14,38.9,10.7,53.4,62.8,28.5,670.98,659.51,79.928,1.83,-0.2582,-0.10974,0.0001,6.15816,0.61175,123.13,54.67,1.35,0.70235,2.3435,-0.24552,-0.02109,1.33336,1.406419107,1.406353917,1.554839652,66.6148,61.3157,61.3096,82.5072,-0.41996,-0.20006,-0.20008,251.49,233.49,13.863,1.37,6.1268961,1.9593751,1.4846016,9.2134,-0.1792,-0.02399,90.57,62.11,40.099,1.19,0.75582,4.5178,0.40418,0.371,-0.1898,-0.08443,7.2601,96.57,66.07,40.078,1.22,11,2,1.5,24,70,5.91,78
0.08962,155.2111068,19.44070231,171.4400617,146.5009095,14.8999356,3.804906857,86.50245045,104.9780535,79.45694532,118.9575204,110.215033,115.0282368,115.3864421,125.4068646,122.9690557,123.7351302,112.8602561,118.9106068,93.5813947,1.855454121,2.464681278,1.996402307,1.342559483,1.238045879,1.127173268,1.562413106,1.096509024,1.377884744,1.53825359,-0.17763,-0.05347,5.54,0.50445,-0.29968,0.65727,-0.12844,-0.65257,0.94369,-0.72759,-0.6773,0.7041,-0.12692,-0.42212,0.21276,-0.67105,0.26862,-0.44414,0.26717,-0.48193,-0.6103,-454.6319,16.5644,20.4803,130.3505,162.3337,40.4546,77.7446,127.8832,17.1023,140.3766,158.6687,34.2771,-60.8287,29.7687,152.0735,28.4731,155.2555,149.3279,5.07,1.56,7.26,5.27,1.05,4.2,1706.69,598.0497,1698.32,651.4805,2677.53,338.4639,4.81,1.45,3.51,6.17,1.49,7.78,4.05,1.5,3.14,41.6,3.9,59.6,72.3,30.7,661.15,658.73,78.564,1.81,-0.2582,-0.10974,0.0001,6.15816,0.61175,123.13,54.67,1.35,0.70235,2.3435,-0.24552,-0.02109,1.33336,1.406419107,1.406353917,1.554839652,66.6148,61.3157,61.3096,82.5072,-0.41996,-0.20006,-0.20008,251.49,233.49,13.863,1.37,6.1268961,1.9593751,1.4846016,9.2134,-0.1792,-0.02399,90.57,62.11,40.099,1.19,0.75582,4.5178,0.40418,0.371,-0.1898,-0.08443,7.2601,96.57,66.07,40.078,1.22,11,2,1.5,24,70,5.91,80
0.08391,155.6287509,19.20701661,171.3826615,146.1932401,14.45510526,3.566000003,86.1810355,105.1590139,79.55778998,118.8176377,109.8724391,115.0662711,115.2483621,125.3727084,123.0052192,123.7553414,112.8815061,118.7119374,93.31068097,1.85436387,2.456127248,1.996600429,1.342600775,1.238124336,1.127412642,1.562595657,1.096436345,1.377577148,1.538177436,-0.17814,-0.05394,7.0891,0.50357,-0.30046,0.65726,-0.12809,-0.65249,0.94398,-0.72741,-0.67722,0.7041,-0.12687,-0.42183,0.21312,-0.67058,0.26876,-0.44355,0.26717,-0.48176,-0.61009,-455.1261,17.4432,20.2912,130.4175,162.6949,40.4438,77.5502,128.3327,17.1478,140.4304,158.7102,34.3494,-60.633,29.7905,151.9202,28.4608,154.8731,149.2353,5.06,1.56,7.84,5.27,1.05,4.2,1698.41,645.8705,1706.6,600.244,2675.39,343.9272,4.81,1.45,3.51,6.17,1.49,7.78,4.05,1.5,3.14,41.7,3.8,59.5,72.9,30.7,665.83,663.24,78.3,1.81,-0.2582,-0.10974,0.0001,6.15816,0.61175,123.13,54.67,1.35,0.70235,2.3435,-0.24552,-0.02109,1.33336,1.406419107,1.406353917,1.554839652,66.6148,61.3157,61.3096,82.5072,-0.41996,-0.20006,-0.20008,251.49,233.49,13.863,1.37,6.1268961,1.9593751,1.4846016,9.2134,-0.1792,-0.02399,90.57,62.11,40.099,1.19,0.75582,4.5178,0.40418,0.371,-0.1898,-0.08443,7.2601,96.57,66.07,40.078,1.22,11,2,1.5,24,70,5.91,81
0.05923,155.7020436,16.71275366,171.6910274,145.933487,12.83058431,0.215124497,80.64044877,105.7660136,81.84186591,118.9602929,108.7919549,115.580137,113.9230284,125.3808492,122.9422244,122.8054705,113.3117845,114.8372358,92.39603648,1.853604867,2.419517255,1.99959178,1.345832375,1.237497048,1.129044714,1.556397162,1.096185775,1.375387624,1.536768779,-0.17851,-0.05286,4.7069,0.50373,-0.2936,0.6485,-0.12615,-0.64882,0.94454,-0.72787,-0.6684,0.70606,-0.12779,-0.42749,0.22124,-0.6605,0.27116,-0.44417,0.26785,-0.47604,-0.60872,-466.9002,11.0945,19.0334,128.9804,166.8747,40.4535,74.0921,123.5155,16.3693,140.0176,159.6596,34.1291,-69.9307,29.5763,154.2693,28.1219,152.0935,150.9975,7.23,1.56,9.48,5.27,1.05,4.2,1698.76,398.2279,1711.89,173.0244,2655.56,298.6917,4.81,1.45,3.51,6.17,1.49,7.78,4.05,1.5,3.14,39.4,2.7,53.3,71.4,30.1,765.04,768.59,83.923,1.89,-0.2582,-0.10974,0.0001,6.15816,0.61175,123.13,54.67,1.35,0.70235,2.3435,-0.24552,-0.02109,1.33336,1.406419107,1.406353917,1.554839652,66.6148,61.3157,61.3096,82.5072,-0.41996,-0.20006,-0.20008,251.49,233.49,13.863,1.37,6.1268961,1.9593751,1.4846016,9.2134,-0.1792,-0.02399,90.57,62.11,40.099,1.19,0.75582,4.5178,0.40418,0.371,-0.1898,-0.08443,7.2601,96.57,66.07,40.078,1.22,11,2,1.5,24,70,5.91,76
0.13825,154.0330802,16.34879364,172.8704466,151.0460202,20.34509371,7.982974921,85.34971983,114.8387746,79.79442911,118.180294,111.0803366,116.2014395,115.367686,125.8466214,121.0951475,122.7882168,112.22016,115.403338,94.01193758,1.966421543,2.469348255,1.99040131,1.33996174,1.237700205,1.12134039,1.547794287,1.099210008,1.377837392,1.539195232,-0.18041,-0.05579,4.3718,0.49109,-0.29878,0.65894,-0.14005,-0.65126,0.93881,-0.72183,-0.67416,0.70292,-0.12825,-0.43164,0.22144,-0.66008,0.2616,-0.44757,0.26532,-0.46441,-0.5873,-489.0736,17.0944,17.7909,131.671,170.012,39.8055,74.8972,127.0757,17.9887,138.0157,157.9498,32.8563,-68.7839,29.0366,153.8771,28.3398,154.2847,197.2944,4.29,1.57,4.35,4.04,1.28,3.07,1715.06,686.4847,1705.98,491.6781,2776.8,393.1376,5.51,1.45,4.5,6.17,1.49,7.78,4.05,1.5,3.14,35.1,2,51.6,56.9,29.6,542.18,512.19,81.795,1.75,-0.2582,-0.10974,0.0001,6.15816,0.61175,123.13,54.67,1.35,0.70235,2.3435,-0.24552,-0.02109,1.33336,1.406419107,1.406353917,1.554839652,66.6148,61.3157,61.3096,82.5072,-0.41996,-0.20006,-0.20008,251.49,233.49,13.863,1.37,6.1268961,1.9593751,1.4846016,9.2134,-0.1792,-0.02399,90.57,62.11,40.099,1.19,0.75582,4.5178,0.40418,0.371,-0.1898,-0.08443,7.2601,96.57,66.07,40.078,1.22,11,2,1.5,24,70,5.91,75
0.07182,124.647574,21.61605485,162.428719,149.9634033,20.09903635,15.33533842,89.67674002,102.7132381,109.1456622,118.7129344,110.5772927,113.4501433,115.1659374,124.1986571,122.7589316,123.6413488,111.2529457,119.2820055,93.73608328,1.955090965,2.534858424,1.997160668,1.351687653,1.238543036,1.120294975,1.558572575,1.092992388,1.370709574,1.53731323,-0.18058,-0.05526,4.8194,0.51268,-0.31122,0.65504,-0.12863,-0.65778,0.94897,-0.71199,-0.69245,0.70224,-0.12445,-0.43167,0.2155,-0.67284,0.2543,-0.44422,0.27231,-0.48126,-0.60353,-492.1606,21.427,19.7128,129.3907,163.0354,36.9669,49.238,132.1157,18.0163,139.1734,159.4067,32.8967,-59.8436,29.52,152.4886,28.6174,161.1534,157.2278,5.26,2.03,7.85,5.27,1.05,4.2,1682.09,488.9262,1700.13,572.7038,2814.17,330.73,4.81,1.45,3.51,6.17,1.49,7.78,4.05,1.5,3.14,45.1,12.5,63.7,72.6,31.5,740.84,750.4,79.913,1.86,-0.2582,-0.10974,0.0001,6.15816,0.61175,123.13,54.67,1.35,0.70235,1.15223,-0.25443,-0.05436,4.3093,1.406029791,1.406432386,1.559021459,60.8212,61.115,61.2353,82.7487,-0.38986,-0.20234,-0.20275,304.47,281.7,33.924,1.47,6.1268961,1.9593751,1.4846016,9.2134,-0.1792,-0.02399,90.57,62.11,40.099,1.19,0.75582,4.5178,0.40418,0.371,-0.1898,-0.08443,7.2601,96.57,66.07,40.078,1.22,11,2,2.5,24,70,5.91,89
0.07182,124.647574,21.61605485,162.428719,149.9634033,20.09903635,15.33533842,89.67674002,102.7132381,109.1456622,118.7129344,110.5772927,113.4501433,115.1659374,124.1986571,122.7589316,123.6413488,111.2529457,119.2820055,93.73608328,1.955090965,2.534858424,1.997160668,1.351687653,1.238543036,1.120294975,1.558572575,1.092992388,1.370709574,1.53731323,-0.18058,-0.05526,4.8194,0.51268,-0.31122,0.65504,-0.12863,-0.65778,0.94897,-0.71199,-0.69245,0.70224,-0.12445,-0.43167,0.2155,-0.67284,0.2543,-0.44422,0.27231,-0.48126,-0.60353,-492.1606,21.427,19.7128,129.3907,163.0354,36.9669,49.238,132.1157,18.0163,139.1734,159.4067,32.8967,-59.8436,29.52,152.4886,28.6174,161.1534,157.2278,5.26,2.03,7.85,5.27,1.05,4.2,1682.09,488.9262,1700.13,572.7038,2814.17,330.73,4.81,1.45,3.51,6.17,1.49,7.78,4.05,1.5,3.14,45.1,12.5,63.7,72.6,31.5,740.84,750.4,79.913,1.86,-0.2582,-0.10974,0.0001,6.15816,0.61175,123.13,54.67,1.35,0.70235,1.31825,-0.23487,-0.01817,1.7217,1.405306337,1.40799005,1.555714194,69.5252,61.2087,61.5723,82.7658,-0.42911,-0.19351,-0.19483,271.95,252.03,13.795,1.41,6.1268961,1.9593751,1.4846016,9.2134,-0.1792,-0.02399,90.57,62.11,40.099,1.19,0.75582,4.5178,0.40418,0.371,-0.1898,-0.08443,7.2601,96.57,66.07,40.078,1.22,11,2,2.5,24,70,5.91,92
0.07182,124.647574,21.61605485,162.428719,149.9634033,20.09903635,15.33533842,89.67674002,102.7132381,109.1456622,118.7129344,110.5772927,113.4501433,115.1659374,124.1986571,122.7589316,123.6413488,111.2529457,119.2820055,93.73608328,1.955090965,2.534858424,1.997160668,1.351687653,1.238543036,1.120294975,1.558572575,1.092992388,1.370709574,1.53731323,-0.18058,-0.05526,4.8194,0.51268,-0.31122,0.65504,-0.12863,-0.65778,0.94897,-0.71199,-0.69245,0.70224,-0.12445,-0.43167,0.2155,-0.67284,0.2543,-0.44422,0.27231,-0.48126,-0.60353,-492.1606,21.427,19.7128,129.3907,163.0354,36.9669,49.238,132.1157,18.0163,139.1734,159.4067,32.8967,-59.8436,29.52,152.4886,28.6174,161.1534,157.2278,5.26,2.03,7.85,5.27,1.05,4.2,1682.09,488.9262,1700.13,572.7038,2814.17,330.73,4.81,1.45,3.51,6.17,1.49,7.78,4.05,1.5,3.14,45.1,12.5,63.7,72.6,31.5,740.84,750.4,79.913,1.86,-0.2582,-0.10974,0.0001,6.15816,0.61175,123.13,54.67,1.35,0.70235,1.07662,-0.22223,-0.03762,2.2188,1.40635006,1.406390024,1.556875082,67.4294,60.6682,60.6302,82.7859,-0.41728,-0.19435,-0.1943,331.97,317.4,13.754,1.48,6.1268961,1.9593751,1.4846016,9.2134,-0.1792,-0.02399,90.57,62.11,40.099,1.19,0.75582,4.5178,0.40418,0.371,-0.1898,-0.08443,7.2601,96.57,66.07,40.078,1.22,11,2,2.5,24,70,5.91,91
0.07182,124.647574,21.61605485,162.428719,149.9634033,20.09903635,15.33533842,89.67674002,102.7132381,109.1456622,118.7129344,110.5772927,113.4501433,115.1659374,124.1986571,122.7589316,123.6413488,111.2529457,119.2820055,93.73608328,1.955090965,2.534858424,1.997160668,1.351687653,1.238543036,1.120294975,1.558572575,1.092992388,1.370709574,1.53731323,-0.18058,-0.05526,4.8194,0.51268,-0.31122,0.65504,-0.12863,-0.65778,0.94897,-0.71199,-0.69245,0.70224,-0.12445,-0.43167,0.2155,-0.67284,0.2543,-0.44422,0.27231,-0.48126,-0.60353,-492.1606,21.427,19.7128,129.3907,163.0354,36.9669,49.238,132.1157,18.0163,139.1734,159.4067,32.8967,-59.8436,29.52,152.4886,28.6174,161.1534,157.2278,5.26,2.03,7.85,5.27,1.05,4.2,1682.09,488.9262,1700.13,572.7038,2814.17,330.73,4.81,1.45,3.51,6.17,1.49,7.78,4.05,1.5,3.14,45.1,12.5,63.7,72.6,31.5,740.84,750.4,79.913,1.86,-0.2582,-0.10974,0.0001,6.15816,0.61175,123.13,54.67,1.35,0.70235,1.07271,-0.25789,-0.03979,5.8181,1.405612013,1.40618199,1.561791296,61.9608,60.9081,60.9481,83.0668,-0.39318,-0.1927,-0.19294,287.73,265.85,13.773,1.44,6.1268961,1.9593751,1.4846016,9.2134,-0.1792,-0.02399,90.57,62.11,40.099,1.19,0.75582,4.5178,0.40418,0.371,-0.1898,-0.08443,7.2601,96.57,66.07,40.078,1.22,11,2,2.5,24,70,5.91,89
0.07182,124.647574,21.61605485,162.428719,149.9634033,20.09903635,15.33533842,89.67674002,102.7132381,109.1456622,118.7129344,110.5772927,113.4501433,115.1659374,124.1986571,122.7589316,123.6413488,111.2529457,119.2820055,93.73608328,1.955090965,2.534858424,1.997160668,1.351687653,1.238543036,1.120294975,1.558572575,1.092992388,1.370709574,1.53731323,-0.18058,-0.05526,4.8194,0.51268,-0.31122,0.65504,-0.12863,-0.65778,0.94897,-0.71199,-0.69245,0.70224,-0.12445,-0.43167,0.2155,-0.67284,0.2543,-0.44422,0.27231,-0.48126,-0.60353,-492.1606,21.427,19.7128,129.3907,163.0354,36.9669,49.238,132.1157,18.0163,139.1734,159.4067,32.8967,-59.8436,29.52,152.4886,28.6174,161.1534,157.2278,5.26,2.03,7.85,5.27,1.05,4.2,1682.09,488.9262,1700.13,572.7038,2814.17,330.73,4.81,1.45,3.51,6.17,1.49,7.78,4.05,1.5,3.14,45.1,12.5,63.7,72.6,31.5,740.84,750.4,79.913,1.86,-0.2582,-0.10974,0.0001,6.15816,0.61175,123.13,54.67,1.35,0.70235,1.32478,-0.24126,-0.01945,4.0375,1.407264988,1.407300163,1.556584302,70.4088,58.7388,58.8249,83.0792,-0.43232,-0.18383,-0.18392,257.69,238.34,13.782,1.39,6.1268961,1.9593751,1.4846016,9.2134,-0.1792,-0.02399,90.57,62.11,40.099,1.19,0.75582,4.5178,0.40418,0.371,-0.1898,-0.08443,7.2601,96.57,66.07,40.078,1.22,11,2,2.5,24,70,5.91,90
0.07182,124.647574,21.61605485,162.428719,149.9634033,20.09903635,15.33533842,89.67674002,102.7132381,109.1456622,118.7129344,110.5772927,113.4501433,115.1659374,124.1986571,122.7589316,123.6413488,111.2529457,119.2820055,93.73608328,1.955090965,2.534858424,1.997160668,1.351687653,1.238543036,1.120294975,1.558572575,1.092992388,1.370709574,1.53731323,-0.18058,-0.05526,4.8194,0.51268,-0.31122,0.65504,-0.12863,-0.65778,0.94897,-0.71199,-0.69245,0.70224,-0.12445,-0.43167,0.2155,-0.67284,0.2543,-0.44422,0.27231,-0.48126,-0.60353,-492.1606,21.427,19.7128,129.3907,163.0354,36.9669,49.238,132.1157,18.0163,139.1734,159.4067,32.8967,-59.8436,29.52,152.4886,28.6174,161.1534,157.2278,5.26,2.03,7.85,5.27,1.05,4.2,1682.09,488.9262,1700.13,572.7038,2814.17,330.73,4.81,1.45,3.51,6.17,1.49,7.78,4.05,1.5,3.14,45.1,12.5,63.7,72.6,31.5,740.84,750.4,79.913,1.86,-0.2582,-0.10974,0.0001,6.15816,0.61175,123.13,54.67,1.35,0.70235,1.11749,-0.24102,-0.02746,3.7112,1.405880376,1.406642956,1.560197718,63.4675,74.1571,65.8936,83.111,-0.39741,-0.26997,-0.21742,257.7,238.36,13.767,1.39,6.1268961,1.9593751,1.4846016,9.2134,-0.1792,-0.02399,90.57,62.11,40.099,1.19,0.75582,4.5178,0.40418,0.371,-0.1898,-0.08443,7.2601,96.57,66.07,40.078,1.22,11,2,2.5,24,70,5.91,87
0.07182,124.647574,21.61605485,162.428719,149.9634033,20.09903635,15.33533842,89.67674002,102.7132381,109.1456622,118.7129344,110.5772927,113.4501433,115.1659374,124.1986571,122.7589316,123.6413488,111.2529457,119.2820055,93.73608328,1.955090965,2.534858424,1.997160668,1.351687653,1.238543036,1.120294975,1.558572575,1.092992388,1.370709574,1.53731323,-0.18058,-0.05526,4.8194,0.51268,-0.31122,0.65504,-0.12863,-0.65778,0.94897,-0.71199,-0.69245,0.70224,-0.12445,-0.43167,0.2155,-0.67284,0.2543,-0.44422,0.27231,-0.48126,-0.60353,-492.1606,21.427,19.7128,129.3907,163.0354,36.9669,49.238,132.1157,18.0163,139.1734,159.4067,32.8967,-59.8436,29.52,152.4886,28.6174,161.1534,157.2278,5.26,2.03,7.85,5.27,1.05,4.2,1682.09,488.9262,1700.13,572.7038,2814.17,330.73,4.81,1.45,3.51,6.17,1.49,7.78,4.05,1.5,3.14,45.1,12.5,63.7,72.6,31.5,740.84,750.4,79.913,1.86,-0.2582,-0.10974,0.0001,6.15816,0.61175,123.13,54.67,1.35,0.70235,1.32488,-0.24413,-0.02983,4.965,1.405753327,1.405794913,1.558908092,67.3271,59.7291,59.8399,83.1045,-0.41387,-0.18444,-0.18455,267.75,247.48,13.78,1.4,6.1268961,1.9593751,1.4846016,9.2134,-0.1792,-0.02399,90.57,62.11,40.099,1.19,0.75582,4.5178,0.40418,0.371,-0.1898,-0.08443,7.2601,96.57,66.07,40.078,1.22,11,2,2.5,24,70,5.91,89
0.07182,124.647574,21.61605485,162.428719,149.9634033,20.09903635,15.33533842,89.67674002,102.7132381,109.1456622,118.7129344,110.5772927,113.4501433,115.1659374,124.1986571,122.7589316,123.6413488,111.2529457,119.2820055,93.73608328,1.955090965,2.534858424,1.997160668,1.351687653,1.238543036,1.120294975,1.558572575,1.092992388,1.370709574,1.53731323,-0.18058,-0.05526,4.8194,0.51268,-0.31122,0.65504,-0.12863,-0.65778,0.94897,-0.71199,-0.69245,0.70224,-0.12445,-0.43167,0.2155,-0.67284,0.2543,-0.44422,0.27231,-0.48126,-0.60353,-492.1606,21.427,19.7128,129.3907,163.0354,36.9669,49.238,132.1157,18.0163,139.1734,159.4067,32.8967,-59.8436,29.52,152.4886,28.6174,161.1534,157.2278,5.26,2.03,7.85,5.27,1.05,4.2,1682.09,488.9262,1700.13,572.7038,2814.17,330.73,4.81,1.45,3.51,6.17,1.49,7.78,4.05,1.5,3.14,45.1,12.5,63.7,72.6,31.5,740.84,750.4,79.913,1.86,-0.2582,-0.10974,0.0001,6.15816,0.61175,123.13,54.67,1.35,0.70235,1.32494,-0.23985,-0.03028,4.8115,1.405723214,1.405771886,1.558967957,66.7075,177.3261,178.7225,90.5958,-0.41292,-0.18427,-0.18438,272.27,251.92,13.778,1.41,6.1268961,1.9593751,1.4846016,9.2134,-0.1792,-0.02399,90.57,62.11,40.099,1.19,0.75582,4.5178,0.40418,0.371,-0.1898,-0.08443,7.2601,96.57,66.07,40.078,1.22,11,2,2.5,24,70,5.91,86
0.07182,124.647574,21.61605485,162.428719,149.9634033,20.09903635,15.33533842,89.67674002,102.7132381,109.1456622,118.7129344,110.5772927,113.4501433,115.1659374,124.1986571,122.7589316,123.6413488,111.2529457,119.2820055,93.73608328,1.955090965,2.534858424,1.997160668,1.351687653,1.238543036,1.120294975,1.558572575,1.092992388,1.370709574,1.53731323,-0.18058,-0.05526,4.8194,0.51268,-0.31122,0.65504,-0.12863,-0.65778,0.94897,-0.71199,-0.69245,0.70224,-0.12445,-0.43167,0.2155,-0.67284,0.2543,-0.44422,0.27231,-0.48126,-0.60353,-492.1606,21.427,19.7128,129.3907,163.0354,36.9669,49.238,132.1157,18.0163,139.1734,159.4067,32.8967,-59.8436,29.52,152.4886,28.6174,161.1534,157.2278,5.26,2.03,7.85,5.27,1.05,4.2,1682.09,488.9262,1700.13,572.7038,2814.17,330.73,4.81,1.45,3.51,6.17,1.49,7.78,4.05,1.5,3.14,45.1,12.5,63.7,72.6,31.5,740.84,750.4,79.913,1.86,-0.2582,-0.10974,0.0001,6.15816,0.61175,123.13,54.67,1.35,0.70235,1.26871,-0.21607,-0.01037,1.997,1.404375678,1.410706259,1.551738261,75.2782,59.1214,60.1811,82.7472,-0.45294,-0.17923,-0.18772,281.69,260.84,20.744,1.43,6.1268961,1.9593751,1.4846016,9.2134,-0.1792,-0.02399,90.57,62.11,40.099,1.19,0.75582,4.5178,0.40418,0.371,-0.1898,-0.08443,7.2601,96.57,66.07,40.078,1.22,11,2,2.5,24,70,5.91,90
0.07182,124.647574,21.61605485,162.428719,149.9634033,20.09903635,15.33533842,89.67674002,102.7132381,109.1456622,118.7129344,110.5772927,113.4501433,115.1659374,124.1986571,122.7589316,123.6413488,111.2529457,119.2820055,93.73608328,1.955090965,2.534858424,1.997160668,1.351687653,1.238543036,1.120294975,1.558572575,1.092992388,1.370709574,1.53731323,-0.18058,-0.05526,4.8194,0.51268,-0.31122,0.65504,-0.12863,-0.65778,0.94897,-0.71199,-0.69245,0.70224,-0.12445,-0.43167,0.2155,-0.67284,0.2543,-0.44422,0.27231,-0.48126,-0.60353,-492.1606,21.427,19.7128,129.3907,163.0354,36.9669,49.238,132.1157,18.0163,139.1734,159.4067,32.8967,-59.8436,29.52,152.4886,28.6174,161.1534,157.2278,5.26,2.03,7.85,5.27,1.05,4.2,1682.09,488.9262,1700.13,572.7038,2814.17,330.73,4.81,1.45,3.51,6.17,1.49,7.78,4.05,1.5,3.14,45.1,12.5,63.7,72.6,31.5,740.84,750.4,79.913,1.86,-0.2582,-0.10974,0.0001,6.15816,0.61175,123.13,54.67,1.35,0.70235,1.12542,-0.21869,-0.02668,5.7521,1.407562341,1.405324489,1.554567117,71.6851,59.9604,60.1242,82.9887,-0.4342,-0.18651,-0.18403,306.89,284.85,39.036,1.47,6.1268961,1.9593751,1.4846016,9.2134,-0.1792,-0.02399,90.57,62.11,40.099,1.19,0.75582,4.5178,0.40418,0.371,-0.1898,-0.08443,7.2601,96.57,66.07,40.078,1.22,11,2,2.5,24,70,5.91,93
0.07182,124.647574,21.61605485,162.428719,149.9634033,20.09903635,15.33533842,89.67674002,102.7132381,109.1456622,118.7129344,110.5772927,113.4501433,115.1659374,124.1986571,122.7589316,123.6413488,111.2529457,119.2820055,93.73608328,1.955090965,2.534858424,1.997160668,1.351687653,1.238543036,1.120294975,1.558572575,1.092992388,1.370709574,1.53731323,-0.18058,-0.05526,4.8194,0.51268,-0.31122,0.65504,-0.12863,-0.65778,0.94897,-0.71199,-0.69245,0.70224,-0.12445,-0.43167,0.2155,-0.67284,0.2543,-0.44422,0.27231,-0.48126,-0.60353,-492.1606,21.427,19.7128,129.3907,163.0354,36.9669,49.238,132.1157,18.0163,139.1734,159.4067,32.8967,-59.8436,29.52,152.4886,28.6174,161.1534,157.2278,5.26,2.03,7.85,5.27,1.05,4.2,1682.09,488.9262,1700.13,572.7038,2814.17,330.73,4.81,1.45,3.51,6.17,1.49,7.78,4.05,1.5,3.14,45.1,12.5,63.7,72.6,31.5,740.84,750.4,79.913,1.86,-0.2582,-0.10974,0.0001,6.15816,0.61175,123.13,54.67,1.35,0.70235,0.75526,-0.21207,-0.04375,2.5912,1.440768666,1.390108494,1.564349381,68.174,58.611,58.9213,81.943,-0.3934,-0.02743,-0.19112,295.34,284.69,12.014,1.41,6.1268961,1.9593751,1.4846016,9.2134,-0.1792,-0.02399,90.57,62.11,40.099,1.19,0.75582,4.5178,0.40418,0.371,-0.1898,-0.08443,7.2601,96.57,66.07,40.078,1.22,11,2,2.5,24,70,5.91,90
0.07182,124.647574,21.61605485,162.428719,149.9634033,20.09903635,15.33533842,89.67674002,102.7132381,109.1456622,118.7129344,110.5772927,113.4501433,115.1659374,124.1986571,122.7589316,123.6413488,111.2529457,119.2820055,93.73608328,1.955090965,2.534858424,1.997160668,1.351687653,1.238543036,1.120294975,1.558572575,1.092992388,1.370709574,1.53731323,-0.18058,-0.05526,4.8194,0.51268,-0.31122,0.65504,-0.12863,-0.65778,0.94897,-0.71199,-0.69245,0.70224,-0.12445,-0.43167,0.2155,-0.67284,0.2543,-0.44422,0.27231,-0.48126,-0.60353,-492.1606,21.427,19.7128,129.3907,163.0354,36.9669,49.238,132.1157,18.0163,139.1734,159.4067,32.8967,-59.8436,29.52,152.4886,28.6174,161.1534,157.2278,5.26,2.03,7.85,5.27,1.05,4.2,1682.09,488.9262,1700.13,572.7038,2814.17,330.73,4.81,1.45,3.51,6.17,1.49,7.78,4.05,1.5,3.14,45.1,12.5,63.7,72.6,31.5,740.84,750.4,79.913,1.86,-0.2582,-0.10974,0.0001,6.15816,0.61175,123.13,54.67,1.35,0.70235,1.32551,-0.24552,-0.021,2.3619,1.407019912,1.406973138,1.557973802,66.4045,61.4074,61.3299,82.8078,-0.41806,-0.20062,-0.20058,251.49,233.49,13.863,1.37,6.1268961,1.9593751,1.4846016,9.2134,-0.1792,-0.02399,90.57,62.11,40.099,1.19,0.75582,4.5178,0.40418,0.371,-0.1898,-0.08443,7.2601,96.57,66.07,40.078,1.22,11,2,2.5,24,70,5.91,92
