harel-coffee/ML-for-Asymmetric-C-sp3-H-Reaction-auto/Data/Unbound-model/LC/Unbound-LC-Real-Synthetic.csv
Rx-L,Ry-L,DA1-2-3-4-L,DA2-3-4-5-L,DA2-3-4-9-L,DA3-4-5-6-L,DA1-2-3-8-L,DA1-2-3-7-L,DA7-3-4-5-L,BA1-2-3-L,BA2-3-4-L,BA3-4-5-L,BA3-4-9-L,BA8-3-4-L,BA8-3-2-L,BA8-3-7-L,BA4-5-10-L,BA2-1-11-L,BL1-2-L,BL2-3-L,BL3-4-L,BL5-6-L,BL4-9-L,BL5-10-L,BL1-11-L,BL3-8-L,BL3-7-L,HOMO-L,LUMO-L,DM-L,q1-L,q2-L,q3-L,q4-L,q5-L,q6-L,q7-L,q8-L,q9-L,q10-L,q11-L,NMR1-L,NMR2-L,NMR3-L,NMR4-L,NMR5-L,NMR6-L,NMR7-L,NMR8-L,NMR9-L,NMR10-L,NMR11-L,L-R14-L,B1-R14-L,B5-R14-L,L-R15-L,B1-R15-L,B5-R15-L,L-Y-L,B1-Y-L,B5-Y-L,Area-L,Volume-L,PSA-L,Ovality-L,VF(C5=O6)-L,VI(C5=O6)-L,VF(N4-H9)-L,VI(N4-H9)-L,L-X-S,B1-X-S,B5-X-S,L-R16-S,B1-R16-S,B5-R16-S,BL1-2-S,BL4-5-S,BL4-7-S,BL3-8-S,BL1-12-S,BA1-2-3-S,BA3-4-5-S,BA4-3-8-S,BA2-1-12-S,BA3-2-6-S,DA2-3-4-5-S,DA12-1-2-6-S,HOMO-S,LUMO-S,Rx-S,NMR1-S,NMR2-S,NMR3-S,NMR4-S,NMR5-S,NMR6-S,NMR7-S,NMR8-S,NMR12-S,q1-S,q2-S,q3-S,q4-S,q6-S,Volume-S,PSA-S,HOMO-MC,LUMO-MC,DM-MC,Rx-MC,Rz-MC,Area-MC,Volume-MC,PSA-MC,q(Pd)-MC,DM-CP,HOMO-CP,LUMO-CP,Rx-CP,BL1-2-CP,BL1-6-CP,BL1-7-CP,NMR1-CP,NMR2-CP,NMR6-CP,q1-CP,q2-CP,q6-CP,Area-CP,PSA-CP,Rx-B,Ry-B,DM-B,HOMO-B,LUMO-B,Area-B,PSA-B,q(Ag)-A,Rx-A,Ry-A,HOMO-A,LUMO-A,DM-A,Volume-A,PSA-A,Ovality-A,Eqv(L),Eqv(B),Eqv(A),Time(H)   ,T (?C),DC(Solvent),%ee
0.61372,0.37626,52.50789736,153.5995863,41.52444859,168.974522,176.9273051,65.60623899,34.92646015,114.411404,109.8064381,127.8622276,116.4602398,111.8377247,111.3468691,106.7538236,117.6993188,110.0134957,1.462916319,1.534862923,1.460339684,1.240730572,1.013829747,1.515018755,1.460929422,1.555417686,1.09194176,-0.21035,-0.00055,6.3075,-0.50783,-0.27844,-0.06414,-0.65633,0.70576,-0.71502,0.26303,-0.48618,0.44155,-0.79237,-0.48919,226.6273,132.0102,139.7446,132.5649,25.8668,-22.6782,27.814,151.5359,26.8882,171.3076,146.2776,4.83,1.56,6.01,2.97,1.5,2.03,4.06,1.85,3.12,280.24,255.4,27.106,1.44,1707.42,766.7088,3592,45.8129,2.71,1.03,1.9,2,1,1,1.351174925,1.085133033,1.08555943,1.083884879,0.973923382,113.5258349,116.8721897,117.8205465,107.9087492,124.1597732,0.074099367,0.124329119,-0.27076,0.00755,7.44741,160.8934,22.3288,175.346,179.9288,30.4754,-35.2914,30.5619,30.2363,25.2953,-0.73802,0.8378,-0.38396,-0.4531,-0.66544,91.14,33.999,-0.25089,-0.10865,0,6.15737,0.558,161.71,123.19,54.714,0.74907,2.9017,-0.23066,-0.03108,5.49795,1.39245,1.394990094,2.163257702,61.5662,61.5965,61.6134,-0.20895,-0.25249,-0.25274,195.67,20.079,6.0219779,1.9126339,10.1662,-0.20732,-0.02413,91.37,40.332,0.79875,4.46774,0.38892,-0.203,-0.07991,8.3156,66.44,40.427,1.23,20,1.5,1.5,16,80,16.777,94
0.49036,0.3622,51.38632829,153.5640964,40.05260692,170.1129997,175.4910144,66.94060442,34.43705744,114.6317904,109.6945814,127.9084036,116.5019938,111.8365065,111.0127147,106.7886146,117.6201783,111.3076453,1.463290731,1.535957073,1.460308864,1.240658498,1.013756496,1.514915603,1.471790556,1.556265327,1.091851483,-0.21002,-0.00025,6.306,-0.51401,-0.27928,-0.06215,-0.65594,0.70564,-0.71541,0.26223,-0.48634,0.44176,-0.79232,-0.26787,214.3416,137.4498,140.2748,132.5248,26.2897,-21.4378,27.7743,151.6842,27.0219,171.2792,138.9,4.8,1.56,6.02,2.97,1.5,2.03,4.09,1.86,4.42,298.89,273.59,27.141,1.47,1709.45,768.6284,3591.78,46.4532,2.71,1.03,1.9,2,1,1,1.351174925,1.085133033,1.08555943,1.083884879,0.973923382,113.5258349,116.8721897,117.8205465,107.9087492,124.1597732,0.074099367,0.124329119,-0.27076,0.00755,7.44741,160.8934,22.3288,175.346,179.9288,30.4754,-35.2914,30.5619,30.2363,25.2953,-0.73802,0.8378,-0.38396,-0.4531,-0.66544,91.14,33.999,-0.25089,-0.10865,0,6.15737,0.558,161.71,123.19,54.714,0.74907,2.9017,-0.23066,-0.03108,5.49795,1.39245,1.394990094,2.163257702,61.5662,61.5965,61.6134,-0.20895,-0.25249,-0.25274,195.67,20.079,6.0219779,1.9126339,10.1662,-0.20732,-0.02413,91.37,40.332,0.79875,4.46774,0.38892,-0.203,-0.07991,8.3156,66.44,40.427,1.23,20,1.5,1.5,16,80,16.777,90
0.50474,0.3389,19.39565269,140.1416346,26.40353257,172.6662211,105.9721009,136.7686783,23.56625796,114.2186045,108.3230921,129.296913,112.6413604,112.2082111,113.5645266,106.260268,117.6780756,114.8563003,1.471875413,1.571025228,1.453425442,1.243164473,1.01848405,1.514764529,1.470926526,1.552999754,1.09360606,-0.20535,-0.00096,6.561,-0.54867,-0.27454,-0.06491,-0.66326,0.70575,-0.72409,0.26026,-0.48664,0.44596,-0.79103,-0.26081,218.1333,141.7928,139.5442,128.1,27.4991,-11.2302,27.97,148.9632,24.6173,170.282,142.8233,4.87,1.56,5.99,2.97,1.5,2.03,4.89,1.85,4.44,310.67,292.01,22.358,1.46,1692.82,893.8039,3491.78,290.047,2.71,1.03,1.9,2,1,1,1.351174925,1.085133033,1.08555943,1.083884879,0.973923382,113.5258349,116.8721897,117.8205465,107.9087492,124.1597732,0.074099367,0.124329119,-0.27076,0.00755,7.44741,160.8934,22.3288,175.346,179.9288,30.4754,-35.2914,30.5619,30.2363,25.2953,-0.73802,0.8378,-0.38396,-0.4531,-0.66544,91.14,33.999,-0.25089,-0.10865,0,6.15737,0.558,161.71,123.19,54.714,0.74907,2.9017,-0.23066,-0.03108,5.49795,1.39245,1.394990094,2.163257702,61.5662,61.5965,61.6134,-0.20895,-0.25249,-0.25274,195.67,20.079,6.0219779,1.9126339,10.1662,-0.20732,-0.02413,91.37,40.332,0.79875,4.46774,0.38892,-0.203,-0.07991,8.3156,66.44,40.427,1.23,20,1.5,1.5,16,80,16.777,74
0.39548,0.24004,54.93625093,158.3106246,34.05529697,170.6357995,178.9268394,63.41517853,39.18757776,115.0179622,109.2798987,128.4239772,116.4698468,112.1483458,110.6906626,106.9625136,117.8920184,112.6462363,1.458503664,1.539314328,1.460412688,1.241416377,1.013514361,1.514526421,1.480561339,1.555718966,1.091952005,-0.19413,0.00008,6.4445,-0.53772,-0.27471,-0.05951,-0.65369,0.7052,-0.71795,0.25711,-0.48731,0.44017,-0.78842,-0.05399,205.1391,136.1126,137.1755,130.7072,25.6275,-20.0564,27.7738,152.3839,26.8087,170.5698,131.7371,4.85,1.56,6,2.97,1.5,2.03,5.05,1.95,4.49,349.54,328.46,26.343,1.52,1706.33,764.0264,3593.27,46.1742,2.71,1.03,1.9,2,1,1,1.351174925,1.085133033,1.08555943,1.083884879,0.973923382,113.5258349,116.8721897,117.8205465,107.9087492,124.1597732,0.074099367,0.124329119,-0.27076,0.00755,7.44741,160.8934,22.3288,175.346,179.9288,30.4754,-35.2914,30.5619,30.2363,25.2953,-0.73802,0.8378,-0.38396,-0.4531,-0.66544,91.14,33.999,-0.25089,-0.10865,0,6.15737,0.558,161.71,123.19,54.714,0.74907,2.9017,-0.23066,-0.03108,5.49795,1.39245,1.394990094,2.163257702,61.5662,61.5965,61.6134,-0.20895,-0.25249,-0.25274,195.67,20.079,6.0219779,1.9126339,10.1662,-0.20732,-0.02413,91.37,40.332,0.79875,4.46774,0.38892,-0.203,-0.07991,8.3156,66.44,40.427,1.23,20,1.5,1.5,16,80,16.777,12
0.5391,0.38841,38.92538155,152.4185456,35.29956624,172.3376933,88.30415977,154.9862434,37.83298085,114.6656836,107.3191855,129.1993809,113.9512274,113.1882364,115.4335838,105.5759249,117.7446869,121.4113168,1.459752278,1.550004447,1.457545082,1.241849157,1.016305802,1.514924784,1.488069357,1.552340316,1.094800723,-0.21476,-0.0011,6.8151,-0.55109,-0.27092,-0.06542,-0.66363,0.7052,-0.71875,0.26535,-0.48886,0.44532,-0.79069,-0.24642,221.7854,131.3857,138.0824,133.4078,26.8742,-18.2933,28.0485,149.9188,24.8354,170.7979,134.7233,5.17,1.58,5.82,2.97,1.5,2.03,4.33,1.69,3.8,279.09,264.36,25.399,1.4,1698.87,864.1612,3536.53,181.9976,2.71,1.03,1.9,2,1,1,1.351174925,1.085133033,1.08555943,1.083884879,0.973923382,113.5258349,116.8721897,117.8205465,107.9087492,124.1597732,0.074099367,0.124329119,-0.27076,0.00755,7.44741,160.8934,22.3288,175.346,179.9288,30.4754,-35.2914,30.5619,30.2363,25.2953,-0.73802,0.8378,-0.38396,-0.4531,-0.66544,91.14,33.999,-0.25089,-0.10865,0,6.15737,0.558,161.71,123.19,54.714,0.74907,2.9017,-0.23066,-0.03108,5.49795,1.39245,1.394990094,2.163257702,61.5662,61.5965,61.6134,-0.20895,-0.25249,-0.25274,195.67,20.079,6.0219779,1.9126339,10.1662,-0.20732,-0.02413,91.37,40.332,0.79875,4.46774,0.38892,-0.203,-0.07991,8.3156,66.44,40.427,1.23,20,1.5,1.5,16,80,16.777,66
0.4213,0.3896,43.08684189,153.2738668,47.71892859,165.7149939,82.69589882,159.7843544,37.40434857,112.6185593,108.7676562,127.8329085,114.272406,111.8562333,114.2889406,106.4326912,117.6336785,114.1715253,1.475306258,1.546083551,1.459723585,1.240581316,1.015130876,1.514582243,1.47337859,1.553786956,1.093639583,-0.20573,0.00065,6.5621,-0.54459,-0.27475,-0.0616,-0.66582,0.70744,-0.71344,0.26528,-0.48899,0.44211,-0.79221,-0.26987,204.439,133.7989,136.8521,135.039,25.4092,-25.6215,28.1634,148.5347,25.6901,170.6172,133.6178,4.92,1.57,5.96,2.97,1.5,2.03,5.12,1.82,3.48,296.81,280.94,24.515,1.43,1705.03,795.5656,3568.09,91.49,2.71,1.03,1.9,2,1,1,1.351174925,1.085133033,1.08555943,1.083884879,0.973923382,113.5258349,116.8721897,117.8205465,107.9087492,124.1597732,0.074099367,0.124329119,-0.27076,0.00755,7.44741,160.8934,22.3288,175.346,179.9288,30.4754,-35.2914,30.5619,30.2363,25.2953,-0.73802,0.8378,-0.38396,-0.4531,-0.66544,91.14,33.999,-0.25089,-0.10865,0,6.15737,0.558,161.71,123.19,54.714,0.74907,2.9017,-0.23066,-0.03108,5.49795,1.39245,1.394990094,2.163257702,61.5662,61.5965,61.6134,-0.20895,-0.25249,-0.25274,195.67,20.079,6.0219779,1.9126339,10.1662,-0.20732,-0.02413,91.37,40.332,0.79875,4.46774,0.38892,-0.203,-0.07991,8.3156,66.44,40.427,1.23,20,1.5,1.5,16,80,16.777,76
0.85772,0.70823,52.32062683,144.7492585,32.96324163,179.7203816,176.9836299,64.6564259,27.2633247,114.1450703,108.946997,128.47041,117.1146479,111.4487558,113.2958544,106.7565916,117.7995503,109.7751591,1.466481618,1.536709653,1.463981887,1.241410952,1.013184795,1.515689517,1.461220613,1.555134729,1.093012158,-0.21033,0.03262,6.4699,-0.50903,-0.27841,-0.07074,-0.65308,0.70531,-0.72054,0.25641,-0.25845,0.44069,-0.79191,-0.48927,228.8933,136.3337,135.5048,129.3357,27.2164,-15.0092,28.0803,155.6334,26.4657,171.4823,145.9167,4.17,1.92,3.19,2.97,1.5,2.03,3.38,1.82,3.12,239.63,207.93,28.064,1.41,1707.13,814.8182,3595.84,54.0496,2.71,1.03,1.9,2,1,1,1.351174925,1.085133033,1.08555943,1.083884879,0.973923382,113.5258349,116.8721897,117.8205465,107.9087492,124.1597732,0.074099367,0.124329119,-0.27076,0.00755,7.44741,160.8934,22.3288,175.346,179.9288,30.4754,-35.2914,30.5619,30.2363,25.2953,-0.73802,0.8378,-0.38396,-0.4531,-0.66544,91.14,33.999,-0.25089,-0.10865,0,6.15737,0.558,161.71,123.19,54.714,0.74907,2.9017,-0.23066,-0.03108,5.49795,1.39245,1.394990094,2.163257702,61.5662,61.5965,61.6134,-0.20895,-0.25249,-0.25274,195.67,20.079,6.0219779,1.9126339,10.1662,-0.20732,-0.02413,91.37,40.332,0.79875,4.46774,0.38892,-0.203,-0.07991,8.3156,66.44,40.427,1.23,20,1.5,1.5,16,80,16.777,92
0.84861,0.56328,48.01146929,139.1559811,46.10328208,173.4994128,173.5360454,69.17161404,21.7945141,114.375431,109.6502654,131.1119126,115.5992128,112.8059518,111.3077291,107.0771258,120.0025035,109.9975166,1.463434661,1.539220816,1.46069721,1.243184393,1.014053167,1.514361991,1.460681562,1.555624897,1.091352255,-0.21014,0.03231,6.3427,-0.50819,-0.2722,-0.068,-0.64692,0.70463,-0.73112,0.25629,-0.26006,0.44021,-0.78725,-0.48896,226.1658,131.162,133.1182,127.7206,26.6019,1.3957,28.0405,154.8032,26.6901,174.1614,146.2299,4.15,1.89,4.35,2.97,1.5,2.03,3.38,1.82,3.12,253.96,226.19,26.582,1.41,1694.19,816.6672,3585,48.6359,2.71,1.03,1.9,2,1,1,1.351174925,1.085133033,1.08555943,1.083884879,0.973923382,113.5258349,116.8721897,117.8205465,107.9087492,124.1597732,0.074099367,0.124329119,-0.27076,0.00755,7.44741,160.8934,22.3288,175.346,179.9288,30.4754,-35.2914,30.5619,30.2363,25.2953,-0.73802,0.8378,-0.38396,-0.4531,-0.66544,91.14,33.999,-0.25089,-0.10865,0,6.15737,0.558,161.71,123.19,54.714,0.74907,2.9017,-0.23066,-0.03108,5.49795,1.39245,1.394990094,2.163257702,61.5662,61.5965,61.6134,-0.20895,-0.25249,-0.25274,195.67,20.079,6.0219779,1.9126339,10.1662,-0.20732,-0.02413,91.37,40.332,0.79875,4.46774,0.38892,-0.203,-0.07991,8.3156,66.44,40.427,1.23,20,1.5,1.5,16,80,16.777,92
0.76397,0.66535,46.73780102,129.4277504,43.65145419,176.5747347,172.1192834,70.11444292,12.43577133,114.0063656,108.9960956,130.9291386,115.7861401,111.746553,113.6971609,106.3452913,119.9217152,109.7914588,1.466439176,1.542085265,1.462779913,1.242491501,1.01404261,1.514766141,1.460736646,1.568215884,1.091371393,-0.20965,0.03245,6.3299,-0.50836,-0.27478,-0.06648,-0.6468,0.70526,-0.72837,0.25655,-0.05361,0.44071,-0.78717,-0.48879,227.587,134.637,130.2271,128.5135,26.1692,-1.2653,28.2048,153.0073,26.6008,173.4336,146.0896,4.14,2.76,3.2,2.97,1.5,2.03,3.38,1.82,3.12,250.4,225.16,27.413,1.4,1696.56,835.6136,3585.08,51.0143,2.71,1.03,1.9,2,1,1,1.351174925,1.085133033,1.08555943,1.083884879,0.973923382,113.5258349,116.8721897,117.8205465,107.9087492,124.1597732,0.074099367,0.124329119,-0.27076,0.00755,7.44741,160.8934,22.3288,175.346,179.9288,30.4754,-35.2914,30.5619,30.2363,25.2953,-0.73802,0.8378,-0.38396,-0.4531,-0.66544,91.14,33.999,-0.25089,-0.10865,0,6.15737,0.558,161.71,123.19,54.714,0.74907,2.9017,-0.23066,-0.03108,5.49795,1.39245,1.394990094,2.163257702,61.5662,61.5965,61.6134,-0.20895,-0.25249,-0.25274,195.67,20.079,6.0219779,1.9126339,10.1662,-0.20732,-0.02413,91.37,40.332,0.79875,4.46774,0.38892,-0.203,-0.07991,8.3156,66.44,40.427,1.23,20,1.5,1.5,16,80,16.777,88
0.80795,0.60247,55.38898328,148.9896221,46.6935386,169.5869922,71.84395007,170.392908,35.73842961,113.8173551,107.4912837,128.4429035,114.7191492,113.261994,115.1168852,107.1030729,117.5338039,112.4746218,1.473898398,1.542737891,1.462941537,1.24183718,1.015031368,1.514355703,1.460905883,1.548548091,1.094542332,-0.20714,0.03034,6.4646,-0.53806,-0.26934,-0.06845,-0.66122,0.70486,-0.7193,0.26331,-0.47868,0.43923,-0.79124,-0.48432,235.1497,128.1887,138.6769,135.4406,25.7784,-16.8572,28.4027,149.9613,25.6676,171.0233,145.9041,5.2,1.58,4.23,2.97,1.5,2.03,3.38,1.82,3.12,253.24,226.43,25.914,1.41,1702.39,823.8244,3569.89,85.567,2.71,1.03,1.9,2,1,1,1.351174925,1.085133033,1.08555943,1.083884879,0.973923382,113.5258349,116.8721897,117.8205465,107.9087492,124.1597732,0.074099367,0.124329119,-0.27076,0.00755,7.44741,160.8934,22.3288,175.346,179.9288,30.4754,-35.2914,30.5619,30.2363,25.2953,-0.73802,0.8378,-0.38396,-0.4531,-0.66544,91.14,33.999,-0.25089,-0.10865,0,6.15737,0.558,161.71,123.19,54.714,0.74907,2.9017,-0.23066,-0.03108,5.49795,1.39245,1.394990094,2.163257702,61.5662,61.5965,61.6134,-0.20895,-0.25249,-0.25274,195.67,20.079,6.0219779,1.9126339,10.1662,-0.20732,-0.02413,91.37,40.332,0.79875,4.46774,0.38892,-0.203,-0.07991,8.3156,66.44,40.427,1.23,20,1.5,1.5,16,80,16.777,92
0.62029,0.52182,51.2706582,156.2987007,34.5143733,173.9188692,75.58144328,167.012617,42.72103295,113.461533,107.0250513,127.9633283,114.6733485,113.8804039,113.9968315,107.2265546,117.1145851,112.5973969,1.467664372,1.550496504,1.455493667,1.239673923,1.01589632,1.514081126,1.464714,1.528714998,1.095417215,-0.21536,-0.00334,6.5346,-0.53181,-0.26294,-0.08561,-0.66125,0.70901,-0.7125,0.27665,-0.05936,0.44382,-0.79328,-0.48852,230.0022,128.1657,134.6219,137.5614,25.5374,-19.678,27.0777,51.7545,25.1441,171.0758,148.4558,6.37,1.71,3.22,2.97,1.5,2.03,3.38,1.82,3.12,257.82,236.6,26.241,1.39,1709.8,866.661,3550.43,151.6402,2.71,1.03,1.9,2,1,1,1.351174925,1.085133033,1.08555943,1.083884879,0.973923382,113.5258349,116.8721897,117.8205465,107.9087492,124.1597732,0.074099367,0.124329119,-0.27076,0.00755,7.44741,160.8934,22.3288,175.346,179.9288,30.4754,-35.2914,30.5619,30.2363,25.2953,-0.73802,0.8378,-0.38396,-0.4531,-0.66544,91.14,33.999,-0.25089,-0.10865,0,6.15737,0.558,161.71,123.19,54.714,0.74907,2.9017,-0.23066,-0.03108,5.49795,1.39245,1.394990094,2.163257702,61.5662,61.5965,61.6134,-0.20895,-0.25249,-0.25274,195.67,20.079,6.0219779,1.9126339,10.1662,-0.20732,-0.02413,91.37,40.332,0.79875,4.46774,0.38892,-0.203,-0.07991,8.3156,66.44,40.427,1.23,20,1.5,1.5,16,80,16.777,56
0.57156,0.39808,46.55413736,151.3801827,52.00479276,166.0451084,80.86717944,162.2778404,36.80275836,113.9604689,109.2623581,127.7419073,114.7888093,112.5249363,114.7244971,106.2644262,117.7704303,112.7629665,1.473587406,1.544821494,1.463929461,1.240296383,1.014169312,1.514697346,1.460178357,1.545526034,1.094390234,-0.20724,0.00092,6.6896,-0.53653,-0.27186,-0.07314,-0.6638,0.70854,-0.71375,0.26405,-0.46757,0.43975,-0.7919,-0.48386,233.3835,131.3806,136.9056,129.502,26.0792,-25.0376,28.354,152.9502,27.1095,171.4087,145.5538,4.3,1.58,7.26,2.97,1.5,2.03,3.38,1.82,3.12,292.67,273.57,23.239,1.44,1708.9,715.0143,3582.51,83.0362,2.71,1.03,1.9,2,1,1,1.351174925,1.085133033,1.08555943,1.083884879,0.973923382,113.5258349,116.8721897,117.8205465,107.9087492,124.1597732,0.074099367,0.124329119,-0.27076,0.00755,7.44741,160.8934,22.3288,175.346,179.9288,30.4754,-35.2914,30.5619,30.2363,25.2953,-0.73802,0.8378,-0.38396,-0.4531,-0.66544,91.14,33.999,-0.25089,-0.10865,0,6.15737,0.558,161.71,123.19,54.714,0.74907,2.9017,-0.23066,-0.03108,5.49795,1.39245,1.394990094,2.163257702,61.5662,61.5965,61.6134,-0.20895,-0.25249,-0.25274,195.67,20.079,6.0219779,1.9126339,10.1662,-0.20732,-0.02413,91.37,40.332,0.79875,4.46774,0.38892,-0.203,-0.07991,8.3156,66.44,40.427,1.23,20,1.5,1.5,16,80,16.777,82
0.56371,0.22811,51.85401867,154.2206976,42.06757362,168.4895289,176.1070416,66.272521,35.49224731,114.6516931,109.9352367,127.6981575,116.3884671,111.6826701,111.261691,106.9136398,117.6941034,109.9110461,1.463457131,1.534660815,1.460667626,1.240717892,1.01387309,1.515133229,1.460613604,1.555546651,1.092189358,-0.20987,-0.00143,4.5513,-0.50812,-0.27829,-0.065,-0.65638,0.70568,-0.71528,0.26248,-0.48415,0.44146,-0.79224,-0.48905,226.7886,132.0799,139.498,132.9138,25.7735,-22.7468,27.879,152.4536,26.9454,171.3094,146.3479,5.35,1.56,8.18,2.97,1.5,2.03,3.38,1.82,3.12,309.71,282.55,34.153,1.49,1708.1,755.0645,3588.81,44.8857,2.71,1.03,1.9,2,1,1,1.351174925,1.085133033,1.08555943,1.083884879,0.973923382,113.5258349,116.8721897,117.8205465,107.9087492,124.1597732,0.074099367,0.124329119,-0.27076,0.00755,7.44741,160.8934,22.3288,175.346,179.9288,30.4754,-35.2914,30.5619,30.2363,25.2953,-0.73802,0.8378,-0.38396,-0.4531,-0.66544,91.14,33.999,-0.25089,-0.10865,0,6.15737,0.558,161.71,123.19,54.714,0.74907,2.9017,-0.23066,-0.03108,5.49795,1.39245,1.394990094,2.163257702,61.5662,61.5965,61.6134,-0.20895,-0.25249,-0.25274,195.67,20.079,6.0219779,1.9126339,10.1662,-0.20732,-0.02413,91.37,40.332,0.79875,4.46774,0.38892,-0.203,-0.07991,8.3156,66.44,40.427,1.23,20,1.5,1.5,16,80,16.777,86
0.51267,0.37333,37.7861084,150.4018474,50.29511564,168.072405,88.22212851,155.0078388,34.16329793,114.1302873,109.9661239,127.915988,114.7219768,111.3016103,114.2803266,105.9636153,117.5945954,112.445686,1.473352237,1.551341791,1.458127807,1.238853784,1.01476081,1.514288838,1.463149146,1.554453224,1.09287847,-0.20837,-0.00946,5.7803,-0.5333,-0.27467,-0.06089,-0.66785,0.71106,-0.71054,0.2698,-0.49657,0.44135,-0.7929,-0.4853,232.5377,132.9506,137.646,136.7547,25.4147,-27.224,28.0293,160.2449,26.1116,170.9906,146.5792,5.01,1.55,5.93,2.97,1.5,2.03,3.38,1.82,3.12,280.51,264.01,24.521,1.41,1712.93,777.1209,3578.01,70.2368,2.71,1.03,1.9,2,1,1,1.351174925,1.085133033,1.08555943,1.083884879,0.973923382,113.5258349,116.8721897,117.8205465,107.9087492,124.1597732,0.074099367,0.124329119,-0.27076,0.00755,7.44741,160.8934,22.3288,175.346,179.9288,30.4754,-35.2914,30.5619,30.2363,25.2953,-0.73802,0.8378,-0.38396,-0.4531,-0.66544,91.14,33.999,-0.25089,-0.10865,0,6.15737,0.558,161.71,123.19,54.714,0.74907,2.9017,-0.23066,-0.03108,5.49795,1.39245,1.394990094,2.163257702,61.5662,61.5965,61.6134,-0.20895,-0.25249,-0.25274,195.67,20.079,6.0219779,1.9126339,10.1662,-0.20732,-0.02413,91.37,40.332,0.79875,4.46774,0.38892,-0.203,-0.07991,8.3156,66.44,40.427,1.23,20,1.5,1.5,16,80,16.777,92
0.26096,0.14187,53.35928266,142.6006031,28.56513635,173.3058531,179.8988846,64.12776112,24.6763273,114.5444672,108.8090494,128.5896692,116.7116603,113.7540361,111.8826342,105.3673274,117.5856122,109.4771484,1.463807253,1.533656586,1.460545401,1.240925351,1.013109038,1.513492599,1.461580204,1.558290008,1.092981303,-0.21024,-0.02214,6.3794,-0.50945,-0.2765,-0.06086,-0.65438,0.71085,-0.71898,0.26068,-0.48746,0.4406,-0.78973,-0.48924,226.2621,129.9611,137.4445,132.2143,26.0479,-18.4938,28.4035,161.3355,27.2982,172.6933,146.1284,4.99,2.17,7.2,2.97,1.5,2.03,3.38,1.82,3.12,420.79,419.55,27.282,1.55,1707.9,746.9674,3595.64,51.9945,2.71,1.03,1.9,2,1,1,1.351174925,1.085133033,1.08555943,1.083884879,0.973923382,113.5258349,116.8721897,117.8205465,107.9087492,124.1597732,0.074099367,0.124329119,-0.27076,0.00755,7.44741,160.8934,22.3288,175.346,179.9288,30.4754,-35.2914,30.5619,30.2363,25.2953,-0.73802,0.8378,-0.38396,-0.4531,-0.66544,91.14,33.999,-0.25089,-0.10865,0,6.15737,0.558,161.71,123.19,54.714,0.74907,2.9017,-0.23066,-0.03108,5.49795,1.39245,1.394990094,2.163257702,61.5662,61.5965,61.6134,-0.20895,-0.25249,-0.25274,195.67,20.079,6.0219779,1.9126339,10.1662,-0.20732,-0.02413,91.37,40.332,0.79875,4.46774,0.38892,-0.203,-0.07991,8.3156,66.44,40.427,1.23,20,1.5,1.5,16,80,16.777,90
0.52444,0.19029,53.21610477,152.6038545,41.08607856,169.8842976,177.7678501,64.87407584,33.85947893,114.417325,109.78432,127.8832726,116.5901547,111.970579,111.3151793,106.6315525,117.7007943,110.0204813,1.462760579,1.534541447,1.46023443,1.240617845,1.014066719,1.514988565,1.460941029,1.555263713,1.091858868,-0.20979,-0.03631,6.25,-0.50786,-0.27877,-0.064,-0.6565,0.70562,-0.71515,0.26327,-0.48558,0.44181,-0.79248,-0.48917,226.6565,131.7036,139.628,131.8335,25.8987,-21.9447,27.7221,151.3032,26.9146,171.3743,146.2064,5.05,1.55,8.33,2.97,1.5,2.03,3.38,1.82,3.12,327.49,306.81,27.094,1.49,1708.95,775.8158,3583.91,44.2846,2.71,1.03,1.9,2,1,1,1.351174925,1.085133033,1.08555943,1.083884879,0.973923382,113.5258349,116.8721897,117.8205465,107.9087492,124.1597732,0.074099367,0.124329119,-0.27076,0.00755,7.44741,160.8934,22.3288,175.346,179.9288,30.4754,-35.2914,30.5619,30.2363,25.2953,-0.73802,0.8378,-0.38396,-0.4531,-0.66544,91.14,33.999,-0.25089,-0.10865,0,6.15737,0.558,161.71,123.19,54.714,0.74907,2.9017,-0.23066,-0.03108,5.49795,1.39245,1.394990094,2.163257702,61.5662,61.5965,61.6134,-0.20895,-0.25249,-0.25274,195.67,20.079,6.0219779,1.9126339,10.1662,-0.20732,-0.02413,91.37,40.332,0.79875,4.46774,0.38892,-0.203,-0.07991,8.3156,66.44,40.427,1.23,20,1.5,1.5,16,80,16.777,82
0.46628,0.24188,52.68617473,151.9854019,42.79585412,169.7449078,177.3499299,65.20216733,33.47964993,114.426985,109.7633273,127.8376825,116.4489679,111.7349845,111.9220088,106.4867641,117.6816683,109.8476169,1.463153305,1.534543384,1.459847101,1.240618076,1.013878838,1.514797389,1.460984673,1.557035683,1.091883874,-0.20917,-0.03706,6.2959,-0.5073,-0.27789,-0.06308,-0.65561,0.7058,-0.71508,0.26336,-0.48908,0.44154,-0.79234,-0.48927,225.6046,130.6599,138.5821,132.2173,25.8554,-22.4461,27.6123,155.8405,26.9244,171.3529,146.2934,5.09,1.57,6.96,2.97,1.5,2.03,3.38,1.82,3.12,322.79,306.23,27.198,1.47,1708.93,784.3774,3586.2,45.0796,2.71,1.03,1.9,2,1,1,1.351174925,1.085133033,1.08555943,1.083884879,0.973923382,113.5258349,116.8721897,117.8205465,107.9087492,124.1597732,0.074099367,0.124329119,-0.27076,0.00755,7.44741,160.8934,22.3288,175.346,179.9288,30.4754,-35.2914,30.5619,30.2363,25.2953,-0.73802,0.8378,-0.38396,-0.4531,-0.66544,91.14,33.999,-0.25089,-0.10865,0,6.15737,0.558,161.71,123.19,54.714,0.74907,2.9017,-0.23066,-0.03108,5.49795,1.39245,1.394990094,2.163257702,61.5662,61.5965,61.6134,-0.20895,-0.25249,-0.25274,195.67,20.079,6.0219779,1.9126339,10.1662,-0.20732,-0.02413,91.37,40.332,0.79875,4.46774,0.38892,-0.203,-0.07991,8.3156,66.44,40.427,1.23,20,1.5,1.5,16,80,16.777,90
0.61372,0.37626,52.50789736,153.5995863,41.52444859,168.974522,176.9273051,65.60623899,34.92646015,114.411404,109.8064381,127.8622276,116.4602398,111.8377247,111.3468691,106.7538236,117.6993188,110.0134957,1.462916319,1.534862923,1.460339684,1.240730572,1.013829747,1.515018755,1.460929422,1.555417686,1.09194176,-0.21035,-0.00055,6.3075,-0.50783,-0.27844,-0.06414,-0.65633,0.70576,-0.71502,0.26303,-0.48618,0.44155,-0.79237,-0.48919,226.6273,132.0102,139.7446,132.5649,25.8668,-22.6782,27.814,151.5359,26.8882,171.3076,146.2776,4.83,1.56,6.01,2.97,1.5,2.03,4.06,1.85,3.12,280.24,255.4,27.106,1.44,1707.42,766.7088,3592,45.8129,2.71,1.03,1.9,2,1,1,1.351174925,1.085133033,1.08555943,1.083884879,0.973923382,113.5258349,116.8721897,117.8205465,107.9087492,124.1597732,0.074099367,0.124329119,-0.27076,0.00755,7.44741,160.8934,22.3288,175.346,179.9288,30.4754,-35.2914,30.5619,30.2363,25.2953,-0.73802,0.8378,-0.38396,-0.4531,-0.66544,91.14,33.999,-0.25089,-0.10865,0,6.15737,0.558,161.71,123.19,54.714,0.74907,2.9017,-0.23066,-0.03108,5.49795,1.39245,1.394990094,2.163257702,61.5662,61.5965,61.6134,-0.20895,-0.25249,-0.25274,195.67,20.079,12.1830876,3.2104004,7.2247,-0.2532,-0.02158,82.46,48.175,0.77483,11.70261,1.45024,-0.23556,-0.07349,4.7036,69.71,27.931,1.19,20,1.5,3,24,80,16.777,88
0.61372,0.37626,52.50789736,153.5995863,41.52444859,168.974522,176.9273051,65.60623899,34.92646015,114.411404,109.8064381,127.8622276,116.4602398,111.8377247,111.3468691,106.7538236,117.6993188,110.0134957,1.462916319,1.534862923,1.460339684,1.240730572,1.013829747,1.515018755,1.460929422,1.555417686,1.09194176,-0.21035,-0.00055,6.3075,-0.50783,-0.27844,-0.06414,-0.65633,0.70576,-0.71502,0.26303,-0.48618,0.44155,-0.79237,-0.48919,226.6273,132.0102,139.7446,132.5649,25.8668,-22.6782,27.814,151.5359,26.8882,171.3076,146.2776,4.83,1.56,6.01,2.97,1.5,2.03,4.06,1.85,3.12,280.24,255.4,27.106,1.44,1707.42,766.7088,3592,45.8129,2.71,1.03,1.9,2,1,1,1.351174925,1.085133033,1.08555943,1.083884879,0.973923382,113.5258349,116.8721897,117.8205465,107.9087492,124.1597732,0.074099367,0.124329119,-0.27076,0.00755,7.44741,160.8934,22.3288,175.346,179.9288,30.4754,-35.2914,30.5619,30.2363,25.2953,-0.73802,0.8378,-0.38396,-0.4531,-0.66544,91.14,33.999,-0.25089,-0.10865,0,6.15737,0.558,161.71,123.19,54.714,0.74907,2.9017,-0.23066,-0.03108,5.49795,1.39245,1.394990094,2.163257702,61.5662,61.5965,61.6134,-0.20895,-0.25249,-0.25274,195.67,20.079,6.0219779,1.9126339,10.1662,-0.20732,-0.02413,91.37,40.332,0.77483,11.70261,1.45024,-0.23556,-0.07349,4.7036,69.71,27.931,1.19,20,1.5,3,24,80,16.777,86
0.61372,0.37626,52.50789736,153.5995863,41.52444859,168.974522,176.9273051,65.60623899,34.92646015,114.411404,109.8064381,127.8622276,116.4602398,111.8377247,111.3468691,106.7538236,117.6993188,110.0134957,1.462916319,1.534862923,1.460339684,1.240730572,1.013829747,1.515018755,1.460929422,1.555417686,1.09194176,-0.21035,-0.00055,6.3075,-0.50783,-0.27844,-0.06414,-0.65633,0.70576,-0.71502,0.26303,-0.48618,0.44155,-0.79237,-0.48919,226.6273,132.0102,139.7446,132.5649,25.8668,-22.6782,27.814,151.5359,26.8882,171.3076,146.2776,4.83,1.56,6.01,2.97,1.5,2.03,4.06,1.85,3.12,280.24,255.4,27.106,1.44,1707.42,766.7088,3592,45.8129,2.71,1.03,1.9,2,1,1,1.351174925,1.085133033,1.08555943,1.083884879,0.973923382,113.5258349,116.8721897,117.8205465,107.9087492,124.1597732,0.074099367,0.124329119,-0.27076,0.00755,7.44741,160.8934,22.3288,175.346,179.9288,30.4754,-35.2914,30.5619,30.2363,25.2953,-0.73802,0.8378,-0.38396,-0.4531,-0.66544,91.14,33.999,-0.25089,-0.10865,0,6.15737,0.558,161.71,123.19,54.714,0.74907,2.9017,-0.23066,-0.03108,5.49795,1.39245,1.394990094,2.163257702,61.5662,61.5965,61.6134,-0.20895,-0.25249,-0.25274,195.67,20.079,11.5553756,1.86672,8.368,-0.22895,-0.0205,106.98,27.094,0.77483,11.70261,1.45024,-0.23556,-0.07349,4.7036,69.71,27.931,1.19,20,1.5,3,24,80,16.777,92
0.61372,0.37626,52.50789736,153.5995863,41.52444859,168.974522,176.9273051,65.60623899,34.92646015,114.411404,109.8064381,127.8622276,116.4602398,111.8377247,111.3468691,106.7538236,117.6993188,110.0134957,1.462916319,1.534862923,1.460339684,1.240730572,1.013829747,1.515018755,1.460929422,1.555417686,1.09194176,-0.21035,-0.00055,6.3075,-0.50783,-0.27844,-0.06414,-0.65633,0.70576,-0.71502,0.26303,-0.48618,0.44155,-0.79237,-0.48919,226.6273,132.0102,139.7446,132.5649,25.8668,-22.6782,27.814,151.5359,26.8882,171.3076,146.2776,4.83,1.56,6.01,2.97,1.5,2.03,4.06,1.85,3.12,280.24,255.4,27.106,1.44,1707.42,766.7088,3592,45.8129,2.71,1.03,1.9,2,1,1,1.351174925,1.085133033,1.08555943,1.083884879,0.973923382,113.5258349,116.8721897,117.8205465,107.9087492,124.1597732,0.074099367,0.124329119,-0.27076,0.00755,7.44741,160.8934,22.3288,175.346,179.9288,30.4754,-35.2914,30.5619,30.2363,25.2953,-0.73802,0.8378,-0.38396,-0.4531,-0.66544,91.14,33.999,-0.25089,-0.10865,0,6.15737,0.558,161.71,123.19,54.714,0.74907,2.9017,-0.23066,-0.03108,5.49795,1.39245,1.394990094,2.163257702,61.5662,61.5965,61.6134,-0.20895,-0.25249,-0.25274,195.67,20.079,12.1015104,1.9250928,9.5729,-0.23984,-0.02241,95.19,47.432,0.77483,11.70261,1.45024,-0.23556,-0.07349,4.7036,69.71,27.931,1.19,20,1.5,3,24,80,16.777,90
0.61372,0.37626,52.50789736,153.5995863,41.52444859,168.974522,176.9273051,65.60623899,34.92646015,114.411404,109.8064381,127.8622276,116.4602398,111.8377247,111.3468691,106.7538236,117.6993188,110.0134957,1.462916319,1.534862923,1.460339684,1.240730572,1.013829747,1.515018755,1.460929422,1.555417686,1.09194176,-0.21035,-0.00055,6.3075,-0.50783,-0.27844,-0.06414,-0.65633,0.70576,-0.71502,0.26303,-0.48618,0.44155,-0.79237,-0.48919,226.6273,132.0102,139.7446,132.5649,25.8668,-22.6782,27.814,151.5359,26.8882,171.3076,146.2776,4.83,1.56,6.01,2.97,1.5,2.03,4.06,1.85,3.12,280.24,255.4,27.106,1.44,1707.42,766.7088,3592,45.8129,2.71,1.03,1.9,2,1,1,1.351174925,1.085133033,1.08555943,1.083884879,0.973923382,113.5258349,116.8721897,117.8205465,107.9087492,124.1597732,0.074099367,0.124329119,-0.27076,0.00755,7.44741,160.8934,22.3288,175.346,179.9288,30.4754,-35.2914,30.5619,30.2363,25.2953,-0.73802,0.8378,-0.38396,-0.4531,-0.66544,91.14,33.999,-0.25089,-0.10865,0,6.15737,0.558,161.71,123.19,54.714,0.74907,2.9017,-0.23066,-0.03108,5.49795,1.39245,1.394990094,2.163257702,61.5662,61.5965,61.6134,-0.20895,-0.25249,-0.25274,195.67,20.079,4.4100711,0.9139866,12.1289,-0.1771,-0.02264,116.05,38.284,0.77483,11.70261,1.45024,-0.23556,-0.07349,4.7036,69.71,27.931,1.19,20,1.5,3,24,80,16.777,86
0.61372,0.37626,52.50789736,153.5995863,41.52444859,168.974522,176.9273051,65.60623899,34.92646015,114.411404,109.8064381,127.8622276,116.4602398,111.8377247,111.3468691,106.7538236,117.6993188,110.0134957,1.462916319,1.534862923,1.460339684,1.240730572,1.013829747,1.515018755,1.460929422,1.555417686,1.09194176,-0.21035,-0.00055,6.3075,-0.50783,-0.27844,-0.06414,-0.65633,0.70576,-0.71502,0.26303,-0.48618,0.44155,-0.79237,-0.48919,226.6273,132.0102,139.7446,132.5649,25.8668,-22.6782,27.814,151.5359,26.8882,171.3076,146.2776,4.83,1.56,6.01,2.97,1.5,2.03,4.06,1.85,3.12,280.24,255.4,27.106,1.44,1707.42,766.7088,3592,45.8129,2.71,1.03,1.9,2,1,1,1.351174925,1.085133033,1.08555943,1.083884879,0.973923382,113.5258349,116.8721897,117.8205465,107.9087492,124.1597732,0.074099367,0.124329119,-0.27076,0.00755,7.44741,160.8934,22.3288,175.346,179.9288,30.4754,-35.2914,30.5619,30.2363,25.2953,-0.73802,0.8378,-0.38396,-0.4531,-0.66544,91.14,33.999,-0.25089,-0.10865,0,6.15737,0.558,161.71,123.19,54.714,0.74907,2.9017,-0.23066,-0.03108,5.49795,1.39245,1.394990094,2.163257702,61.5662,61.5965,61.6134,-0.20895,-0.25249,-0.25274,195.67,20.079,0.8601877,0.8336347,12.9123,-0.18416,-0.0256,157.89,62.173,0.77483,11.70261,1.45024,-0.23556,-0.07349,4.7036,69.71,27.931,1.19,20,1.5,3,24,80,16.777,82
0.61372,0.37626,52.50789736,153.5995863,41.52444859,168.974522,176.9273051,65.60623899,34.92646015,114.411404,109.8064381,127.8622276,116.4602398,111.8377247,111.3468691,106.7538236,117.6993188,110.0134957,1.462916319,1.534862923,1.460339684,1.240730572,1.013829747,1.515018755,1.460929422,1.555417686,1.09194176,-0.21035,-0.00055,6.3075,-0.50783,-0.27844,-0.06414,-0.65633,0.70576,-0.71502,0.26303,-0.48618,0.44155,-0.79237,-0.48919,226.6273,132.0102,139.7446,132.5649,25.8668,-22.6782,27.814,151.5359,26.8882,171.3076,146.2776,4.83,1.56,6.01,2.97,1.5,2.03,4.06,1.85,3.12,280.24,255.4,27.106,1.44,1707.42,766.7088,3592,45.8129,2.71,1.03,1.9,2,1,1,1.351174925,1.085133033,1.08555943,1.083884879,0.973923382,113.5258349,116.8721897,117.8205465,107.9087492,124.1597732,0.074099367,0.124329119,-0.27076,0.00755,7.44741,160.8934,22.3288,175.346,179.9288,30.4754,-35.2914,30.5619,30.2363,25.2953,-0.73802,0.8378,-0.38396,-0.4531,-0.66544,91.14,33.999,-0.25089,-0.10865,0,6.15737,0.558,161.71,123.19,54.714,0.74907,2.4711,-0.24419,-0.0529,3.40459,1.395758783,1.395902444,2.154640103,49.4615,60.7543,60.6024,-0.18637,-0.25297,-0.25298,162.71,0,12.1830876,3.2104004,7.2247,-0.2532,-0.02158,82.46,48.175,0.79875,4.46774,0.38892,-0.203,-0.07991,8.3156,66.44,40.427,1.23,20,1.5,2,24,80,16.777,92
0.61372,0.37626,52.50789736,153.5995863,41.52444859,168.974522,176.9273051,65.60623899,34.92646015,114.411404,109.8064381,127.8622276,116.4602398,111.8377247,111.3468691,106.7538236,117.6993188,110.0134957,1.462916319,1.534862923,1.460339684,1.240730572,1.013829747,1.515018755,1.460929422,1.555417686,1.09194176,-0.21035,-0.00055,6.3075,-0.50783,-0.27844,-0.06414,-0.65633,0.70576,-0.71502,0.26303,-0.48618,0.44155,-0.79237,-0.48919,226.6273,132.0102,139.7446,132.5649,25.8668,-22.6782,27.814,151.5359,26.8882,171.3076,146.2776,4.83,1.56,6.01,2.97,1.5,2.03,4.06,1.85,3.12,280.24,255.4,27.106,1.44,1707.42,766.7088,3592,45.8129,2.71,1.03,1.9,2,1,1,1.351174925,1.085133033,1.08555943,1.083884879,0.973923382,113.5258349,116.8721897,117.8205465,107.9087492,124.1597732,0.074099367,0.124329119,-0.27076,0.00755,7.44741,160.8934,22.3288,175.346,179.9288,30.4754,-35.2914,30.5619,30.2363,25.2953,-0.73802,0.8378,-0.38396,-0.4531,-0.66544,91.14,33.999,-0.25089,-0.10865,0,6.15737,0.558,161.71,123.19,54.714,0.74907,2.4711,-0.24419,-0.0529,3.40459,1.395758783,1.395902444,2.154640103,49.4615,60.7543,60.6024,-0.18637,-0.25297,-0.25298,162.71,0,6.0219779,1.9126339,10.1662,-0.20732,-0.02413,91.37,40.332,0.79875,4.46774,0.38892,-0.203,-0.07991,8.3156,66.44,40.427,1.23,20,1.5,2,24,80,16.777,94
0.61372,0.37626,52.50789736,153.5995863,41.52444859,168.974522,176.9273051,65.60623899,34.92646015,114.411404,109.8064381,127.8622276,116.4602398,111.8377247,111.3468691,106.7538236,117.6993188,110.0134957,1.462916319,1.534862923,1.460339684,1.240730572,1.013829747,1.515018755,1.460929422,1.555417686,1.09194176,-0.21035,-0.00055,6.3075,-0.50783,-0.27844,-0.06414,-0.65633,0.70576,-0.71502,0.26303,-0.48618,0.44155,-0.79237,-0.48919,226.6273,132.0102,139.7446,132.5649,25.8668,-22.6782,27.814,151.5359,26.8882,171.3076,146.2776,4.83,1.56,6.01,2.97,1.5,2.03,4.06,1.85,3.12,280.24,255.4,27.106,1.44,1707.42,766.7088,3592,45.8129,2.71,1.03,1.9,2,1,1,1.351174925,1.085133033,1.08555943,1.083884879,0.973923382,113.5258349,116.8721897,117.8205465,107.9087492,124.1597732,0.074099367,0.124329119,-0.27076,0.00755,7.44741,160.8934,22.3288,175.346,179.9288,30.4754,-35.2914,30.5619,30.2363,25.2953,-0.73802,0.8378,-0.38396,-0.4531,-0.66544,91.14,33.999,-0.25089,-0.10865,0,6.15737,0.558,161.71,123.19,54.714,0.74907,2.4711,-0.24419,-0.0529,3.40459,1.395758783,1.395902444,2.154640103,49.4615,60.7543,60.6024,-0.18637,-0.25297,-0.25298,162.71,0,4.4100711,0.9139866,12.1289,-0.1771,-0.02264,116.05,38.284,0.79875,4.46774,0.38892,-0.203,-0.07991,8.3156,66.44,40.427,1.23,20,1.5,2,24,80,16.777,92
0.62279,0.37325,49.28583539,150.5658653,39.16027664,172.3711865,174.1995181,68.71813262,32.12803067,114.158595,109.7927279,128.326924,116.7603539,112.2459918,111.3175018,106.5512159,117.0646714,110.3369908,1.461696934,1.536127785,1.457346922,1.232982463,1.012790764,1.518821423,1.459252726,1.555979732,1.092364002,-0.20831,0.00027,5.6185,-0.50795,-0.27685,-0.06417,-0.66778,0.69723,-0.66994,0.26043,-0.48587,0.43821,-0.79226,-0.48789,227.3004,132.9192,139.7708,137.0303,29.8231,-47.7367,27.8919,151.5645,27.2108,171.3535,146.6171,4.84,1.56,6.01,2.97,1.5,2.03,4.06,1.85,3.12,281.15,255.48,26.976,1.44,1753.19,588.4687,3604.45,39.3792,2.71,1.03,1.9,2,1,1,1.35614444,1.084900356,1.085497097,1.083730961,0.973899875,113.1976425,116.8702434,117.7843715,106.7360229,124.6529327,0.140336653,0.047295572,-0.26424,0.01276,7.45553,158.6183,25.2021,175.7165,180.6481,30.5203,-52.885,30.6306,30.2971,26.1289,-0.73349,0.82535,-0.38272,-0.45503,-0.63083,91.15,33.975,-0.25805,-0.10973,0,6.15825,0.56037,161.57,123.13,54.677,0.69974,4.3093,-0.25443,-0.05436,1.15223,1.406029791,1.406432386,1.559021459,60.8212,61.115,61.2353,-0.38986,-0.20234,-0.20275,304.51,33.948,1.78781,0.89525,14.8576,-0.19038,-0.02356,136.53,66.378,0.76466,4.5053,0.40063,-0.18794,-0.07871,7.5468,66.16,40.159,1.22,20,1.5,1.5,12,80,13.63,92
0.26036,0.14196,52.380875,142.1572683,25.99620867,171.52805,178.9795428,65.19297865,24.22738493,114.5053137,108.7553846,128.5335205,116.5722162,113.8770526,111.7992939,105.2972546,117.4477396,109.575328,1.46355637,1.534217722,1.460289851,1.238554466,1.012897534,1.514266244,1.461131684,1.558571259,1.093407502,-0.20997,-0.02202,6.1192,-0.50928,-0.27624,-0.06079,-0.65865,0.70888,-0.70513,0.25879,-0.48726,0.43931,-0.78935,-0.48864,226.4711,130.2593,137.4555,133.6395,26.7598,-26.7283,28.4394,161.2747,27.3561,172.7045,146.1818,4.77,2.2,7.15,2.97,1.5,2.03,3.38,1.82,3.12,420.67,419.58,27.3,1.55,1720.38,680.7648,3599.44,49.382,2.71,1.03,1.9,4.05,1.5,3.14,1.351351614,1.093670307,1.094489943,1.535146374,0.974550095,111.7420118,117.066397,116.9452607,107.7710055,126.2276786,24.46595331,0.406011234,-0.26856,0.0098,1.89413,150.9102,18.2408,139.2469,156.9791,29.4591,-47.2051,29.471,156.6574,24.8758,-0.72948,0.85542,-0.15769,-0.44375,-0.64711,143.5,33.935,-0.25204,-0.10901,0,6.15532,0.55813,161.71,123.19,54.715,0.7371,4.5744,-0.25596,-0.05724,1.15225,1.406019492,1.406253972,1.558287756,60.7506,61.0436,61.1724,-0.38931,-0.20144,-0.20169,304.55,33.973,1.78781,0.89525,14.8576,-0.19038,-0.02356,137.9,67.269,0.79003,4.44556,0.39348,-0.19953,-0.08061,8.1307,66.37,40.344,1.23,20,1.5,2,12,60,12.58,88
0.25873,0.14169,49.58303329,143.6702478,17.50902911,168.7736908,176.1399331,68.23852793,25.89485759,114.0055929,108.4830589,128.5507448,115.9053048,114.0994709,111.6229784,105.3113238,117.1632102,110.3041204,1.461628056,1.536283614,1.45919922,1.231719881,1.012784816,1.51655057,1.459132772,1.560002052,1.09445297,-0.20874,-0.02188,5.3071,-0.50952,-0.275,-0.05975,-0.67122,0.70352,-0.66496,0.2518,-0.48675,0.43552,-0.78641,-0.48578,227.3593,131.4018,137.4761,137.6395,28.3838,-52.2718,28.5315,160.8064,27.4708,172.8464,146.4369,4.76,2.19,7.16,2.97,1.5,2.03,3.38,1.82,3.12,416.66,419.37,26.918,1.54,1757.14,493.6935,3598.06,46.8096,2.71,1.03,1.9,4.05,1.5,3.14,1.35487699,1.093424437,1.094466949,1.535517553,0.974079511,111.5500947,117.0788004,116.8724745,106.8321811,126.5364975,24.72457411,0.332067487,-0.26465,0.01291,1.88989,149.1568,20.4753,139.5242,156.9344,29.4724,-60.8372,29.5234,156.5911,25.6559,-0.7233,0.84446,-0.15717,-0.44366,-0.6207,143.51,33.926,-0.2582,-0.10974,0.0001,6.15816,0.56042,161.57,123.13,54.67,0.70235,4.1608,-0.2533,-0.0535,1.15182,1.405997319,1.406414685,1.558334299,60.9872,61.1296,61.1732,-0.38951,-0.20077,-0.20098,304.47,33.924,1.84831,0.88232,14.1865,-0.18759,-0.026,136.17,66.294,0.75582,4.5178,0.40418,-0.1898,-0.08443,7.2601,66.07,40.078,1.22,20,1.5,2,12,60,5.84,70
0.25871,0.14182,49.75787328,143.192032,18.12387802,168.581936,176.3097288,68.05182911,25.40089527,114.0310771,108.4841775,128.4955344,115.9206957,114.0872744,111.6368456,105.3077299,117.1287303,110.224577,1.46185889,1.536054104,1.459414513,1.232100532,1.012786514,1.516357481,1.459229924,1.559719582,1.094345788,-0.20869,-0.02179,5.4022,-0.51006,-0.27511,-0.06007,-0.67077,0.70362,-0.6669,0.2531,-0.48697,0.43556,-0.78702,-0.48636,227.356,131.3063,137.4814,137.4515,28.2657,-51.0041,28.5135,160.8848,27.4759,172.8079,146.4574,4.76,2.19,7.16,2.97,1.5,2.03,3.38,1.82,3.12,416.91,419.38,26.968,1.54,1755.16,508.3443,3597.59,47.7294,2.71,1.03,1.9,4.05,1.5,3.14,1.354869073,1.09336805,1.094478685,1.535903537,0.97420126,111.5177561,117.0501372,116.8314414,106.8512463,126.5729077,24.15250009,0.343080406,-0.26456,0.01295,1.88746,148.9615,20.3019,139.5624,156.9997,29.4489,-60.9352,29.5123,156.4857,25.6187,-0.72355,0.84491,-0.15731,-0.44424,-0.62149,143.51,33.962,-0.25816,-0.10977,0,6.15707,0.56038,161.58,123.13,54.675,0.70145,4.2105,-0.25368,-0.05379,1.15207,1.405954408,1.406363902,1.558582824,60.9294,61.125,61.1934,-0.38961,-0.2013,-0.20156,304.49,33.938,1.82004,0.88843,14.4655,-0.18847,-0.02521,136.3,66.305,0.75889,4.51239,0.4029,-0.18914,-0.08245,7.3605,66.1,40.111,1.22,20,1.5,2,12,60,7.489,72
0.26036,0.14196,52.380875,142.1572683,25.99620867,171.52805,178.9795428,65.19297865,24.22738493,114.5053137,108.7553846,128.5335205,116.5722162,113.8770526,111.7992939,105.2972546,117.4477396,109.575328,1.46355637,1.534217722,1.460289851,1.238554466,1.012897534,1.514266244,1.461131684,1.558571259,1.093407502,-0.20997,-0.02202,6.1192,-0.50928,-0.27624,-0.06079,-0.65865,0.70888,-0.70513,0.25879,-0.48726,0.43931,-0.78935,-0.48864,226.4711,130.2593,137.4555,133.6395,26.7598,-26.7283,28.4394,161.2747,27.3561,172.7045,146.1818,4.77,2.2,7.15,2.97,1.5,2.03,3.38,1.82,3.12,420.67,419.58,27.3,1.55,1720.38,680.7648,3599.44,49.382,2.71,1.03,1.9,4.05,1.5,3.14,1.351351614,1.093670307,1.094489943,1.535146374,0.974550095,111.7420118,117.066397,116.9452607,107.7710055,126.2276786,24.46595331,0.406011234,-0.26856,0.0098,1.89413,150.9102,18.2408,139.2469,156.9791,29.4591,-47.2051,29.471,156.6574,24.8758,-0.72948,0.85542,-0.15769,-0.44375,-0.64711,143.5,33.935,-0.25204,-0.10901,0,6.15532,0.55813,161.71,123.19,54.715,0.7371,4.5744,-0.25596,-0.05724,1.15225,1.406019492,1.406253972,1.558287756,60.7506,61.0436,61.1724,-0.38931,-0.20144,-0.20169,304.55,33.973,1.7090757,0.9048213,14.5776,-0.20935,-0.02613,137.9,67.269,0.79003,4.44556,0.39348,-0.19953,-0.08061,8.1307,66.37,40.344,1.23,20,1.5,2,12,80,12.58,80
0.26036,0.14196,52.380875,142.1572683,25.99620867,171.52805,178.9795428,65.19297865,24.22738493,114.5053137,108.7553846,128.5335205,116.5722162,113.8770526,111.7992939,105.2972546,117.4477396,109.575328,1.46355637,1.534217722,1.460289851,1.238554466,1.012897534,1.514266244,1.461131684,1.558571259,1.093407502,-0.20997,-0.02202,6.1192,-0.50928,-0.27624,-0.06079,-0.65865,0.70888,-0.70513,0.25879,-0.48726,0.43931,-0.78935,-0.48864,226.4711,130.2593,137.4555,133.6395,26.7598,-26.7283,28.4394,161.2747,27.3561,172.7045,146.1818,4.77,2.2,7.15,2.97,1.5,2.03,3.38,1.82,3.12,420.67,419.58,27.3,1.55,1720.38,680.7648,3599.44,49.382,2.71,1.03,1.9,4.05,1.5,3.14,1.351351614,1.093670307,1.094489943,1.535146374,0.974550095,111.7420118,117.066397,116.9452607,107.7710055,126.2276786,24.46595331,0.406011234,-0.26856,0.0098,1.89413,150.9102,18.2408,139.2469,156.9791,29.4591,-47.2051,29.471,156.6574,24.8758,-0.72948,0.85542,-0.15769,-0.44375,-0.64711,143.5,33.935,-0.25204,-0.10901,0,6.15532,0.55813,161.71,123.19,54.715,0.7371,4.5744,-0.25596,-0.05724,1.15225,1.406019492,1.406253972,1.558287756,60.7506,61.0436,61.1724,-0.38931,-0.20144,-0.20169,304.55,33.973,1.7090757,0.9048213,14.5776,-0.20935,-0.02613,137.9,67.269,0.79003,4.44556,0.39348,-0.19953,-0.08061,8.1307,66.37,40.344,1.23,20,1.5,2,12,50,12.58,88
0.61966,0.37614,49.89841333,152.584362,41.21009594,169.8315463,174.5477291,68.17203868,34.03678764,114.4703301,109.9584277,127.900752,116.5864266,111.9504978,111.3115911,106.6996442,117.5289066,109.9062993,1.462980734,1.535122379,1.459194601,1.238431294,1.013496182,1.516414931,1.460408474,1.555766643,1.092160135,-0.21011,-0.00029,6.0567,-0.50721,-0.27777,-0.06489,-0.65974,0.70317,-0.70169,0.2621,-0.48586,0.44134,-0.79229,-0.48877,226.7461,132.719,139.6636,134.394,27.0491,-30.1097,27.8682,151.6784,26.9853,171.2944,146.4703,5.49,1.58,5.59,2.97,1.5,2.03,4.06,1.85,3.12,280.19,255.37,27.084,1.44,1720.26,712.7218,3594.52,43.98,2.71,1.03,1.9,4.05,1.5,3.14,1.351351614,1.093670307,1.094489943,1.535146374,0.974550095,111.7420118,117.066397,116.9452607,107.7710055,126.2276786,24.46595331,0.406011234,-0.26856,0.0098,1.89413,150.9102,18.2408,139.2469,156.9791,29.4591,-47.2051,29.471,156.6574,24.8758,-0.72948,0.85542,-0.15769,-0.44375,-0.64711,143.5,33.935,-0.25204,-0.10901,0,6.15532,0.55813,161.71,123.19,54.715,0.7371,4.5744,-0.25596,-0.05724,1.15225,1.406019492,1.406253972,1.558287756,60.7506,61.0436,61.1724,-0.38931,-0.20144,-0.20169,304.55,33.973,1.7090757,0.9048213,14.5776,-0.20935,-0.02613,137.9,67.269,0.79003,4.44556,0.39348,-0.19953,-0.08061,8.1307,66.37,40.344,1.23,20,1.5,2,12,60,12.58,72
0.50309,0.33977,18.75337479,141.2526221,25.72989483,173.3099656,106.6700324,136.2055951,24.62968488,114.2396255,108.3891552,129.320289,112.7148967,112.2872781,113.4272363,106.2203181,117.551617,114.9300465,1.471201222,1.571558129,1.452942228,1.240847289,1.018421281,1.515881208,1.470607306,1.55358567,1.093878613,-0.20514,-0.00073,6.332,-0.54813,-0.27392,-0.06478,-0.667,0.70313,-0.71045,0.25857,-0.48641,0.44552,-0.79076,-0.26072,218.1995,141.9694,139.6377,129.5544,28.3125,-19.6877,27.9912,148.8679,24.7015,170.2502,142.9255,5.49,1.58,5.64,2.97,1.5,2.03,4.89,1.85,4.44,310.81,292.06,22.389,1.46,1705.18,823.1663,3492.46,281.5741,2.71,1.03,1.9,4.05,1.5,3.14,1.351351614,1.093670307,1.094489943,1.535146374,0.974550095,111.7420118,117.066397,116.9452607,107.7710055,126.2276786,24.46595331,0.406011234,-0.26856,0.0098,1.89413,150.9102,18.2408,139.2469,156.9791,29.4591,-47.2051,29.471,156.6574,24.8758,-0.72948,0.85542,-0.15769,-0.44375,-0.64711,143.5,33.935,-0.25204,-0.10901,0,6.15532,0.55813,161.71,123.19,54.715,0.7371,4.5744,-0.25596,-0.05724,1.15225,1.406019492,1.406253972,1.558287756,60.7506,61.0436,61.1724,-0.38931,-0.20144,-0.20169,304.55,33.973,1.7090757,0.9048213,14.5776,-0.20935,-0.02613,137.9,67.269,0.79003,4.44556,0.39348,-0.19953,-0.08061,8.1307,66.37,40.344,1.23,20,1.5,2,12,60,12.58,48
0.85621,0.7109,51.52378836,144.6136459,31.65570228,179.1011066,176.2265282,65.50181051,27.15190462,114.1078133,108.9542772,128.5365526,117.1011875,111.5042781,113.2425574,106.7400889,117.6666951,109.8908862,1.466057057,1.537273631,1.463389616,1.239220708,1.012971203,1.516743836,1.460790061,1.555331157,1.093299434,-0.21016,0.03476,6.2503,-0.50855,-0.27798,-0.0706,-0.65669,0.70307,-0.70724,0.25497,-0.25842,0.43952,-0.79167,-0.48877,229.0286,136.5204,135.5682,130.5605,28.0696,-22.9342,28.1097,155.6195,26.5482,171.4933,145.9622,4.17,1.92,3.19,2.97,1.5,2.03,3.38,1.82,3.12,239.61,207.94,27.999,1.41,1718.38,758.81,3597.48,51.4134,2.71,1.03,1.9,4.05,1.5,3.14,1.351351614,1.093670307,1.094489943,1.535146374,0.974550095,111.7420118,117.066397,116.9452607,107.7710055,126.2276786,24.46595331,0.406011234,-0.26856,0.0098,1.89413,150.9102,18.2408,139.2469,156.9791,29.4591,-47.2051,29.471,156.6574,24.8758,-0.72948,0.85542,-0.15769,-0.44375,-0.64711,143.5,33.935,-0.25204,-0.10901,0,6.15532,0.55813,161.71,123.19,54.715,0.7371,4.5744,-0.25596,-0.05724,1.15225,1.406019492,1.406253972,1.558287756,60.7506,61.0436,61.1724,-0.38931,-0.20144,-0.20169,304.55,33.973,1.7090757,0.9048213,14.5776,-0.20935,-0.02613,137.9,67.269,0.79003,4.44556,0.39348,-0.19953,-0.08061,8.1307,66.37,40.344,1.23,20,1.5,2,12,60,12.58,64
0.84523,0.56505,47.65096878,138.5222683,45.41489817,174.4466719,173.3327285,69.49879577,21.22488655,114.3415361,109.6762059,131.1902217,115.6705542,112.9182356,111.2980803,107.0096342,119.8442994,110.1072667,1.46295848,1.539709095,1.460134444,1.240855131,1.013788218,1.515497338,1.460220793,1.555623524,1.09151079,-0.20989,0.03458,6.1205,-0.50752,-0.27171,-0.06784,-0.65042,0.70234,-0.71764,0.25503,-0.26003,0.43891,-0.78723,-0.48848,226.2744,131.2354,133.1837,128.8956,27.5291,-6.4146,28.0707,154.8202,26.7836,174.1909,146.2443,4.24,1.93,4.41,2.97,1.5,2.03,3.38,1.82,3.12,254.09,226.22,26.565,1.42,1706.02,757.0775,3587.98,44.9446,2.71,1.03,1.9,4.05,1.5,3.14,1.351351614,1.093670307,1.094489943,1.535146374,0.974550095,111.7420118,117.066397,116.9452607,107.7710055,126.2276786,24.46595331,0.406011234,-0.26856,0.0098,1.89413,150.9102,18.2408,139.2469,156.9791,29.4591,-47.2051,29.471,156.6574,24.8758,-0.72948,0.85542,-0.15769,-0.44375,-0.64711,143.5,33.935,-0.25204,-0.10901,0,6.15532,0.55813,161.71,123.19,54.715,0.7371,4.5744,-0.25596,-0.05724,1.15225,1.406019492,1.406253972,1.558287756,60.7506,61.0436,61.1724,-0.38931,-0.20144,-0.20169,304.55,33.973,1.7090757,0.9048213,14.5776,-0.20935,-0.02613,137.9,67.269,0.79003,4.44556,0.39348,-0.19953,-0.08061,8.1307,66.37,40.344,1.23,20,1.5,2,12,60,12.58,68
0.76349,0.66587,46.61126424,128.9872184,43.03536016,175.987624,172.0600438,70.25105625,12.01796459,113.9657416,109.0208543,130.9586011,115.7951161,111.7992636,113.667944,106.3169859,119.7727249,109.898475,1.465925792,1.542436549,1.462278892,1.240140346,1.013842787,1.51581869,1.460301006,1.568360837,1.091524362,-0.2094,0.03457,6.1028,-0.5077,-0.27441,-0.06619,-0.65047,0.70315,-0.71476,0.25515,-0.05379,0.43938,-0.78709,-0.48832,227.6719,134.661,130.2705,129.6051,26.9903,-9.4999,28.2382,153.0384,26.6949,173.4726,146.0994,4.13,2.41,3.19,2.97,1.5,2.03,3.38,1.82,3.12,250.43,225.18,27.38,1.4,1709.18,772.7457,3587.8,47.6155,2.71,1.03,1.9,4.05,1.5,3.14,1.351351614,1.093670307,1.094489943,1.535146374,0.974550095,111.7420118,117.066397,116.9452607,107.7710055,126.2276786,24.46595331,0.406011234,-0.26856,0.0098,1.89413,150.9102,18.2408,139.2469,156.9791,29.4591,-47.2051,29.471,156.6574,24.8758,-0.72948,0.85542,-0.15769,-0.44375,-0.64711,143.5,33.935,-0.25204,-0.10901,0,6.15532,0.55813,161.71,123.19,54.715,0.7371,4.5744,-0.25596,-0.05724,1.15225,1.406019492,1.406253972,1.558287756,60.7506,61.0436,61.1724,-0.38931,-0.20144,-0.20169,304.55,33.973,1.7090757,0.9048213,14.5776,-0.20935,-0.02613,137.9,67.269,0.79003,4.44556,0.39348,-0.19953,-0.08061,8.1307,66.37,40.344,1.23,20,1.5,2,12,60,12.58,74
0.80805,0.60261,55.14140225,149.0178141,47.04665344,169.3986995,72.07857942,170.2003422,35.70976341,113.7372309,107.5049742,128.5007068,114.68182,113.3130521,114.9938139,107.1076984,117.3899935,112.5755826,1.473714282,1.542985041,1.462450773,1.23955058,1.014874534,1.515367598,1.460480766,1.548656621,1.094634312,-0.20684,0.03246,6.2362,-0.53789,-0.26894,-0.06816,-0.66504,0.70255,-0.70582,0.26205,-0.47842,0.43817,-0.79106,-0.48385,235.3226,128.1686,138.731,136.6895,26.6215,-25.2085,28.4307,149.7643,25.7477,171.0182,145.9243,5.14,1.57,4.23,2.97,1.5,2.03,3.38,1.82,3.12,253.32,226.47,25.803,1.41,1714.46,758.1749,3571.48,79.8076,2.71,1.03,1.9,4.05,1.5,3.14,1.351351614,1.093670307,1.094489943,1.535146374,0.974550095,111.7420118,117.066397,116.9452607,107.7710055,126.2276786,24.46595331,0.406011234,-0.26856,0.0098,1.89413,150.9102,18.2408,139.2469,156.9791,29.4591,-47.2051,29.471,156.6574,24.8758,-0.72948,0.85542,-0.15769,-0.44375,-0.64711,143.5,33.935,-0.25204,-0.10901,0,6.15532,0.55813,161.71,123.19,54.715,0.7371,4.5744,-0.25596,-0.05724,1.15225,1.406019492,1.406253972,1.558287756,60.7506,61.0436,61.1724,-0.38931,-0.20144,-0.20169,304.55,33.973,1.7090757,0.9048213,14.5776,-0.20935,-0.02613,137.9,67.269,0.79003,4.44556,0.39348,-0.19953,-0.08061,8.1307,66.37,40.344,1.23,20,1.5,2,12,60,12.58,62
0.46892,0.24137,50.79761217,152.2967323,41.25899687,170.4455692,175.5269723,67.12508466,33.82154276,114.4087591,109.7180303,127.9590733,116.5621856,111.8363684,111.8770874,106.4462719,117.5005018,109.9541176,1.462861971,1.535425956,1.459172596,1.238518633,1.013419812,1.515900653,1.460766918,1.55781696,1.092162494,-0.20884,-0.03699,6.0481,-0.50665,-0.27742,-0.0633,-0.65863,0.7031,-0.70201,0.26188,-0.48866,0.44104,-0.79217,-0.48878,225.6699,131.3565,138.661,133.5143,26.9675,-29.7301,27.6565,155.9317,26.9771,171.2804,146.4296,5.06,1.57,7,2.97,1.5,2.03,3.38,1.82,3.12,322.73,306.23,27.141,1.47,1720.18,733.2529,3595.62,42.5429,2.71,1.03,1.9,4.05,1.5,3.14,1.351351614,1.093670307,1.094489943,1.535146374,0.974550095,111.7420118,117.066397,116.9452607,107.7710055,126.2276786,24.46595331,0.406011234,-0.26856,0.0098,1.89413,150.9102,18.2408,139.2469,156.9791,29.4591,-47.2051,29.471,156.6574,24.8758,-0.72948,0.85542,-0.15769,-0.44375,-0.64711,143.5,33.935,-0.25204,-0.10901,0,6.15532,0.55813,161.71,123.19,54.715,0.7371,4.5744,-0.25596,-0.05724,1.15225,1.406019492,1.406253972,1.558287756,60.7506,61.0436,61.1724,-0.38931,-0.20144,-0.20169,304.55,33.973,1.7090757,0.9048213,14.5776,-0.20935,-0.02613,137.9,67.269,0.79003,4.44556,0.39348,-0.19953,-0.08061,8.1307,66.37,40.344,1.23,20,1.5,2,12,60,12.58,70
0.48472,0.35251,48.96661103,161.7734515,9.571856966,177.4214947,173.7106463,69.63302708,43.46314093,113.6929452,108.4855512,129.2252309,116.0906413,112.9368128,111.1477203,106.2957183,118.371208,110.2409648,1.462791063,1.537394179,1.460664919,1.238245313,1.013386107,1.514349912,1.461280461,1.552672373,1.095155746,-0.21352,-0.0104,5.886,-0.51419,-0.27779,-0.0622,-0.66608,0.70723,-0.70578,0.25789,-0.49403,0.4427,-0.79134,-0.48807,226.9728,132.0741,139.0794,135.8116,25.9324,-20.6651,27.6958,163.9338,26.5762,171.6698,146.3484,4.99,1.55,5.93,2.97,1.5,2.03,3.38,1.82,3.12,282.88,263.58,27.003,1.42,1719.76,723.4169,3593.81,74.2025,2.71,1.03,1.9,4.05,1.5,3.14,1.351351614,1.093670307,1.094489943,1.535146374,0.974550095,111.7420118,117.066397,116.9452607,107.7710055,126.2276786,24.46595331,0.406011234,-0.26856,0.0098,1.89413,150.9102,18.2408,139.2469,156.9791,29.4591,-47.2051,29.471,156.6574,24.8758,-0.72948,0.85542,-0.15769,-0.44375,-0.64711,143.5,33.935,-0.25204,-0.10901,0,6.15532,0.55813,161.71,123.19,54.715,0.7371,4.5744,-0.25596,-0.05724,1.15225,1.406019492,1.406253972,1.558287756,60.7506,61.0436,61.1724,-0.38931,-0.20144,-0.20169,304.55,33.973,1.7090757,0.9048213,14.5776,-0.20935,-0.02613,137.9,67.269,0.79003,4.44556,0.39348,-0.19953,-0.08061,8.1307,66.37,40.344,1.23,20,1.5,2,12,60,12.58,70
0.24833,0.09949,50.38684035,144.0593188,21.4665187,170.8051075,176.9706747,67.24193023,26.13503936,114.4361376,108.6570691,128.4709862,116.379499,114.0208296,111.6217787,105.3487324,117.5913161,109.6667173,1.462894756,1.535148198,1.460429786,1.23834491,1.012962854,1.513902362,1.461133205,1.558961084,1.093726873,-0.2108,-0.02147,5.7738,-0.51028,-0.27623,-0.06094,-0.66005,0.70865,-0.70396,0.25839,-0.48687,0.43959,-0.78888,-0.48843,226.6828,130.8495,137.4213,134.1635,26.3457,-28.7444,28.3966,161.4331,27.2276,172.6721,146.2594,4.76,2.21,7.72,2.97,1.5,2.03,3.38,1.82,3.12,430.47,428.75,27.23,1.57,1720.67,670.9908,3600.24,53.7376,2.71,1.03,1.9,4.05,1.5,3.14,1.351351614,1.093670307,1.094489943,1.535146374,0.974550095,111.7420118,117.066397,116.9452607,107.7710055,126.2276786,24.46595331,0.406011234,-0.26856,0.0098,1.89413,150.9102,18.2408,139.2469,156.9791,29.4591,-47.2051,29.471,156.6574,24.8758,-0.72948,0.85542,-0.15769,-0.44375,-0.64711,143.5,33.935,-0.25204,-0.10901,0,6.15532,0.55813,161.71,123.19,54.715,0.7371,4.5744,-0.25596,-0.05724,1.15225,1.406019492,1.406253972,1.558287756,60.7506,61.0436,61.1724,-0.38931,-0.20144,-0.20169,304.55,33.973,1.7090757,0.9048213,14.5776,-0.20935,-0.02613,137.9,67.269,0.79003,4.44556,0.39348,-0.19953,-0.08061,8.1307,66.37,40.344,1.23,20,1.5,2,12,60,12.58,84
0.21305,0.05474,56.30856767,143.9447452,29.03952941,174.3987829,176.6668836,61.05873977,26.21792804,115.0011826,109.0417599,128.8776166,116.7108014,114.016227,111.8383707,105.200314,117.5806377,109.1657242,1.463863861,1.532705943,1.459716041,1.239043777,1.013099933,1.514544964,1.461806985,1.558981142,1.092941592,-0.20998,-0.01996,6.4172,-0.50745,-0.27569,-0.05988,-0.65786,0.70854,-0.70687,0.258,-0.48769,0.43878,-0.78764,-0.48871,226.3326,129.0371,137.3892,133.654,26.5986,-25.8619,28.4604,160.9936,27.4178,171.9603,145.3943,5,3.35,9.41,2.97,1.5,2.03,3.38,1.82,3.12,560.94,562.72,27.632,1.7,1717.39,680.7111,3598.14,47.8338,2.71,1.03,1.9,4.05,1.5,3.14,1.351351614,1.093670307,1.094489943,1.535146374,0.974550095,111.7420118,117.066397,116.9452607,107.7710055,126.2276786,24.46595331,0.406011234,-0.26856,0.0098,1.89413,150.9102,18.2408,139.2469,156.9791,29.4591,-47.2051,29.471,156.6574,24.8758,-0.72948,0.85542,-0.15769,-0.44375,-0.64711,143.5,33.935,-0.25204,-0.10901,0,6.15532,0.55813,161.71,123.19,54.715,0.7371,4.5744,-0.25596,-0.05724,1.15225,1.406019492,1.406253972,1.558287756,60.7506,61.0436,61.1724,-0.38931,-0.20144,-0.20169,304.55,33.973,1.7090757,0.9048213,14.5776,-0.20935,-0.02613,137.9,67.269,0.79003,4.44556,0.39348,-0.19953,-0.08061,8.1307,66.37,40.344,1.23,20,1.5,2,12,60,12.58,70
0.11741,0.04437,50.42988458,145.4094186,16.73448734,167.8374774,177.3248072,66.99344784,27.88260407,114.1532828,108.4193035,128.215422,116.0776048,114.3769921,111.6614101,105.3670782,117.6390684,109.7799874,1.463432626,1.534731159,1.462227703,1.24038322,1.013173234,1.513409438,1.460625429,1.557169021,1.094560605,-0.21022,-0.01841,6.6249,-0.51093,-0.27643,-0.06152,-0.65769,0.71368,-0.70715,0.25626,-0.48616,0.43982,-0.78657,-0.48614,226.6845,130.7598,137.3087,134.1265,24.9528,-22.3357,28.4185,161.2633,27.0867,172.0963,145.2379,6.11,4.63,9.55,2.97,1.5,2.03,3.38,1.82,3.12,701.45,706.23,26.33,1.83,1708.99,786.0859,3594.65,61.698,2.71,1.03,1.9,4.05,1.5,3.14,1.351351614,1.093670307,1.094489943,1.535146374,0.974550095,111.7420118,117.066397,116.9452607,107.7710055,126.2276786,24.46595331,0.406011234,-0.26856,0.0098,1.89413,150.9102,18.2408,139.2469,156.9791,29.4591,-47.2051,29.471,156.6574,24.8758,-0.72948,0.85542,-0.15769,-0.44375,-0.64711,143.5,33.935,-0.25204,-0.10901,0,6.15532,0.55813,161.71,123.19,54.715,0.7371,4.5744,-0.25596,-0.05724,1.15225,1.406019492,1.406253972,1.558287756,60.7506,61.0436,61.1724,-0.38931,-0.20144,-0.20169,304.55,33.973,1.7090757,0.9048213,14.5776,-0.20935,-0.02613,137.9,67.269,0.79003,4.44556,0.39348,-0.19953,-0.08061,8.1307,66.37,40.344,1.23,20,1.5,2,12,60,12.58,70
0.26036,0.14196,52.380875,142.1572683,25.99620867,171.52805,178.9795428,65.19297865,24.22738493,114.5053137,108.7553846,128.5335205,116.5722162,113.8770526,111.7992939,105.2972546,117.4477396,109.575328,1.46355637,1.534217722,1.460289851,1.238554466,1.012897534,1.514266244,1.461131684,1.558571259,1.093407502,-0.20997,-0.02202,6.1192,-0.50928,-0.27624,-0.06079,-0.65865,0.70888,-0.70513,0.25879,-0.48726,0.43931,-0.78935,-0.48864,226.4711,130.2593,137.4555,133.6395,26.7598,-26.7283,28.4394,161.2747,27.3561,172.7045,146.1818,4.77,2.2,7.15,2.97,1.5,2.03,3.38,1.82,3.12,420.67,419.58,27.3,1.55,1720.38,680.7648,3599.44,49.382,2.71,1.03,1.9,4.05,1.5,3.14,1.351351614,1.093670307,1.094489943,1.535146374,0.974550095,111.7420118,117.066397,116.9452607,107.7710055,126.2276786,24.46595331,0.406011234,-0.26856,0.0098,1.89413,150.9102,18.2408,139.2469,156.9791,29.4591,-47.2051,29.471,156.6574,24.8758,-0.72948,0.85542,-0.15769,-0.44375,-0.64711,143.5,33.935,-0.25204,-0.10901,0,6.15532,0.55813,161.71,123.19,54.715,0.7371,1.17623,-0.2523,-0.06364,6.2859,1.408052087,1.405666472,1.561275378,60.4623,61.1774,60.8837,-0.3869,-0.20304,-0.20237,293,28.237,1.78781,0.89525,14.8576,-0.19038,-0.02356,137.9,67.269,0.79003,4.44556,0.39348,-0.19953,-0.08061,8.1307,66.37,40.344,1.23,20,1.5,2,12,60,12.58,86
0.26036,0.14196,52.380875,142.1572683,25.99620867,171.52805,178.9795428,65.19297865,24.22738493,114.5053137,108.7553846,128.5335205,116.5722162,113.8770526,111.7992939,105.2972546,117.4477396,109.575328,1.46355637,1.534217722,1.460289851,1.238554466,1.012897534,1.514266244,1.461131684,1.558571259,1.093407502,-0.20997,-0.02202,6.1192,-0.50928,-0.27624,-0.06079,-0.65865,0.70888,-0.70513,0.25879,-0.48726,0.43931,-0.78935,-0.48864,226.4711,130.2593,137.4555,133.6395,26.7598,-26.7283,28.4394,161.2747,27.3561,172.7045,146.1818,4.77,2.2,7.15,2.97,1.5,2.03,3.38,1.82,3.12,420.67,419.58,27.3,1.55,1720.38,680.7648,3599.44,49.382,2.71,1.03,1.9,4.05,1.5,3.14,1.351351614,1.093670307,1.094489943,1.535146374,0.974550095,111.7420118,117.066397,116.9452607,107.7710055,126.2276786,24.46595331,0.406011234,-0.26856,0.0098,1.89413,150.9102,18.2408,139.2469,156.9791,29.4591,-47.2051,29.471,156.6574,24.8758,-0.72948,0.85542,-0.15769,-0.44375,-0.64711,143.5,33.935,-0.25204,-0.10901,0,6.15532,0.55813,161.71,123.19,54.715,0.7371,1.20345,-0.26699,-0.09688,9.0628,1.406896583,1.406817626,1.564677766,56.5581,59.8167,59.86,-0.3665,-0.19447,-0.19458,277.7,52.734,1.78781,0.89525,14.8576,-0.19038,-0.02356,137.9,67.269,0.79003,4.44556,0.39348,-0.19953,-0.08061,8.1307,66.37,40.344,1.23,20,1.5,2,12,60,12.58,88
0.26036,0.14196,52.380875,142.1572683,25.99620867,171.52805,178.9795428,65.19297865,24.22738493,114.5053137,108.7553846,128.5335205,116.5722162,113.8770526,111.7992939,105.2972546,117.4477396,109.575328,1.46355637,1.534217722,1.460289851,1.238554466,1.012897534,1.514266244,1.461131684,1.558571259,1.093407502,-0.20997,-0.02202,6.1192,-0.50928,-0.27624,-0.06079,-0.65865,0.70888,-0.70513,0.25879,-0.48726,0.43931,-0.78935,-0.48864,226.4711,130.2593,137.4555,133.6395,26.7598,-26.7283,28.4394,161.2747,27.3561,172.7045,146.1818,4.77,2.2,7.15,2.97,1.5,2.03,3.38,1.82,3.12,420.67,419.58,27.3,1.55,1720.38,680.7648,3599.44,49.382,2.71,1.03,1.9,4.05,1.5,3.14,1.351351614,1.093670307,1.094489943,1.535146374,0.974550095,111.7420118,117.066397,116.9452607,107.7710055,126.2276786,24.46595331,0.406011234,-0.26856,0.0098,1.89413,150.9102,18.2408,139.2469,156.9791,29.4591,-47.2051,29.471,156.6574,24.8758,-0.72948,0.85542,-0.15769,-0.44375,-0.64711,143.5,33.935,-0.25204,-0.10901,0,6.15532,0.55813,161.71,123.19,54.715,0.7371,1.32345,-0.25957,-0.05959,8.7546,1.4065951,1.406529642,1.562906667,60.4491,60.9739,61.0696,-0.37996,-0.19781,-0.19793,272.95,29.18,1.78781,0.89525,14.8576,-0.19038,-0.02356,137.9,67.269,0.79003,4.44556,0.39348,-0.19953,-0.08061,8.1307,66.37,40.344,1.23,20,1.5,2,12,60,12.58,90
0.26036,0.14196,52.380875,142.1572683,25.99620867,171.52805,178.9795428,65.19297865,24.22738493,114.5053137,108.7553846,128.5335205,116.5722162,113.8770526,111.7992939,105.2972546,117.4477396,109.575328,1.46355637,1.534217722,1.460289851,1.238554466,1.012897534,1.514266244,1.461131684,1.558571259,1.093407502,-0.20997,-0.02202,6.1192,-0.50928,-0.27624,-0.06079,-0.65865,0.70888,-0.70513,0.25879,-0.48726,0.43931,-0.78935,-0.48864,226.4711,130.2593,137.4555,133.6395,26.7598,-26.7283,28.4394,161.2747,27.3561,172.7045,146.1818,4.77,2.2,7.15,2.97,1.5,2.03,3.38,1.82,3.12,420.67,419.58,27.3,1.55,1720.38,680.7648,3599.44,49.382,2.71,1.03,1.9,4.05,1.5,3.14,1.351351614,1.093670307,1.094489943,1.535146374,0.974550095,111.7420118,117.066397,116.9452607,107.7710055,126.2276786,24.46595331,0.406011234,-0.26856,0.0098,1.89413,150.9102,18.2408,139.2469,156.9791,29.4591,-47.2051,29.471,156.6574,24.8758,-0.72948,0.85542,-0.15769,-0.44375,-0.64711,143.5,33.935,-0.25204,-0.10901,0,6.15532,0.55813,161.71,123.19,54.715,0.7371,1.32502,-0.24308,-0.02129,4.2126,1.407448993,1.407370297,1.556045331,70.7485,58.6718,58.7401,-0.43517,-0.18508,-0.18519,257.75,13.806,1.78781,0.89525,14.8576,-0.19038,-0.02356,137.9,67.269,0.79003,4.44556,0.39348,-0.19953,-0.08061,8.1307,66.37,40.344,1.23,20,1.5,2,12,60,12.58,90
0.26036,0.14196,52.380875,142.1572683,25.99620867,171.52805,178.9795428,65.19297865,24.22738493,114.5053137,108.7553846,128.5335205,116.5722162,113.8770526,111.7992939,105.2972546,117.4477396,109.575328,1.46355637,1.534217722,1.460289851,1.238554466,1.012897534,1.514266244,1.461131684,1.558571259,1.093407502,-0.20997,-0.02202,6.1192,-0.50928,-0.27624,-0.06079,-0.65865,0.70888,-0.70513,0.25879,-0.48726,0.43931,-0.78935,-0.48864,226.4711,130.2593,137.4555,133.6395,26.7598,-26.7283,28.4394,161.2747,27.3561,172.7045,146.1818,4.77,2.2,7.15,2.97,1.5,2.03,3.38,1.82,3.12,420.67,419.58,27.3,1.55,1720.38,680.7648,3599.44,49.382,2.71,1.03,1.9,4.05,1.5,3.14,1.351351614,1.093670307,1.094489943,1.535146374,0.974550095,111.7420118,117.066397,116.9452607,107.7710055,126.2276786,24.46595331,0.406011234,-0.26856,0.0098,1.89413,150.9102,18.2408,139.2469,156.9791,29.4591,-47.2051,29.471,156.6574,24.8758,-0.72948,0.85542,-0.15769,-0.44375,-0.64711,143.5,33.935,-0.25204,-0.10901,0,6.15532,0.55813,161.71,123.19,54.715,0.7371,1.32509,-0.24572,-0.03133,5.1556,1.40587876,1.405818799,1.558430323,67.6004,59.6374,59.7384,-0.41629,-0.18545,-0.18558,267.8,13.804,1.78781,0.89525,14.8576,-0.19038,-0.02356,137.9,67.269,0.79003,4.44556,0.39348,-0.19953,-0.08061,8.1307,66.37,40.344,1.23,20,1.5,2,12,60,12.58,84
0.26036,0.14196,52.380875,142.1572683,25.99620867,171.52805,178.9795428,65.19297865,24.22738493,114.5053137,108.7553846,128.5335205,116.5722162,113.8770526,111.7992939,105.2972546,117.4477396,109.575328,1.46355637,1.534217722,1.460289851,1.238554466,1.012897534,1.514266244,1.461131684,1.558571259,1.093407502,-0.20997,-0.02202,6.1192,-0.50928,-0.27624,-0.06079,-0.65865,0.70888,-0.70513,0.25879,-0.48726,0.43931,-0.78935,-0.48864,226.4711,130.2593,137.4555,133.6395,26.7598,-26.7283,28.4394,161.2747,27.3561,172.7045,146.1818,4.77,2.2,7.15,2.97,1.5,2.03,3.38,1.82,3.12,420.67,419.58,27.3,1.55,1720.38,680.7648,3599.44,49.382,2.71,1.03,1.9,4.05,1.5,3.14,1.351351614,1.093670307,1.094489943,1.535146374,0.974550095,111.7420118,117.066397,116.9452607,107.7710055,126.2276786,24.46595331,0.406011234,-0.26856,0.0098,1.89413,150.9102,18.2408,139.2469,156.9791,29.4591,-47.2051,29.471,156.6574,24.8758,-0.72948,0.85542,-0.15769,-0.44375,-0.64711,143.5,33.935,-0.25204,-0.10901,0,6.15532,0.55813,161.71,123.19,54.715,0.7371,1.07723,-0.22381,-0.0395,2.3055,1.406537722,1.406595596,1.556420234,67.8851,60.6869,60.6758,-0.42077,-0.19601,-0.19594,331.96,13.794,1.78781,0.89525,14.8576,-0.19038,-0.02356,137.9,67.269,0.79003,4.44556,0.39348,-0.19953,-0.08061,8.1307,66.37,40.344,1.23,20,1.5,2,12,60,12.58,90
0.26036,0.14196,52.380875,142.1572683,25.99620867,171.52805,178.9795428,65.19297865,24.22738493,114.5053137,108.7553846,128.5335205,116.5722162,113.8770526,111.7992939,105.2972546,117.4477396,109.575328,1.46355637,1.534217722,1.460289851,1.238554466,1.012897534,1.514266244,1.461131684,1.558571259,1.093407502,-0.20997,-0.02202,6.1192,-0.50928,-0.27624,-0.06079,-0.65865,0.70888,-0.70513,0.25879,-0.48726,0.43931,-0.78935,-0.48864,226.4711,130.2593,137.4555,133.6395,26.7598,-26.7283,28.4394,161.2747,27.3561,172.7045,146.1818,4.77,2.2,7.15,2.97,1.5,2.03,3.38,1.82,3.12,420.67,419.58,27.3,1.55,1720.38,680.7648,3599.44,49.382,2.71,1.03,1.9,4.05,1.5,3.14,1.351351614,1.093670307,1.094489943,1.535146374,0.974550095,111.7420118,117.066397,116.9452607,107.7710055,126.2276786,24.46595331,0.406011234,-0.26856,0.0098,1.89413,150.9102,18.2408,139.2469,156.9791,29.4591,-47.2051,29.471,156.6574,24.8758,-0.72948,0.85542,-0.15769,-0.44375,-0.64711,143.5,33.935,-0.25204,-0.10901,0,6.15532,0.55813,161.71,123.19,54.715,0.7371,1.31849,-0.23704,-0.02056,1.8201,1.405534046,1.408159601,1.555030694,70.0686,61.2532,61.64,-0.43301,-0.19543,-0.19684,271.99,13.819,1.78781,0.89525,14.8576,-0.19038,-0.02356,137.9,67.269,0.79003,4.44556,0.39348,-0.19953,-0.08061,8.1307,66.37,40.344,1.23,20,1.5,2,12,60,12.58,84
0.26036,0.14196,52.380875,142.1572683,25.99620867,171.52805,178.9795428,65.19297865,24.22738493,114.5053137,108.7553846,128.5335205,116.5722162,113.8770526,111.7992939,105.2972546,117.4477396,109.575328,1.46355637,1.534217722,1.460289851,1.238554466,1.012897534,1.514266244,1.461131684,1.558571259,1.093407502,-0.20997,-0.02202,6.1192,-0.50928,-0.27624,-0.06079,-0.65865,0.70888,-0.70513,0.25879,-0.48726,0.43931,-0.78935,-0.48864,226.4711,130.2593,137.4555,133.6395,26.7598,-26.7283,28.4394,161.2747,27.3561,172.7045,146.1818,4.77,2.2,7.15,2.97,1.5,2.03,3.38,1.82,3.12,420.67,419.58,27.3,1.55,1720.38,680.7648,3599.44,49.382,2.71,1.03,1.9,4.05,1.5,3.14,1.351351614,1.093670307,1.094489943,1.535146374,0.974550095,111.7420118,117.066397,116.9452607,107.7710055,126.2276786,24.46595331,0.406011234,-0.26856,0.0098,1.89413,150.9102,18.2408,139.2469,156.9791,29.4591,-47.2051,29.471,156.6574,24.8758,-0.72948,0.85542,-0.15769,-0.44375,-0.64711,143.5,33.935,-0.25204,-0.10901,0,6.15532,0.55813,161.71,123.19,54.715,0.7371,1.03166,-0.2446,-0.02649,5.0777,1.404714641,1.406945678,1.557085959,69.6445,59.0915,59.0386,-0.42661,-0.17944,-0.18384,297.4,20.337,1.78781,0.89525,14.8576,-0.19038,-0.02356,137.9,67.269,0.79003,4.44556,0.39348,-0.19953,-0.08061,8.1307,66.37,40.344,1.23,20,1.5,2,12,60,12.58,86
0.26036,0.14196,52.380875,142.1572683,25.99620867,171.52805,178.9795428,65.19297865,24.22738493,114.5053137,108.7553846,128.5335205,116.5722162,113.8770526,111.7992939,105.2972546,117.4477396,109.575328,1.46355637,1.534217722,1.460289851,1.238554466,1.012897534,1.514266244,1.461131684,1.558571259,1.093407502,-0.20997,-0.02202,6.1192,-0.50928,-0.27624,-0.06079,-0.65865,0.70888,-0.70513,0.25879,-0.48726,0.43931,-0.78935,-0.48864,226.4711,130.2593,137.4555,133.6395,26.7598,-26.7283,28.4394,161.2747,27.3561,172.7045,146.1818,4.77,2.2,7.15,2.97,1.5,2.03,3.38,1.82,3.12,420.67,419.58,27.3,1.55,1720.38,680.7648,3599.44,49.382,2.71,1.03,1.9,4.05,1.5,3.14,1.351351614,1.093670307,1.094489943,1.535146374,0.974550095,111.7420118,117.066397,116.9452607,107.7710055,126.2276786,24.46595331,0.406011234,-0.26856,0.0098,1.89413,150.9102,18.2408,139.2469,156.9791,29.4591,-47.2051,29.471,156.6574,24.8758,-0.72948,0.85542,-0.15769,-0.44375,-0.64711,143.5,33.935,-0.25204,-0.10901,0,6.15532,0.55813,161.71,123.19,54.715,0.7371,0.84771,-0.25591,-0.04726,2.5994,1.407132675,1.402199461,1.559603023,65.7499,56.2218,58.626,-0.41413,-0.17479,-0.15132,305,33.844,1.78781,0.89525,14.8576,-0.19038,-0.02356,137.9,67.269,0.79003,4.44556,0.39348,-0.19953,-0.08061,8.1307,66.37,40.344,1.23,20,1.5,2,12,60,12.58,78
0.26036,0.14196,52.380875,142.1572683,25.99620867,171.52805,178.9795428,65.19297865,24.22738493,114.5053137,108.7553846,128.5335205,116.5722162,113.8770526,111.7992939,105.2972546,117.4477396,109.575328,1.46355637,1.534217722,1.460289851,1.238554466,1.012897534,1.514266244,1.461131684,1.558571259,1.093407502,-0.20997,-0.02202,6.1192,-0.50928,-0.27624,-0.06079,-0.65865,0.70888,-0.70513,0.25879,-0.48726,0.43931,-0.78935,-0.48864,226.4711,130.2593,137.4555,133.6395,26.7598,-26.7283,28.4394,161.2747,27.3561,172.7045,146.1818,4.77,2.2,7.15,2.97,1.5,2.03,3.38,1.82,3.12,420.67,419.58,27.3,1.55,1720.38,680.7648,3599.44,49.382,2.71,1.03,1.9,4.05,1.5,3.14,1.351351614,1.093670307,1.094489943,1.535146374,0.974550095,111.7420118,117.066397,116.9452607,107.7710055,126.2276786,24.46595331,0.406011234,-0.26856,0.0098,1.89413,150.9102,18.2408,139.2469,156.9791,29.4591,-47.2051,29.471,156.6574,24.8758,-0.72948,0.85542,-0.15769,-0.44375,-0.64711,143.5,33.935,-0.25204,-0.10901,0,6.15532,0.55813,161.71,123.19,54.715,0.7371,0.56356,-0.25373,-0.04696,0.3533,1.41092218,1.402597887,1.57686184,57.4096,62.9614,64.4207,-0.33619,-0.15015,-0.22216,300.39,30.886,1.78781,0.89525,14.8576,-0.19038,-0.02356,137.9,67.269,0.79003,4.44556,0.39348,-0.19953,-0.08061,8.1307,66.37,40.344,1.23,20,1.5,2,12,60,12.58,84
0.26036,0.14196,52.380875,142.1572683,25.99620867,171.52805,178.9795428,65.19297865,24.22738493,114.5053137,108.7553846,128.5335205,116.5722162,113.8770526,111.7992939,105.2972546,117.4477396,109.575328,1.46355637,1.534217722,1.460289851,1.238554466,1.012897534,1.514266244,1.461131684,1.558571259,1.093407502,-0.20997,-0.02202,6.1192,-0.50928,-0.27624,-0.06079,-0.65865,0.70888,-0.70513,0.25879,-0.48726,0.43931,-0.78935,-0.48864,226.4711,130.2593,137.4555,133.6395,26.7598,-26.7283,28.4394,161.2747,27.3561,172.7045,146.1818,4.77,2.2,7.15,2.97,1.5,2.03,3.38,1.82,3.12,420.67,419.58,27.3,1.55,1720.38,680.7648,3599.44,49.382,2.71,1.03,1.9,4.05,1.5,3.14,1.351351614,1.093670307,1.094489943,1.535146374,0.974550095,111.7420118,117.066397,116.9452607,107.7710055,126.2276786,24.46595331,0.406011234,-0.26856,0.0098,1.89413,150.9102,18.2408,139.2469,156.9791,29.4591,-47.2051,29.471,156.6574,24.8758,-0.72948,0.85542,-0.15769,-0.44375,-0.64711,143.5,33.935,-0.25204,-0.10901,0,6.15532,0.55813,161.71,123.19,54.715,0.7371,0.75567,-0.21404,-0.04548,2.6455,1.440980545,1.390205339,1.564201613,68.3451,58.8799,58.9056,-0.39544,-0.02921,-0.19292,295.5,12.151,1.78781,0.89525,14.8576,-0.19038,-0.02356,137.9,67.269,0.79003,4.44556,0.39348,-0.19953,-0.08061,8.1307,66.37,40.344,1.23,20,1.5,2,12,60,12.58,84
0.26036,0.14196,52.380875,142.1572683,25.99620867,171.52805,178.9795428,65.19297865,24.22738493,114.5053137,108.7553846,128.5335205,116.5722162,113.8770526,111.7992939,105.2972546,117.4477396,109.575328,1.46355637,1.534217722,1.460289851,1.238554466,1.012897534,1.514266244,1.461131684,1.558571259,1.093407502,-0.20997,-0.02202,6.1192,-0.50928,-0.27624,-0.06079,-0.65865,0.70888,-0.70513,0.25879,-0.48726,0.43931,-0.78935,-0.48864,226.4711,130.2593,137.4555,133.6395,26.7598,-26.7283,28.4394,161.2747,27.3561,172.7045,146.1818,4.77,2.2,7.15,2.97,1.5,2.03,3.38,1.82,3.12,420.67,419.58,27.3,1.55,1720.38,680.7648,3599.44,49.382,2.71,1.03,1.9,4.05,1.5,3.14,1.351351614,1.093670307,1.094489943,1.535146374,0.974550095,111.7420118,117.066397,116.9452607,107.7710055,126.2276786,24.46595331,0.406011234,-0.26856,0.0098,1.89413,150.9102,18.2408,139.2469,156.9791,29.4591,-47.2051,29.471,156.6574,24.8758,-0.72948,0.85542,-0.15769,-0.44375,-0.64711,143.5,33.935,-0.25204,-0.10901,0,6.15532,0.55813,161.71,123.19,54.715,0.7371,1.02748,-0.21445,-0.04343,2.4114,1.386889362,1.427913558,1.557172096,68.7059,58.7441,65.1921,-0.41878,-0.16537,-0.20906,299.01,13.799,1.78781,0.89525,14.8576,-0.19038,-0.02356,137.9,67.269,0.79003,4.44556,0.39348,-0.19953,-0.08061,8.1307,66.37,40.344,1.23,20,1.5,2,12,60,12.58,84
0.26036,0.14196,52.380875,142.1572683,25.99620867,171.52805,178.9795428,65.19297865,24.22738493,114.5053137,108.7553846,128.5335205,116.5722162,113.8770526,111.7992939,105.2972546,117.4477396,109.575328,1.46355637,1.534217722,1.460289851,1.238554466,1.012897534,1.514266244,1.461131684,1.558571259,1.093407502,-0.20997,-0.02202,6.1192,-0.50928,-0.27624,-0.06079,-0.65865,0.70888,-0.70513,0.25879,-0.48726,0.43931,-0.78935,-0.48864,226.4711,130.2593,137.4555,133.6395,26.7598,-26.7283,28.4394,161.2747,27.3561,172.7045,146.1818,4.77,2.2,7.15,2.97,1.5,2.03,3.38,1.82,3.12,420.67,419.58,27.3,1.55,1720.38,680.7648,3599.44,49.382,2.71,1.03,1.9,4.05,1.5,3.14,1.351351614,1.093670307,1.094489943,1.535146374,0.974550095,111.7420118,117.066397,116.9452607,107.7710055,126.2276786,24.46595331,0.406011234,-0.26856,0.0098,1.89413,150.9102,18.2408,139.2469,156.9791,29.4591,-47.2051,29.471,156.6574,24.8758,-0.72948,0.85542,-0.15769,-0.44375,-0.64711,143.5,33.935,-0.25204,-0.10901,0,6.15532,0.55813,161.71,123.19,54.715,0.7371,0.29844,-0.26358,-0.0566,4.5671,1.403724417,1.401945378,1.561459042,64.9089,55.1229,54.0621,-0.40782,-0.13236,-0.12691,358.06,53.904,1.78781,0.89525,14.8576,-0.19038,-0.02356,137.9,67.269,0.79003,4.44556,0.39348,-0.19953,-0.08061,8.1307,66.37,40.344,1.23,20,1.5,2,12,60,12.58,84
0.26036,0.14196,52.380875,142.1572683,25.99620867,171.52805,178.9795428,65.19297865,24.22738493,114.5053137,108.7553846,128.5335205,116.5722162,113.8770526,111.7992939,105.2972546,117.4477396,109.575328,1.46355637,1.534217722,1.460289851,1.238554466,1.012897534,1.514266244,1.461131684,1.558571259,1.093407502,-0.20997,-0.02202,6.1192,-0.50928,-0.27624,-0.06079,-0.65865,0.70888,-0.70513,0.25879,-0.48726,0.43931,-0.78935,-0.48864,226.4711,130.2593,137.4555,133.6395,26.7598,-26.7283,28.4394,161.2747,27.3561,172.7045,146.1818,4.77,2.2,7.15,2.97,1.5,2.03,3.38,1.82,3.12,420.67,419.58,27.3,1.55,1720.38,680.7648,3599.44,49.382,2.71,1.03,1.9,4.05,1.5,3.14,1.351351614,1.093670307,1.094489943,1.535146374,0.974550095,111.7420118,117.066397,116.9452607,107.7710055,126.2276786,24.46595331,0.406011234,-0.26856,0.0098,1.89413,150.9102,18.2408,139.2469,156.9791,29.4591,-47.2051,29.471,156.6574,24.8758,-0.72948,0.85542,-0.15769,-0.44375,-0.64711,143.5,33.935,-0.25204,-0.10901,0,6.15532,0.55813,161.71,123.19,54.715,0.7371,0.25756,-0.21452,-0.02379,4.2309,1.405193757,1.406955712,1.569841782,75.2024,58.8828,67.1354,-0.40782,0.18675,-0.22186,386.58,28,1.78781,0.89525,14.8576,-0.19038,-0.02356,137.9,67.269,0.79003,4.44556,0.39348,-0.19953,-0.08061,8.1307,66.37,40.344,1.23,20,1.5,2,12,60,12.58,82
0.61372,0.37626,52.50789736,153.5995863,41.52444859,168.974522,176.9273051,65.60623899,34.92646015,114.411404,109.8064381,127.8622276,116.4602398,111.8377247,111.3468691,106.7538236,117.6993188,110.0134957,1.462916319,1.534862923,1.460339684,1.240730572,1.013829747,1.515018755,1.460929422,1.555417686,1.09194176,-0.21035,-0.00055,6.3075,-0.50783,-0.27844,-0.06414,-0.65633,0.70576,-0.71502,0.26303,-0.48618,0.44155,-0.79237,-0.48919,226.6273,132.0102,139.7446,132.5649,25.8668,-22.6782,27.814,151.5359,26.8882,171.3076,146.2776,4.83,1.56,6.01,2.97,1.5,2.03,4.06,1.85,3.12,280.24,255.4,27.106,1.44,1707.42,766.7088,3592,45.8129,2.71,1.03,1.9,2,1,1,1.351174925,1.085133033,1.08555943,1.083884879,0.973923382,113.5258349,116.8721897,117.8205465,107.9087492,124.1597732,0.074099367,0.124329119,-0.27076,0.00755,7.44741,160.8934,22.3288,175.346,179.9288,30.4754,-35.2914,30.5619,30.2363,25.2953,-0.73802,0.8378,-0.38396,-0.4531,-0.66544,91.14,33.999,-0.25089,-0.10865,0,6.15737,0.558,161.71,123.19,54.714,0.74907,5.49795,-0.23066,-0.03108,2.9017,1.39245,1.394990094,2.163257702,61.5662,61.5965,61.6134,-0.20895,-0.25249,-0.25274,162.71,0,6.0219779,1.9126339,10.1662,-0.20732,-0.02413,91.37,40.332,0.79875,4.46774,0.38892,-0.203,-0.07991,8.3156,66.44,40.427,1.23,20,1.5,1,16,80,16.777,92
0.61372,0.37626,52.50789736,153.5995863,41.52444859,168.974522,176.9273051,65.60623899,34.92646015,114.411404,109.8064381,127.8622276,116.4602398,111.8377247,111.3468691,106.7538236,117.6993188,110.0134957,1.462916319,1.534862923,1.460339684,1.240730572,1.013829747,1.515018755,1.460929422,1.555417686,1.09194176,-0.21035,-0.00055,6.3075,-0.50783,-0.27844,-0.06414,-0.65633,0.70576,-0.71502,0.26303,-0.48618,0.44155,-0.79237,-0.48919,226.6273,132.0102,139.7446,132.5649,25.8668,-22.6782,27.814,151.5359,26.8882,171.3076,146.2776,4.83,1.56,6.01,2.97,1.5,2.03,4.06,1.85,3.12,280.24,255.4,27.106,1.44,1707.42,766.7088,3592,45.8129,2.71,1.03,1.9,2,1,1,1.351174925,1.085133033,1.08555943,1.083884879,0.973923382,113.5258349,116.8721897,117.8205465,107.9087492,124.1597732,0.074099367,0.124329119,-0.27076,0.00755,7.44741,160.8934,22.3288,175.346,179.9288,30.4754,-35.2914,30.5619,30.2363,25.2953,-0.73802,0.8378,-0.38396,-0.4531,-0.66544,91.14,33.999,-0.25089,-0.10865,0,6.15737,0.558,161.71,123.19,54.714,0.74907,3.66168,-0.24342,-0.06091,3.4201,1.394731054,1.39693145,2.154295832,49.0911,60.7338,60.6592,-0.18522,-0.25391,-0.25388,183.54,14.449,6.0219779,1.9126339,10.1662,-0.20732,-0.02413,91.37,40.332,0.79875,4.46774,0.38892,-0.203,-0.07991,8.3156,66.44,40.427,1.23,20,1.5,1.5,16,80,16.777,92
0.61372,0.37626,52.50789736,153.5995863,41.52444859,168.974522,176.9273051,65.60623899,34.92646015,114.411404,109.8064381,127.8622276,116.4602398,111.8377247,111.3468691,106.7538236,117.6993188,110.0134957,1.462916319,1.534862923,1.460339684,1.240730572,1.013829747,1.515018755,1.460929422,1.555417686,1.09194176,-0.21035,-0.00055,6.3075,-0.50783,-0.27844,-0.06414,-0.65633,0.70576,-0.71502,0.26303,-0.48618,0.44155,-0.79237,-0.48919,226.6273,132.0102,139.7446,132.5649,25.8668,-22.6782,27.814,151.5359,26.8882,171.3076,146.2776,4.83,1.56,6.01,2.97,1.5,2.03,4.06,1.85,3.12,280.24,255.4,27.106,1.44,1707.42,766.7088,3592,45.8129,2.71,1.03,1.9,2,1,1,1.351174925,1.085133033,1.08555943,1.083884879,0.973923382,113.5258349,116.8721897,117.8205465,107.9087492,124.1597732,0.074099367,0.124329119,-0.27076,0.00755,7.44741,160.8934,22.3288,175.346,179.9288,30.4754,-35.2914,30.5619,30.2363,25.2953,-0.73802,0.8378,-0.38396,-0.4531,-0.66544,91.14,33.999,-0.25089,-0.10865,0,6.15737,0.558,161.71,123.19,54.714,0.74907,3.94789,-0.25201,-0.09777,4.5296,1.397650615,1.3974669,2.146405929,44.0472,59.5447,59.5103,-0.18279,-0.24251,-0.24259,168.19,38.954,6.0219779,1.9126339,10.1662,-0.20732,-0.02413,91.37,40.332,0.79875,4.46774,0.38892,-0.203,-0.07991,8.3156,66.44,40.427,1.23,20,1.5,1.5,16,80,16.777,80
0.61372,0.37626,52.50789736,153.5995863,41.52444859,168.974522,176.9273051,65.60623899,34.92646015,114.411404,109.8064381,127.8622276,116.4602398,111.8377247,111.3468691,106.7538236,117.6993188,110.0134957,1.462916319,1.534862923,1.460339684,1.240730572,1.013829747,1.515018755,1.460929422,1.555417686,1.09194176,-0.21035,-0.00055,6.3075,-0.50783,-0.27844,-0.06414,-0.65633,0.70576,-0.71502,0.26303,-0.48618,0.44155,-0.79237,-0.48919,226.6273,132.0102,139.7446,132.5649,25.8668,-22.6782,27.814,151.5359,26.8882,171.3076,146.2776,4.83,1.56,6.01,2.97,1.5,2.03,4.06,1.85,3.12,280.24,255.4,27.106,1.44,1707.42,766.7088,3592,45.8129,2.71,1.03,1.9,2,1,1,1.351174925,1.085133033,1.08555943,1.083884879,0.973923382,113.5258349,116.8721897,117.8205465,107.9087492,124.1597732,0.074099367,0.124329119,-0.27076,0.00755,7.44741,160.8934,22.3288,175.346,179.9288,30.4754,-35.2914,30.5619,30.2363,25.2953,-0.73802,0.8378,-0.38396,-0.4531,-0.66544,91.14,33.999,-0.25089,-0.10865,0,6.15737,0.558,161.71,123.19,54.714,0.74907,2.81554,-0.24569,-0.03552,1.2254,1.393901342,1.396290412,2.155271672,52.468,60.9125,60.302,-0.19369,-0.24536,-0.24507,178.39,0,6.0219779,1.9126339,10.1662,-0.20732,-0.02413,91.37,40.332,0.79875,4.46774,0.38892,-0.203,-0.07991,8.3156,66.44,40.427,1.23,20,1.5,1.5,16,80,16.777,94
0.61372,0.37626,52.50789736,153.5995863,41.52444859,168.974522,176.9273051,65.60623899,34.92646015,114.411404,109.8064381,127.8622276,116.4602398,111.8377247,111.3468691,106.7538236,117.6993188,110.0134957,1.462916319,1.534862923,1.460339684,1.240730572,1.013829747,1.515018755,1.460929422,1.555417686,1.09194176,-0.21035,-0.00055,6.3075,-0.50783,-0.27844,-0.06414,-0.65633,0.70576,-0.71502,0.26303,-0.48618,0.44155,-0.79237,-0.48919,226.6273,132.0102,139.7446,132.5649,25.8668,-22.6782,27.814,151.5359,26.8882,171.3076,146.2776,4.83,1.56,6.01,2.97,1.5,2.03,4.06,1.85,3.12,280.24,255.4,27.106,1.44,1707.42,766.7088,3592,45.8129,2.71,1.03,1.9,2,1,1,1.351174925,1.085133033,1.08555943,1.083884879,0.973923382,113.5258349,116.8721897,117.8205465,107.9087492,124.1597732,0.074099367,0.124329119,-0.27076,0.00755,7.44741,160.8934,22.3288,175.346,179.9288,30.4754,-35.2914,30.5619,30.2363,25.2953,-0.73802,0.8378,-0.38396,-0.4531,-0.66544,91.14,33.999,-0.25089,-0.10865,0,6.15737,0.558,161.71,123.19,54.714,0.74907,5.60765,-0.24627,-0.05338,4.0585,1.396430702,1.396194852,2.15120245,49.1111,60.1813,60.1412,-0.18774,-0.24741,-0.24744,163.51,15.388,6.0219779,1.9126339,10.1662,-0.20732,-0.02413,82.46,48.175,0.79875,4.46774,0.38892,-0.203,-0.07991,8.3156,69.71,27.931,1.19,20,1.5,3,16,80,16.777,92
0.61372,0.37626,52.50789736,153.5995863,41.52444859,168.974522,176.9273051,65.60623899,34.92646015,114.411404,109.8064381,127.8622276,116.4602398,111.8377247,111.3468691,106.7538236,117.6993188,110.0134957,1.462916319,1.534862923,1.460339684,1.240730572,1.013829747,1.515018755,1.460929422,1.555417686,1.09194176,-0.21035,-0.00055,6.3075,-0.50783,-0.27844,-0.06414,-0.65633,0.70576,-0.71502,0.26303,-0.48618,0.44155,-0.79237,-0.48919,226.6273,132.0102,139.7446,132.5649,25.8668,-22.6782,27.814,151.5359,26.8882,171.3076,146.2776,4.83,1.56,6.01,2.97,1.5,2.03,4.06,1.85,3.12,280.24,255.4,27.106,1.44,1707.42,766.7088,3592,45.8129,2.71,1.03,1.9,2,1,1,1.351174925,1.085133033,1.08555943,1.083884879,0.973923382,113.5258349,116.8721897,117.8205465,107.9087492,124.1597732,0.074099367,0.124329119,-0.27076,0.00755,7.44741,160.8934,22.3288,175.346,179.9288,30.4754,-35.2914,30.5619,30.2363,25.2953,-0.73802,0.8378,-0.38396,-0.4531,-0.66544,91.14,33.999,-0.25089,-0.10865,0,6.15737,0.558,161.71,123.19,54.714,0.74907,5.62654,-0.23471,-0.03359,0.3969,1.395491543,1.395314301,2.158130323,64.2303,59.6123,59.5654,-0.22137,-0.23965,-0.23964,148.42,0,6.0219779,1.9126339,10.1662,-0.20732,-0.02413,91.37,40.332,0.79875,4.46774,0.38892,-0.203,-0.07991,8.3156,66.44,40.427,1.23,20,1.5,1.5,16,80,16.777,92
0.61372,0.37626,52.50789736,153.5995863,41.52444859,168.974522,176.9273051,65.60623899,34.92646015,114.411404,109.8064381,127.8622276,116.4602398,111.8377247,111.3468691,106.7538236,117.6993188,110.0134957,1.462916319,1.534862923,1.460339684,1.240730572,1.013829747,1.515018755,1.460929422,1.555417686,1.09194176,-0.21035,-0.00055,6.3075,-0.50783,-0.27844,-0.06414,-0.65633,0.70576,-0.71502,0.26303,-0.48618,0.44155,-0.79237,-0.48919,226.6273,132.0102,139.7446,132.5649,25.8668,-22.6782,27.814,151.5359,26.8882,171.3076,146.2776,4.83,1.56,6.01,2.97,1.5,2.03,4.06,1.85,3.12,280.24,255.4,27.106,1.44,1707.42,766.7088,3592,45.8129,2.71,1.03,1.9,2,1,1,1.351174925,1.085133033,1.08555943,1.083884879,0.973923382,113.5258349,116.8721897,117.8205465,107.9087492,124.1597732,0.074099367,0.124329119,-0.27076,0.00755,7.44741,160.8934,22.3288,175.346,179.9288,30.4754,-35.2914,30.5619,30.2363,25.2953,-0.73802,0.8378,-0.38396,-0.4531,-0.66544,91.14,33.999,-0.25089,-0.10865,0,6.15737,0.558,161.71,123.19,54.714,0.74907,5.63131,-0.23732,-0.03504,0.4489,1.39460706,1.394394419,2.155895536,58.9392,60.0009,59.969,-0.2092,-0.23891,-0.23891,158.42,0,6.0219779,1.9126339,10.1662,-0.20732,-0.02413,91.37,40.332,0.79875,4.46774,0.38892,-0.203,-0.07991,8.3156,66.44,40.427,1.23,20,1.5,1.5,16,80,16.777,92
0.61372,0.37626,52.50789736,153.5995863,41.52444859,168.974522,176.9273051,65.60623899,34.92646015,114.411404,109.8064381,127.8622276,116.4602398,111.8377247,111.3468691,106.7538236,117.6993188,110.0134957,1.462916319,1.534862923,1.460339684,1.240730572,1.013829747,1.515018755,1.460929422,1.555417686,1.09194176,-0.21035,-0.00055,6.3075,-0.50783,-0.27844,-0.06414,-0.65633,0.70576,-0.71502,0.26303,-0.48618,0.44155,-0.79237,-0.48919,226.6273,132.0102,139.7446,132.5649,25.8668,-22.6782,27.814,151.5359,26.8882,171.3076,146.2776,4.83,1.56,6.01,2.97,1.5,2.03,4.06,1.85,3.12,280.24,255.4,27.106,1.44,1707.42,766.7088,3592,45.8129,2.71,1.03,1.9,2,1,1,1.351174925,1.085133033,1.08555943,1.083884879,0.973923382,113.5258349,116.8721897,117.8205465,107.9087492,124.1597732,0.074099367,0.124329119,-0.27076,0.00755,7.44741,160.8934,22.3288,175.346,179.9288,30.4754,-35.2914,30.5619,30.2363,25.2953,-0.73802,0.8378,-0.38396,-0.4531,-0.66544,91.14,33.999,-0.25089,-0.10865,0,6.15737,0.558,161.71,123.19,54.714,0.74907,5.62365,-0.23868,-0.03602,0.8555,1.394344807,1.394112373,2.155230532,57.907,59.6041,59.5573,-0.20786,-0.23604,-0.23605,163.52,0,6.0219779,1.9126339,10.1662,-0.20732,-0.02413,91.37,40.332,0.79875,4.46774,0.38892,-0.203,-0.07991,8.3156,66.44,40.427,1.23,20,1.5,1.5,16,80,16.777,88
0.61372,0.37626,52.50789736,153.5995863,41.52444859,168.974522,176.9273051,65.60623899,34.92646015,114.411404,109.8064381,127.8622276,116.4602398,111.8377247,111.3468691,106.7538236,117.6993188,110.0134957,1.462916319,1.534862923,1.460339684,1.240730572,1.013829747,1.515018755,1.460929422,1.555417686,1.09194176,-0.21035,-0.00055,6.3075,-0.50783,-0.27844,-0.06414,-0.65633,0.70576,-0.71502,0.26303,-0.48618,0.44155,-0.79237,-0.48919,226.6273,132.0102,139.7446,132.5649,25.8668,-22.6782,27.814,151.5359,26.8882,171.3076,146.2776,4.83,1.56,6.01,2.97,1.5,2.03,4.06,1.85,3.12,280.24,255.4,27.106,1.44,1707.42,766.7088,3592,45.8129,2.71,1.03,1.9,2,1,1,1.351174925,1.085133033,1.08555943,1.083884879,0.973923382,113.5258349,116.8721897,117.8205465,107.9087492,124.1597732,0.074099367,0.124329119,-0.27076,0.00755,7.44741,160.8934,22.3288,175.346,179.9288,30.4754,-35.2914,30.5619,30.2363,25.2953,-0.73802,0.8378,-0.38396,-0.4531,-0.66544,91.14,33.999,-0.25089,-0.10865,0,6.15737,0.558,161.71,123.19,54.714,0.74907,5.49795,-0.23066,-0.03108,2.9017,1.39245,1.394990094,2.163257702,61.5662,61.5965,61.6134,-0.20895,-0.25249,-0.25274,162.71,0,6.0219779,1.9126339,10.1662,-0.20732,-0.02413,91.37,40.332,0.79875,4.46774,0.38892,-0.203,-0.07991,8.3156,66.44,40.427,1.23,20,1.5,1.5,16,80,16.777,96
0.61372,0.37626,52.50789736,153.5995863,41.52444859,168.974522,176.9273051,65.60623899,34.92646015,114.411404,109.8064381,127.8622276,116.4602398,111.8377247,111.3468691,106.7538236,117.6993188,110.0134957,1.462916319,1.534862923,1.460339684,1.240730572,1.013829747,1.515018755,1.460929422,1.555417686,1.09194176,-0.21035,-0.00055,6.3075,-0.50783,-0.27844,-0.06414,-0.65633,0.70576,-0.71502,0.26303,-0.48618,0.44155,-0.79237,-0.48919,226.6273,132.0102,139.7446,132.5649,25.8668,-22.6782,27.814,151.5359,26.8882,171.3076,146.2776,4.83,1.56,6.01,2.97,1.5,2.03,4.06,1.85,3.12,280.24,255.4,27.106,1.44,1707.42,766.7088,3592,45.8129,2.71,1.03,1.9,2,1,1,1.351174925,1.085133033,1.08555943,1.083884879,0.973923382,113.5258349,116.8721897,117.8205465,107.9087492,124.1597732,0.074099367,0.124329119,-0.27076,0.00755,7.44741,160.8934,22.3288,175.346,179.9288,30.4754,-35.2914,30.5619,30.2363,25.2953,-0.73802,0.8378,-0.38396,-0.4531,-0.66544,91.14,33.999,-0.25089,-0.10865,0,6.15737,0.558,161.71,123.19,54.714,0.74907,0.58844,-0.23285,-0.03204,2.6712,1.394019312,1.394218392,2.160452715,59.5216,61.633,61.6152,-0.20498,-0.25102,-0.25146,301.02,30.382,6.0219779,1.9126339,10.1662,-0.20732,-0.02413,91.37,40.332,0.79875,4.46774,0.38892,-0.203,-0.07991,8.3156,66.44,40.427,1.23,20,1.5,1.5,16,80,16.777,92
0.61372,0.37626,52.50789736,153.5995863,41.52444859,168.974522,176.9273051,65.60623899,34.92646015,114.411404,109.8064381,127.8622276,116.4602398,111.8377247,111.3468691,106.7538236,117.6993188,110.0134957,1.462916319,1.534862923,1.460339684,1.240730572,1.013829747,1.515018755,1.460929422,1.555417686,1.09194176,-0.21035,-0.00055,6.3075,-0.50783,-0.27844,-0.06414,-0.65633,0.70576,-0.71502,0.26303,-0.48618,0.44155,-0.79237,-0.48919,226.6273,132.0102,139.7446,132.5649,25.8668,-22.6782,27.814,151.5359,26.8882,171.3076,146.2776,4.83,1.56,6.01,2.97,1.5,2.03,4.06,1.85,3.12,280.24,255.4,27.106,1.44,1707.42,766.7088,3592,45.8129,2.71,1.03,1.9,2,1,1,1.351174925,1.085133033,1.08555943,1.083884879,0.973923382,113.5258349,116.8721897,117.8205465,107.9087492,124.1597732,0.074099367,0.124329119,-0.27076,0.00755,7.44741,160.8934,22.3288,175.346,179.9288,30.4754,-35.2914,30.5619,30.2363,25.2953,-0.73802,0.8378,-0.38396,-0.4531,-0.66544,91.14,33.999,-0.25089,-0.10865,0,6.15737,0.558,161.71,123.19,54.714,0.74907,2.60475,-0.23586,-0.03412,0.4864,1.393157372,1.395244261,2.155430569,62.669,59.9286,59.4302,-0.21786,-0.2337,-0.23689,187.83,6.573,6.0219779,1.9126339,10.1662,-0.20732,-0.02413,91.37,40.332,0.79875,4.46774,0.38892,-0.203,-0.07991,8.3156,66.44,40.427,1.23,20,1.5,1.5,16,80,16.777,94
0.61372,0.37626,52.50789736,153.5995863,41.52444859,168.974522,176.9273051,65.60623899,34.92646015,114.411404,109.8064381,127.8622276,116.4602398,111.8377247,111.3468691,106.7538236,117.6993188,110.0134957,1.462916319,1.534862923,1.460339684,1.240730572,1.013829747,1.515018755,1.460929422,1.555417686,1.09194176,-0.21035,-0.00055,6.3075,-0.50783,-0.27844,-0.06414,-0.65633,0.70576,-0.71502,0.26303,-0.48618,0.44155,-0.79237,-0.48919,226.6273,132.0102,139.7446,132.5649,25.8668,-22.6782,27.814,151.5359,26.8882,171.3076,146.2776,4.83,1.56,6.01,2.97,1.5,2.03,4.06,1.85,3.12,280.24,255.4,27.106,1.44,1707.42,766.7088,3592,45.8129,2.71,1.03,1.9,2,1,1,1.351174925,1.085133033,1.08555943,1.083884879,0.973923382,113.5258349,116.8721897,117.8205465,107.9087492,124.1597732,0.074099367,0.124329119,-0.27076,0.00755,7.44741,160.8934,22.3288,175.346,179.9288,30.4754,-35.2914,30.5619,30.2363,25.2953,-0.73802,0.8378,-0.38396,-0.4531,-0.66544,91.14,33.999,-0.25089,-0.10865,0,6.15737,0.558,161.71,123.19,54.714,0.74907,1.85422,-0.24298,-0.05304,4.1645,1.389854833,1.395865306,2.15753743,56.938,58.9056,55.9134,-0.20559,-0.20712,-0.22698,195.66,20.034,6.0219779,1.9126339,10.1662,-0.20732,-0.02413,91.37,40.332,0.79875,4.46774,0.38892,-0.203,-0.07991,8.3156,66.44,40.427,1.23,20,1.5,1.5,16,80,16.777,92
0.61372,0.37626,52.50789736,153.5995863,41.52444859,168.974522,176.9273051,65.60623899,34.92646015,114.411404,109.8064381,127.8622276,116.4602398,111.8377247,111.3468691,106.7538236,117.6993188,110.0134957,1.462916319,1.534862923,1.460339684,1.240730572,1.013829747,1.515018755,1.460929422,1.555417686,1.09194176,-0.21035,-0.00055,6.3075,-0.50783,-0.27844,-0.06414,-0.65633,0.70576,-0.71502,0.26303,-0.48618,0.44155,-0.79237,-0.48919,226.6273,132.0102,139.7446,132.5649,25.8668,-22.6782,27.814,151.5359,26.8882,171.3076,146.2776,4.83,1.56,6.01,2.97,1.5,2.03,4.06,1.85,3.12,280.24,255.4,27.106,1.44,1707.42,766.7088,3592,45.8129,2.71,1.03,1.9,2,1,1,1.351174925,1.085133033,1.08555943,1.083884879,0.973923382,113.5258349,116.8721897,117.8205465,107.9087492,124.1597732,0.074099367,0.124329119,-0.27076,0.00755,7.44741,160.8934,22.3288,175.346,179.9288,30.4754,-35.2914,30.5619,30.2363,25.2953,-0.73802,0.8378,-0.38396,-0.4531,-0.66544,91.14,33.999,-0.25089,-0.10865,0,6.15737,0.558,161.71,123.19,54.714,0.74907,2.03418,-0.24456,-0.06894,4.9668,1.387254501,1.399219715,2.157952267,55.875,62.2631,54.3456,-0.20632,-0.20216,-0.21855,165.41,14.742,6.0219779,1.9126339,10.1662,-0.20732,-0.02413,82.46,48.175,0.79875,4.46774,0.38892,-0.203,-0.07991,8.3156,69.71,27.931,1.19,20,1.5,3,16,80,16.777,86
0.61372,0.37626,52.50789736,153.5995863,41.52444859,168.974522,176.9273051,65.60623899,34.92646015,114.411404,109.8064381,127.8622276,116.4602398,111.8377247,111.3468691,106.7538236,117.6993188,110.0134957,1.462916319,1.534862923,1.460339684,1.240730572,1.013829747,1.515018755,1.460929422,1.555417686,1.09194176,-0.21035,-0.00055,6.3075,-0.50783,-0.27844,-0.06414,-0.65633,0.70576,-0.71502,0.26303,-0.48618,0.44155,-0.79237,-0.48919,226.6273,132.0102,139.7446,132.5649,25.8668,-22.6782,27.814,151.5359,26.8882,171.3076,146.2776,4.83,1.56,6.01,2.97,1.5,2.03,4.06,1.85,3.12,280.24,255.4,27.106,1.44,1707.42,766.7088,3592,45.8129,2.71,1.03,1.9,2,1,1,1.351174925,1.085133033,1.08555943,1.083884879,0.973923382,113.5258349,116.8721897,117.8205465,107.9087492,124.1597732,0.074099367,0.124329119,-0.27076,0.00755,7.44741,160.8934,22.3288,175.346,179.9288,30.4754,-35.2914,30.5619,30.2363,25.2953,-0.73802,0.8378,-0.38396,-0.4531,-0.66544,91.14,33.999,-0.25089,-0.10865,0,6.15737,0.558,161.71,123.19,54.714,0.74907,1.57035,-0.2444,-0.03583,2.7739,1.392572975,1.39490858,2.155548178,56.9265,63.416,57.4297,-0.2012,-0.22657,-0.23494,178.26,0,6.0219779,1.9126339,10.1662,-0.20732,-0.02413,91.37,40.332,0.79875,4.46774,0.38892,-0.203,-0.07991,8.3156,66.44,40.427,1.23,20,1.5,1.5,16,80,16.777,92
0.61372,0.37626,52.50789736,153.5995863,41.52444859,168.974522,176.9273051,65.60623899,34.92646015,114.411404,109.8064381,127.8622276,116.4602398,111.8377247,111.3468691,106.7538236,117.6993188,110.0134957,1.462916319,1.534862923,1.460339684,1.240730572,1.013829747,1.515018755,1.460929422,1.555417686,1.09194176,-0.21035,-0.00055,6.3075,-0.50783,-0.27844,-0.06414,-0.65633,0.70576,-0.71502,0.26303,-0.48618,0.44155,-0.79237,-0.48919,226.6273,132.0102,139.7446,132.5649,25.8668,-22.6782,27.814,151.5359,26.8882,171.3076,146.2776,4.83,1.56,6.01,2.97,1.5,2.03,4.06,1.85,3.12,280.24,255.4,27.106,1.44,1707.42,766.7088,3592,45.8129,2.71,1.03,1.9,2,1,1,1.351174925,1.085133033,1.08555943,1.083884879,0.973923382,113.5258349,116.8721897,117.8205465,107.9087492,124.1597732,0.074099367,0.124329119,-0.27076,0.00755,7.44741,160.8934,22.3288,175.346,179.9288,30.4754,-35.2914,30.5619,30.2363,25.2953,-0.73802,0.8378,-0.38396,-0.4531,-0.66544,91.14,33.999,-0.25089,-0.10865,0,6.15737,0.558,161.71,123.19,54.714,0.74907,3.23836,-0.24032,-0.03557,1.9313,1.394060034,1.395029189,2.157251308,57.4075,73.3425,65.3831,-0.19427,-0.3243,-0.27178,148.38,0,6.0219779,1.9126339,10.1662,-0.20732,-0.02413,91.37,40.332,0.79875,4.46774,0.38892,-0.203,-0.07991,8.3156,66.44,40.427,1.23,20,1.5,1.5,16,80,16.777,94
0.61372,0.37626,52.50789736,153.5995863,41.52444859,168.974522,176.9273051,65.60623899,34.92646015,114.411404,109.8064381,127.8622276,116.4602398,111.8377247,111.3468691,106.7538236,117.6993188,110.0134957,1.462916319,1.534862923,1.460339684,1.240730572,1.013829747,1.515018755,1.460929422,1.555417686,1.09194176,-0.21035,-0.00055,6.3075,-0.50783,-0.27844,-0.06414,-0.65633,0.70576,-0.71502,0.26303,-0.48618,0.44155,-0.79237,-0.48919,226.6273,132.0102,139.7446,132.5649,25.8668,-22.6782,27.814,151.5359,26.8882,171.3076,146.2776,4.83,1.56,6.01,2.97,1.5,2.03,4.06,1.85,3.12,280.24,255.4,27.106,1.44,1707.42,766.7088,3592,45.8129,2.71,1.03,1.9,2,1,1,1.351174925,1.085133033,1.08555943,1.083884879,0.973923382,113.5258349,116.8721897,117.8205465,107.9087492,124.1597732,0.074099367,0.124329119,-0.27076,0.00755,7.44741,160.8934,22.3288,175.346,179.9288,30.4754,-35.2914,30.5619,30.2363,25.2953,-0.73802,0.8378,-0.38396,-0.4531,-0.66544,91.14,33.999,-0.25089,-0.10865,0,6.15737,0.558,161.71,123.19,54.714,0.74907,2.43367,-0.24213,-0.0393,2.2902,1.394421392,1.394268744,2.156516941,57.0974,62.1551,62.2419,-0.19462,-0.26754,-0.25449,158.38,0,6.0219779,1.9126339,10.1662,-0.20732,-0.02413,91.37,40.332,0.79875,4.46774,0.38892,-0.203,-0.07991,8.3156,66.44,40.427,1.23,20,1.5,1.5,16,80,16.777,92
0.61372,0.37626,52.50789736,153.5995863,41.52444859,168.974522,176.9273051,65.60623899,34.92646015,114.411404,109.8064381,127.8622276,116.4602398,111.8377247,111.3468691,106.7538236,117.6993188,110.0134957,1.462916319,1.534862923,1.460339684,1.240730572,1.013829747,1.515018755,1.460929422,1.555417686,1.09194176,-0.21035,-0.00055,6.3075,-0.50783,-0.27844,-0.06414,-0.65633,0.70576,-0.71502,0.26303,-0.48618,0.44155,-0.79237,-0.48919,226.6273,132.0102,139.7446,132.5649,25.8668,-22.6782,27.814,151.5359,26.8882,171.3076,146.2776,4.83,1.56,6.01,2.97,1.5,2.03,4.06,1.85,3.12,280.24,255.4,27.106,1.44,1707.42,766.7088,3592,45.8129,2.71,1.03,1.9,2,1,1,1.351174925,1.085133033,1.08555943,1.083884879,0.973923382,113.5258349,116.8721897,117.8205465,107.9087492,124.1597732,0.074099367,0.124329119,-0.27076,0.00755,7.44741,160.8934,22.3288,175.346,179.9288,30.4754,-35.2914,30.5619,30.2363,25.2953,-0.73802,0.8378,-0.38396,-0.4531,-0.66544,91.14,33.999,-0.25089,-0.10865,0,6.15737,0.558,161.71,123.19,54.714,0.74907,3.14731,-0.2352,-0.03162,2.6516,1.391881291,1.394673989,2.16590927,57.9619,60.9358,64.3318,-0.19136,-0.25561,-0.26849,162.68,0,6.0219779,1.9126339,10.1662,-0.20732,-0.02413,91.37,40.332,0.79875,4.46774,0.38892,-0.203,-0.07991,8.3156,66.44,40.427,1.23,20,1.5,1.5,16,80,16.777,94
0.61372,0.37626,52.50789736,153.5995863,41.52444859,168.974522,176.9273051,65.60623899,34.92646015,114.411404,109.8064381,127.8622276,116.4602398,111.8377247,111.3468691,106.7538236,117.6993188,110.0134957,1.462916319,1.534862923,1.460339684,1.240730572,1.013829747,1.515018755,1.460929422,1.555417686,1.09194176,-0.21035,-0.00055,6.3075,-0.50783,-0.27844,-0.06414,-0.65633,0.70576,-0.71502,0.26303,-0.48618,0.44155,-0.79237,-0.48919,226.6273,132.0102,139.7446,132.5649,25.8668,-22.6782,27.814,151.5359,26.8882,171.3076,146.2776,4.83,1.56,6.01,2.97,1.5,2.03,4.06,1.85,3.12,280.24,255.4,27.106,1.44,1707.42,766.7088,3592,45.8129,2.71,1.03,1.9,2,1,1,1.351174925,1.085133033,1.08555943,1.083884879,0.973923382,113.5258349,116.8721897,117.8205465,107.9087492,124.1597732,0.074099367,0.124329119,-0.27076,0.00755,7.44741,160.8934,22.3288,175.346,179.9288,30.4754,-35.2914,30.5619,30.2363,25.2953,-0.73802,0.8378,-0.38396,-0.4531,-0.66544,91.14,33.999,-0.25089,-0.10865,0,6.15737,0.558,161.71,123.19,54.714,0.74907,2.81838,-0.22436,-0.03263,4.1808,1.388080248,1.396591817,2.162783473,58.1701,73.0405,69.5845,-0.18792,-0.30538,-0.29032,172.52,6.966,6.0219779,1.9126339,10.1662,-0.20732,-0.02413,91.37,40.332,0.79875,4.46774,0.38892,-0.203,-0.07991,8.3156,66.44,40.427,1.23,20,1.5,1.5,16,80,16.777,94
0.61372,0.37626,52.50789736,153.5995863,41.52444859,168.974522,176.9273051,65.60623899,34.92646015,114.411404,109.8064381,127.8622276,116.4602398,111.8377247,111.3468691,106.7538236,117.6993188,110.0134957,1.462916319,1.534862923,1.460339684,1.240730572,1.013829747,1.515018755,1.460929422,1.555417686,1.09194176,-0.21035,-0.00055,6.3075,-0.50783,-0.27844,-0.06414,-0.65633,0.70576,-0.71502,0.26303,-0.48618,0.44155,-0.79237,-0.48919,226.6273,132.0102,139.7446,132.5649,25.8668,-22.6782,27.814,151.5359,26.8882,171.3076,146.2776,4.83,1.56,6.01,2.97,1.5,2.03,4.06,1.85,3.12,280.24,255.4,27.106,1.44,1707.42,766.7088,3592,45.8129,2.71,1.03,1.9,2,1,1,1.351174925,1.085133033,1.08555943,1.083884879,0.973923382,113.5258349,116.8721897,117.8205465,107.9087492,124.1597732,0.074099367,0.124329119,-0.27076,0.00755,7.44741,160.8934,22.3288,175.346,179.9288,30.4754,-35.2914,30.5619,30.2363,25.2953,-0.73802,0.8378,-0.38396,-0.4531,-0.66544,91.14,33.999,-0.25089,-0.10865,0,6.15737,0.558,161.71,123.19,54.714,0.74907,5.65307,-0.23761,-0.03227,2.3011,1.394555708,1.394410554,2.163799685,57.5522,61.2648,61.214,-0.20077,-0.25765,-0.25762,142.73,0,6.0219779,1.9126339,10.1662,-0.20732,-0.02413,91.37,40.332,0.79875,4.46774,0.38892,-0.203,-0.07991,8.3156,66.44,40.427,1.23,20,1.5,1.5,16,80,16.777,90
