harel-coffee/ML-for-Asymmetric-C-sp3-H-Reaction-auto/Data/MLS-model/MLS-LA-LB-LC-LD-Real.csv
Rx-MLS,DA3-4-5-6-MLS,DA4-5-1-2-MLS,DA4-5-6-7-MLS,DA9-10-11-14-MLS,DA9-10-11-12-MLS,DA1-5-6-7-MLS,DA1-12-11-14-MLS,DA1-5-4-20-MLS,DA6-5-4-20-MLS,BA1-2-3-MLS,BA3-4-20-MLS,BA1-5-4-MLS,BA5-4-20-MLS,BA5-6-7-MLS,BA7-6-22-MLS,BA10-11-12-MLS,BA10-11-14-MLS,BA1-12-11-MLS,BA5-1-12-MLS,NB1-12-MLS,NB7-12-MLS,BL1-2-MLS,BL5-6-MLS,BL6-7-MLS,BL11-12-MLS,BL4-20-MLS,BL4-19-MLS,BL6-22-MLS,BL10-15-MLS,HOMO-MLS,LUMO-MLS,DM-MLS,q1-MLS,q2-MLS,q3-MLS,q4-MLS,q5-MLS,q6-MLS,q7-MLS,q8-MLS,q9-MLS,q10-MLS,q11-MLS,q12-MLS,q13-MLS,q14-MLS,q15-MLS,q19-MLS,q20-MLS,q22-MLS,NMR1-MLS,NMR2-MLS,NMR3-MLS,NMR4-MLS,NMR5-MLS,NMR6-MLS,NMR7-MLS,NMR8-MLS,NMR9-MLS,NMR10-MLS,NMR11-MLS,NMR12-MLS,NMR13-MLS,NMR14-MLS,NMR15-MLS,NMR19-MLS,NMR20-MLS,NMR22-MLS,L-R14-MLS,B1-R14-MLS,B5-R14-MLS,L-R15-MLS,B1-R15-MLS,B5-R15-MLS,VF(C6=O7)-MLS,VI(C6=O7)-MLS,VF(C9=O13)-MLS,VI(C9=O13)-MLS,VF(C11-H12)-MLS,VI(C11-H12)-MLS,L-Y-MLS,B1-Y-MLS,B5-Y-MLS,L-X-MLS,B1-X-MLS,B5-X-MLS,L-R16-MLS,B1-R16-MLS,B5-R16-MLS,BV-MLS,BV-SW-MLS,BV-NW-MLS,BV-NE-MLS,BV-SE-MLS,Area-MLS,Volume-MLS,PSA-MLS,Ovality-MLS,HOMO-MC,LUMO-MC,DM-MC,Rx-MC,Ry-MC,Volume-MC,PSA-MC,Ovality-MC,q(Pd)-MC,DM-CP,HOMO-CP,LUMO-CP,Rx-CP,BL1-2-CP,BL1-6-CP,BL1-7-CP,NMR1-CP,NMR2-CP,NMR6-CP,NMR7-CP,q1-CP,q2-CP,q6-CP,Area-CP,Volume-CP,PSA-CP,Ovality-CP,Rx-B,Ry-B,Rz-B,DM-B,HOMO-B,LUMO-B,Area-B,Volume-B,PSA-B,Ovality-B,q(Ag)-A,Rx-A,Ry-A,Rz-A,HOMO-A,LUMO-A,DM-A,Area-A,Volume-A,PSA-A,Ovality-A,Eqv(L),Eqv(B),Eqv(A),Time(H)   ,T (?C),DC(Solvent),%ee
0.31588,143.1594154,25.15297715,173.4122368,142.3180692,17.46194776,6.302304862,98.47569546,96.7827533,94.83810806,113.579904,109.2906454,111.3637497,113.2187521,122.6478241,119.2027027,126.9262153,117.6694392,99.77146544,89.31557591,1.91287082,2.313143699,2.01834508,1.346065666,1.248138821,1.119632692,1.559011316,1.095571674,1.528565532,1.086206683,-0.1892,-0.05717,0.8226,0.57008,-0.65421,0.83092,-0.16462,-0.6137,0.6813,-0.71402,-0.69548,0.82414,-0.35675,-0.52812,0.27095,-0.67624,0.27922,0.28292,0.26581,-0.47733,-0.77846,-581.8196,102.201,16.5185,122.1551,153.0372,27.0601,-36.3902,137.1287,23.1359,168.4536,213.6384,31.8698,-63.1183,32.816,30.0307,27.7474,150.1253,169.5933,4.71,1.55,6.07,2.97,1.5,2.03,1659.01,383.9089,1749.71,444.1599,2767.56,42.7705,2.75,1.02,1.88,2.71,1.03,1.9,2,1,1,35,9.8,57,63.5,9.5,332.55,303.53,71.097,1.52,-0.25089,-0.10865,0,6.15737,0.60887,123.19,54.714,1.35,0.74907,2.4711,-0.24419,-0.0529,3.40459,1.395758783,1.395902444,2.154640103,49.4615,60.7543,60.6024,45.0972,-0.18637,-0.25297,-0.25298,195.67,172.91,20.079,1.3,6.0219779,1.9126339,1.4522648,10.1662,-0.20732,-0.02413,91.37,62.39,40.332,1.2,0.79875,4.46774,0.38892,0.35777,-0.203,-0.07991,8.3156,97.67,66.44,40.427,1.23,20,1.5,1.5,16,80,16.777,68
0.31588,143.1594154,25.15297715,173.4122368,142.3180692,17.46194776,6.302304862,98.47569546,96.7827533,94.83810806,113.579904,109.2906454,111.3637497,113.2187521,122.6478241,119.2027027,126.9262153,117.6694392,99.77146544,89.31557591,1.91287082,2.313143699,2.01834508,1.346065666,1.248138821,1.119632692,1.559011316,1.095571674,1.528565532,1.086206683,-0.1892,-0.05717,0.8226,0.57008,-0.65421,0.83092,-0.16462,-0.6137,0.6813,-0.71402,-0.69548,0.82414,-0.35675,-0.52812,0.27095,-0.67624,0.27922,0.28292,0.26581,-0.47733,-0.77846,-581.8196,102.201,16.5185,122.1551,153.0372,27.0601,-36.3902,137.1287,23.1359,168.4536,213.6384,31.8698,-63.1183,32.816,30.0307,27.7474,150.1253,169.5933,4.71,1.55,6.07,2.97,1.5,2.03,1659.01,383.9089,1749.71,444.1599,2767.56,42.7705,2.75,1.02,1.88,2.71,1.03,1.9,2,1,1,35,9.8,57,63.5,9.5,332.55,303.53,71.097,1.52,-0.25805,-0.10973,0,6.15825,0.61168,123.13,54.677,1.35,0.69974,4.3093,-0.25443,-0.05436,1.15223,1.406029791,1.406432386,1.559021459,60.8212,61.115,61.2353,82.7487,-0.38986,-0.20234,-0.20275,304.57,281.76,33.976,1.47,1.78781,0.89525,0.69034,14.8576,-0.19038,-0.02356,136.53,98.77,66.378,1.32,0.76466,4.5053,0.40063,0.36793,-0.18794,-0.07871,7.5468,96.82,66.16,40.159,1.22,20,1.5,1.5,12,80,13.63,94
0.25665,163.1559658,24.29590939,179.7846392,142.4057298,16.94566624,7.80928977,96.99248683,98.51805416,74.36508022,113.8809354,109.6612058,111.9907103,113.5571131,125.0622956,123.3141827,125.6140058,118.7094352,100.6514187,92.23813594,1.894124312,2.451286373,2.013011459,1.344056797,1.238268106,1.118651929,1.559915123,1.096140144,1.37322053,1.086046811,-0.19009,-0.05982,3.3372,0.57777,-0.65038,0.83071,-0.16245,-0.6481,0.94087,-0.73599,-0.69157,0.8243,-0.35759,-0.51801,0.26463,-0.67303,0.28283,0.28373,0.26976,-0.48184,-0.60843,-587.383,104.4669,16.2815,122.8334,182.302,40.171,82.0731,142.9909,23.1654,169.2276,211.9149,33.1771,-65.4037,32.528,30.0428,27.6973,151.6077,148.843,4.64,1.55,6.1,5.27,1.05,4.2,1700.28,797.4621,1752.4,441.0922,2786.48,15.6872,2.75,1.02,1.88,2.71,1.03,1.9,2,1,1,34.9,5.6,61.7,62.9,9.6,396.34,367.06,73.33,1.6,-0.25805,-0.10973,0,6.15825,0.61168,123.13,54.677,1.35,0.69974,4.3093,-0.25443,-0.05436,1.15223,1.406029791,1.406432386,1.559021459,60.8212,61.115,61.2353,82.7487,-0.38986,-0.20234,-0.20275,304.57,281.76,33.976,1.47,1.78781,0.89525,0.69034,14.8576,-0.19038,-0.02356,136.53,98.77,66.378,1.32,0.76466,4.5053,0.40063,0.36793,-0.18794,-0.07871,7.5468,96.82,66.16,40.159,1.22,20,1.5,1.5,12,80,13.63,80
0.16227,155.4375236,9.702573743,173.1934442,148.3160686,14.52302426,8.282724984,86.57882763,111.0353518,82.84241069,115.6371213,109.110868,113.7296645,112.5656517,124.9999485,123.2184882,124.9249667,112.9564639,114.5367693,94.2901921,1.814663807,2.471373806,1.996218973,1.34610606,1.238336171,1.137717384,1.536537478,1.096994903,1.373081867,1.540459264,-0.18119,-0.06033,6.5704,0.54634,-0.64709,0.83586,-0.17033,-0.65785,0.94297,-0.73284,-0.65238,0.7042,-0.1273,-0.42551,0.22296,-0.6562,0.27335,-0.4502,0.26287,-0.68829,-0.60702,-519.8193,117.168,15.2886,130.1586,166.5207,39.8717,77.6296,125.6491,18.8863,138.4641,160.6204,35.6155,-65.8338,29.0332,154.1274,27.9871,168.2297,154.2927,2.97,1.51,2.03,5.27,1.05,4.2,1698.05,634.2754,1716.15,524.0983,2574.72,327.2579,2.75,1.02,1.88,2.71,6.17,1.49,7.78,1.5,3.14,23.8,6.7,47.1,30.8,10.7,498.97,462.51,77.227,1.73,-0.2582,-0.10974,0.0001,6.15816,0.61175,123.13,54.67,1.35,0.70235,2.3435,-0.24552,-0.02109,1.33336,1.406419107,1.406353917,1.554839652,66.6148,61.3157,61.3096,82.5072,-0.41996,-0.20006,-0.20008,251.54,233.53,13.896,1.37,6.1268961,1.9593751,1.4846016,9.2134,-0.1792,-0.02399,90.57,62.11,40.099,1.19,0.75582,4.5178,0.40418,0.371,-0.1898,-0.08443,7.2601,96.57,66.07,40.078,1.22,20,2,1.5,24,70,5.91,24
0.14303,153.7934383,13.37893775,175.0249911,148.4644414,14.33152222,5.937646533,86.348071,107.2633053,82.74638501,115.6388647,111.2474811,113.8179296,111.8892244,125.0366891,123.1915684,124.9610751,113.0210508,114.1057852,94.25670688,1.809366593,2.480218821,1.998190302,1.344739498,1.238646086,1.138382111,1.560104659,1.09594019,1.373486662,1.540423756,-0.17999,-0.05943,6.4086,0.54641,-0.64847,0.8352,-0.16667,-0.65504,0.94282,-0.7332,-0.65375,0.7045,-0.12693,-0.42642,0.22421,-0.65614,0.27321,-0.45001,0.26586,-0.25296,-0.60754,-515.8787,106.6129,17.4623,122.1486,168.3195,40.5919,79.4354,125.7998,18.7874,138.2953,160.8378,35.569,-65.556,29.0368,154.151,28.0718,155.9208,154.602,4.14,1.92,3.18,5.27,1.05,4.2,1697.52,667.9681,1716.59,554.419,2563.12,309.7389,2.75,1.02,1.88,2.71,6.17,1.49,7.78,1.5,3.14,26.6,7.2,48,40.5,10.8,535.05,498.75,76.25,1.76,-0.2582,-0.10974,0.0001,6.15816,0.61175,123.13,54.67,1.35,0.70235,2.3435,-0.24552,-0.02109,1.33336,1.406419107,1.406353917,1.554839652,66.6148,61.3157,61.3096,82.5072,-0.41996,-0.20006,-0.20008,251.54,233.53,13.896,1.37,6.1268961,1.9593751,1.4846016,9.2134,-0.1792,-0.02399,90.57,62.11,40.099,1.19,0.75582,4.5178,0.40418,0.371,-0.1898,-0.08443,7.2601,96.57,66.07,40.078,1.22,20,2,1.5,24,70,5.91,34
0.13996,155.4872867,14.26059202,174.5449676,149.4090356,15.62900359,7.664625233,87.57047758,114.1411927,77.94035847,114.7949467,111.4351729,113.6204859,115.3705289,124.9219586,123.1842841,125.3022251,112.7393355,114.0802714,94.40197303,1.814236774,2.480160584,1.999776268,1.34213185,1.239691165,1.137816279,1.548216716,1.098867956,1.373699476,1.540501871,-0.17937,-0.05955,6.7181,0.54202,-0.65044,0.83627,-0.17262,-0.65502,0.94449,-0.73441,-0.65555,0.70481,-0.1262,-0.42681,0.22418,-0.65632,0.27185,-0.44926,0.26837,-0.46487,-0.6066,-514.7277,106.3293,14.2766,126.6349,169.1772,40.3228,78.0681,126.2449,18.9981,137.8923,160.5811,35.4187,-65.6435,29.0413,154.0127,27.9183,153.0078,151.7311,4.29,1.57,4.36,5.27,1.05,4.2,1695.79,661.3614,1715.89,530.9808,2562.77,301.8254,2.75,1.02,1.88,2.71,6.17,1.49,7.78,1.5,3.14,30.6,4.8,57,50.3,10.1,551.41,516.77,76.507,1.77,-0.2582,-0.10974,0.0001,6.15816,0.61175,123.13,54.67,1.35,0.70235,2.3435,-0.24552,-0.02109,1.33336,1.406419107,1.406353917,1.554839652,66.6148,61.3157,61.3096,82.5072,-0.41996,-0.20006,-0.20008,251.54,233.53,13.896,1.37,6.1268961,1.9593751,1.4846016,9.2134,-0.1792,-0.02399,90.57,62.11,40.099,1.19,0.75582,4.5178,0.40418,0.371,-0.1898,-0.08443,7.2601,96.57,66.07,40.078,1.22,20,2,1.5,24,70,5.91,27
0.13315,132.8749797,19.26877964,171.548545,148.2740377,14.55042065,15.98894395,86.1889982,99.47954111,103.4878669,115.2365671,111.2971314,112.6837345,112.8588456,124.2305506,123.0462779,124.8637624,112.5597715,113.7958205,93.65926874,1.825663668,2.472819182,2.000000939,1.347056605,1.239882709,1.135930852,1.576255179,1.09356504,1.369216969,1.541078101,-0.18079,-0.0586,5.908,0.54559,-0.65154,0.83703,-0.16556,-0.65348,0.94589,-0.72861,-0.65681,0.70441,-0.12588,-0.43308,0.22631,-0.65719,0.27017,-0.44927,0.26931,-0.04929,-0.60378,-524.73,112.1886,16.9412,119.4159,173.4337,39.1637,67.8261,127.1207,19.0671,138.2244,162.2105,34.9934,-65.1311,29.0445,153.8776,28.0967,153.3294,150.1696,4.12,2.75,3.18,5.27,1.05,4.2,1685.88,590.3428,1715.7,546.7721,2593.71,291.5833,2.75,1.02,1.88,2.71,6.17,1.49,7.78,1.5,3.14,28.6,9.1,49.5,45.2,10.5,551.24,516.43,76.384,1.77,-0.2582,-0.10974,0.0001,6.15816,0.61175,123.13,54.67,1.35,0.70235,2.3435,-0.24552,-0.02109,1.33336,1.406419107,1.406353917,1.554839652,66.6148,61.3157,61.3096,82.5072,-0.41996,-0.20006,-0.20008,251.54,233.53,13.896,1.37,6.1268961,1.9593751,1.4846016,9.2134,-0.1792,-0.02399,90.57,62.11,40.099,1.19,0.75582,4.5178,0.40418,0.371,-0.1898,-0.08443,7.2601,96.57,66.07,40.078,1.22,20,2,1.5,24,70,5.91,29
0.70093,140.1509292,21.26589452,170.9816356,142.5072179,18.40494256,8.523836847,99.8844229,96.96642952,99.04895352,114.7924584,108.9163533,111.9124217,112.0991682,122.7105548,119.0506571,127.1496213,118.1109522,101.0228468,88.28235254,1.899382758,2.262186121,2.008874143,1.347832439,1.248067541,1.120875475,1.537759707,1.095140298,1.528374349,1.086755632,-0.19088,-0.05885,1.2022,0.56327,-0.65466,0.83227,-0.17415,-0.61595,0.68023,-0.71332,-0.69639,0.82237,-0.35968,-0.52933,0.26895,-0.6746,0.28068,0.28347,0.25935,-0.69008,-0.77928,-563.8469,121.0921,15.4129,129.046,146.9877,26.5617,-37.6514,129.6416,22.2715,167.7388,213.7084,31.7537,-62.2461,32.3912,29.6239,28.0718,167.6881,170.1401,2.97,1.51,2.03,2.97,1.5,2.03,1656.94,632.2194,1745.45,1150.8225,2749.94,55.183,2.75,1.02,1.88,2.71,1.03,1.9,2,1,1,23.9,12.1,44.8,28.4,10.3,254.72,219.77,71.418,1.45,-0.25805,-0.10973,0,6.15825,0.61168,123.13,54.677,1.35,0.69974,4.3093,-0.25443,-0.05436,1.15223,1.406029791,1.406432386,1.559021459,60.8212,61.115,61.2353,82.7487,-0.38986,-0.20234,-0.20275,304.57,281.76,33.976,1.47,1.78781,0.89525,0.69034,14.8576,-0.19038,-0.02356,136.53,98.77,66.378,1.32,0.76466,4.5053,0.40063,0.36793,-0.18794,-0.07871,7.5468,96.82,66.16,40.159,1.22,20,1.5,1.5,12,80,13.63,88
0.54916,126.6407778,23.46235015,168.4353838,142.6904011,17.75098434,18.05191277,99.238567,96.3734835,111.3943554,114.3516167,108.8487146,111.1811583,113.9598866,122.2004635,118.4795885,126.7878397,117.9488986,100.6211594,88.11147221,1.90793708,2.248447198,2.01257817,1.35154571,1.248887645,1.119802092,1.558764484,1.094598164,1.527594833,1.086770259,-0.19057,-0.05756,1.8659,0.56252,-0.65735,0.8322,-0.17154,-0.61738,0.68349,-0.70888,-0.69551,0.82269,-0.35881,-0.53404,0.27139,-0.67574,0.27942,0.28321,0.26067,-0.25306,-0.77821,-579.1723,112.7171,15.858,120.5902,156.3324,22.9272,-55.5723,135.3246,22.4512,167.7021,213.9779,31.1436,-62.1121,32.3809,29.6249,28.1282,155.8658,169.0112,4.16,1.92,3.18,2.97,1.5,2.03,1647.31,590.3832,1743.79,1214.3361,2764.68,54.3056,2.75,1.02,1.88,2.71,1.03,1.9,2,1,1,27.9,15.5,47.7,38.5,10,289.87,256.03,71.541,1.49,-0.25805,-0.10973,0,6.15825,0.61168,123.13,54.677,1.35,0.69974,4.3093,-0.25443,-0.05436,1.15223,1.406029791,1.406432386,1.559021459,60.8212,61.115,61.2353,82.7487,-0.38986,-0.20234,-0.20275,304.57,281.76,33.976,1.47,1.78781,0.89525,0.69034,14.8576,-0.19038,-0.02356,136.53,98.77,66.378,1.32,0.76466,4.5053,0.40063,0.36793,-0.18794,-0.07871,7.5468,96.82,66.16,40.159,1.22,20,1.5,1.5,12,80,13.63,90
0.45489,143.07129,19.56261417,169.8271274,142.4451508,17.97810096,10.50857251,100.1899619,109.0441719,90.19526734,114.3018587,111.1610856,112.6512073,116.1657418,122.6145249,118.8995796,127.2969226,117.9749489,101.6221892,88.7212435,1.893579172,2.23812535,2.007661696,1.347078571,1.249580579,1.121784624,1.549794127,1.098319818,1.527471683,1.08662418,-0.18959,-0.05755,2.3335,0.55766,-0.65414,0.8334,-0.17778,-0.61259,0.68195,-0.71478,-0.69677,0.82305,-0.35957,-0.52455,0.26872,-0.6761,0.27912,0.28254,0.26462,-0.46351,-0.77656,-564.4207,107.8419,14.3962,125.6631,149.1202,25.8439,-44.7091,132.5177,22.1595,167.9613,211.6442,31.5277,-62.4166,32.3032,29.6609,27.9314,152.4658,169.4535,4.3,1.58,4.33,2.97,1.5,2.03,1651.48,626.6355,1742.58,1135.337,2741.94,55.4768,2.75,1.02,1.88,2.71,1.03,1.9,2,1,1,30.9,12.4,55.9,45.5,9.9,306.58,274.08,70.34,1.5,-0.25805,-0.10973,0,6.15825,0.61168,123.13,54.677,1.35,0.69974,4.3093,-0.25443,-0.05436,1.15223,1.406029791,1.406432386,1.559021459,60.8212,61.115,61.2353,82.7487,-0.38986,-0.20234,-0.20275,304.57,281.76,33.976,1.47,1.78781,0.89525,0.69034,14.8576,-0.19038,-0.02356,136.53,98.77,66.378,1.32,0.76466,4.5053,0.40063,0.36793,-0.18794,-0.07871,7.5468,96.82,66.16,40.159,1.22,20,1.5,1.5,12,80,13.63,90
0.51409,142.1851204,16.16455477,169.4544958,142.2362881,18.07479073,12.17158246,100.0838297,109.457199,91.78906215,115.3627688,111.738434,113.2443886,114.2085314,122.7193362,118.703128,127.2960942,118.055854,101.7026849,88.66044178,1.897635,2.232697335,2.006733962,1.349556584,1.248585496,1.120952034,1.565188144,1.096529246,1.528536886,1.086724348,-0.19079,-0.05841,1.0081,0.55859,-0.65193,0.83436,-0.17363,-0.61351,0.68197,-0.71269,-0.69479,0.82307,-0.35989,-0.52417,0.26849,-0.6757,0.28023,0.28256,0.26091,-0.25215,-0.77846,-571.3613,106.7413,16.7038,120.9313,145.1622,25.3065,-43.0804,133.6136,22.3092,168.0128,211.6502,31.7554,-62.0897,32.3453,29.7316,28.0157,147.5942,169.2914,4.2,1.93,4.36,2.97,1.5,2.03,1654.17,617.3428,1748.16,569.0092,2746.8,54.4837,2.75,1.02,1.88,2.71,1.03,1.9,2,1,1,28.9,11.9,50.1,43.2,10.5,308.85,274.39,70.146,1.51,-0.25805,-0.10973,0,6.15825,0.61168,123.13,54.677,1.35,0.69974,4.3093,-0.25443,-0.05436,1.15223,1.406029791,1.406432386,1.559021459,60.8212,61.115,61.2353,82.7487,-0.38986,-0.20234,-0.20275,304.57,281.76,33.976,1.47,1.78781,0.89525,0.69034,14.8576,-0.19038,-0.02356,136.53,98.77,66.378,1.32,0.76466,4.5053,0.40063,0.36793,-0.18794,-0.07871,7.5468,96.82,66.16,40.159,1.22,20,1.5,1.5,12,80,13.63,94
0.50531,122.5695689,25.8547587,168.534312,142.7127936,17.44514582,16.51250356,98.96196177,92.74265189,113.4092358,114.8453078,111.6493544,111.2110337,113.4231305,122.1287405,118.6559252,126.6500635,117.8707441,100.122842,88.57943918,1.917245002,2.270638252,2.01140889,1.350318326,1.249084584,1.119007993,1.576732924,1.094000287,1.527494028,1.086646874,-0.18942,-0.05687,1.5229,0.56058,-0.65686,0.83291,-0.16704,-0.61137,0.68343,-0.70901,-0.69628,0.82275,-0.35856,-0.53607,0.27258,-0.6761,0.27948,0.28313,0.25971,-0.05043,-0.77762,-578.597,115.4276,17.3677,116.9729,151.668,23.7042,-54.1564,135.459,22.6344,167.7056,214.6939,31.0582,-61.8343,32.3979,29.5923,28.3308,154.028,168.4575,4.13,2.75,3.19,2.97,1.5,2.03,1647.39,609.4376,1748.76,429.3106,2770.37,49.2506,2.75,1.02,1.88,2.71,1.03,1.9,2,1,1,28.7,14.9,48.8,40.8,10.3,305.09,273.66,70.523,1.5,-0.25805,-0.10973,0,6.15825,0.61168,123.13,54.677,1.35,0.69974,4.3093,-0.25443,-0.05436,1.15223,1.406029791,1.406432386,1.559021459,60.8212,61.115,61.2353,82.7487,-0.38986,-0.20234,-0.20275,304.57,281.76,33.976,1.47,1.78781,0.89525,0.69034,14.8576,-0.19038,-0.02356,136.53,98.77,66.378,1.32,0.76466,4.5053,0.40063,0.36793,-0.18794,-0.07871,7.5468,96.82,66.16,40.159,1.22,20,1.5,1.5,12,80,13.63,94
0.39949,146.3758142,23.74976814,174.8007576,142.195859,18.89084765,0.215276509,99.69822035,92.84498971,91.98996848,114.9900124,109.0495714,111.692789,114.0667758,122.6332969,119.6281044,127.0496541,118.2229217,100.7894264,89.08348073,1.890916788,2.307603251,2.012202081,1.348088115,1.246318897,1.121628725,1.534479893,1.095371116,1.527754455,1.086516215,-0.19365,-0.06085,2.1285,0.57173,-0.65164,0.84332,-0.18103,-0.61587,0.68439,-0.71118,-0.69417,0.82337,-0.35926,-0.52712,0.26905,-0.67243,0.28174,0.28435,0.27387,-0.04553,-0.78019,-564.3071,119.4024,17.1313,121.6944,153.9641,26.5772,-35.66,132.5589,22.3989,167.843,213.508,31.7965,-64.1001,32.1298,29.5556,26.9038,52.6804,169.8879,6.37,1.7,3.19,2.97,1.5,2.03,1666.58,668.1334,1753.36,384.4185,2748.59,45.2511,2.75,1.02,1.88,2.71,1.03,1.9,2,1,1,26.8,9.5,52.4,34.9,10.5,313.1,285.2,70.071,1.49,-0.25805,-0.10973,0,6.15825,0.61168,123.13,54.677,1.35,0.69974,4.3093,-0.25443,-0.05436,1.15223,1.406029791,1.406432386,1.559021459,60.8212,61.115,61.2353,82.7487,-0.38986,-0.20234,-0.20275,304.57,281.76,33.976,1.47,1.78781,0.89525,0.69034,14.8576,-0.19038,-0.02356,136.53,98.77,66.378,1.32,0.76466,4.5053,0.40063,0.36793,-0.18794,-0.07871,7.5468,96.82,66.16,40.159,1.22,20,1.5,1.5,12,80,13.63,76
0.25061,143.3182198,24.87602449,173.5529846,141.5803299,18.12585002,4.645734016,101.0806249,94.8222763,95.09654889,114.051538,109.0322932,111.1939352,113.1547531,122.753886,119.1334407,127.4282657,117.7869352,101.8875844,90.04205701,1.881867496,2.331402953,2.016228867,1.346853859,1.247475337,1.120854033,1.559286964,1.0950657,1.528997257,1.084476242,-0.18844,-0.05718,2.7231,0.56831,-0.65289,0.83205,-0.16417,-0.61413,0.68101,-0.7139,-0.69625,0.82711,-0.35526,-0.51891,0.26725,-0.68069,0.28071,0.28095,0.2646,-0.47622,-0.77848,-573.8674,101.2296,17.0167,121.4204,152.4005,27.3477,-36.0776,138.4912,21.987,168.2004,212.289,32.0968,-56.3131,32.5526,29.829,27.7623,150.3457,169.6239,6.75,1.56,8.45,2.97,1.5,2.03,1660.26,671.876,1730.73,1047.3169,2760.22,35.6915,2.75,1.02,1.88,2.71,1.03,1.9,2,1,1,35.9,9.9,55.1,68.9,9.7,400.48,374.97,70.818,1.59,-0.25805,-0.10973,0,6.15825,0.61168,123.13,54.677,1.35,0.69974,4.3093,-0.25443,-0.05436,1.15223,1.406029791,1.406432386,1.559021459,60.8212,61.115,61.2353,82.7487,-0.38986,-0.20234,-0.20275,304.57,281.76,33.976,1.47,1.78781,0.89525,0.69034,14.8576,-0.19038,-0.02356,136.53,98.77,66.378,1.32,0.76466,4.5053,0.40063,0.36793,-0.18794,-0.07871,7.5468,96.82,66.16,40.159,1.22,20,1.5,1.5,12,80,13.63,94
0.24055,144.4984261,29.32346441,174.804465,141.7409914,18.14443842,2.341882753,99.64997157,95.42186397,91.27954529,112.6853505,110.94055,110.584958,114.021813,122.6859309,119.4234301,127.3320574,117.4739038,100.7198528,89.54788297,1.888090816,2.344048445,2.020804554,1.344471151,1.248070449,1.120884646,1.571430109,1.095674643,1.528732565,1.085302827,-0.18925,-0.05654,2.132,0.56844,-0.65351,0.83113,-0.16616,-0.60987,0.68202,-0.71423,-0.69663,0.82576,-0.35416,-0.52283,0.26945,-0.67696,0.28042,0.28071,0.26733,-0.48502,-0.7777,-576.3671,99.2082,14.314,124.3111,151.2136,27.6182,-33.1202,138.818,23.195,168.4592,215.8518,32.5668,-64.9931,33.7529,30.283,27.7179,152.4637,169.6467,4.75,1.57,7.26,2.97,1.5,2.03,1659.78,685.0383,1748.18,556.5138,2748.92,39.2623,2.75,1.02,1.88,2.71,1.03,1.9,2,1,1,39.6,9.6,63.1,76.6,9.1,365.37,353.81,70.87,1.51,-0.25805,-0.10973,0,6.15825,0.61168,123.13,54.677,1.35,0.69974,4.3093,-0.25443,-0.05436,1.15223,1.406029791,1.406432386,1.559021459,60.8212,61.115,61.2353,82.7487,-0.38986,-0.20234,-0.20275,304.57,281.76,33.976,1.47,1.78781,0.89525,0.69034,14.8576,-0.19038,-0.02356,136.53,98.77,66.378,1.32,0.76466,4.5053,0.40063,0.36793,-0.18794,-0.07871,7.5468,96.82,66.16,40.159,1.22,20,1.5,1.5,12,80,13.63,90
0.26693,147.6541426,25.46137021,175.6557598,142.2426812,17.48153006,0.832073916,99.65815265,94.79376274,89.82676381,114.1003128,109.6914556,111.1127264,113.5347869,122.5797145,119.404022,127.2269331,117.7795196,101.1522573,89.98383845,1.891442119,2.328348677,2.013336698,1.346656778,1.247156311,1.120784064,1.563548156,1.094947461,1.527693595,1.085957926,-0.18967,-0.05779,2.4821,0.5613,-0.65341,0.83195,-0.16429,-0.61807,0.68526,-0.71346,-0.69574,0.824,-0.35747,-0.5195,0.26784,-0.67573,0.27906,0.28147,0.26723,-0.48663,-0.77707,-571.1606,110.8694,16.3768,124.2555,152.6834,27.0518,-36.1468,137.7155,22.9519,168.8687,212.7569,32.4881,-63.82,32.8678,30.1325,27.7926,161.5019,169.7269,4.76,1.54,6.05,2.97,1.5,2.03,1662.23,652.1358,1745.83,1097.3836,2754.23,37.5598,2.75,1.02,1.88,2.71,1.03,1.9,2,1,1,37,8.8,64.5,64.7,9.9,333.09,312.27,70.575,1.5,-0.25805,-0.10973,0,6.15825,0.61168,123.13,54.677,1.35,0.69974,4.3093,-0.25443,-0.05436,1.15223,1.406029791,1.406432386,1.559021459,60.8212,61.115,61.2353,82.7487,-0.38986,-0.20234,-0.20275,304.57,281.76,33.976,1.47,1.78781,0.89525,0.69034,14.8576,-0.19038,-0.02356,136.53,98.77,66.378,1.32,0.76466,4.5053,0.40063,0.36793,-0.18794,-0.07871,7.5468,96.82,66.16,40.159,1.22,20,1.5,1.5,12,80,13.63,86
0.09805,130.0876591,28.48245846,170.0931141,142.0885438,16.59656457,11.8476179,98.46271053,95.33055273,104.1365737,113.3602922,111.8371705,110.0877696,114.3461402,122.5415645,119.7313298,127.1603266,116.7969475,99.70991511,89.65434137,1.914186394,2.399565639,2.013074703,1.345219519,1.251189361,1.119217876,1.568990168,1.093407737,1.52733952,1.086020656,-0.18668,-0.05531,1.7267,0.57707,-0.65545,0.83598,-0.16356,-0.60921,0.69057,-0.71585,-0.70079,0.82517,-0.35385,-0.52407,0.26938,-0.67521,0.27326,0.28248,0.26413,-0.48164,-0.77192,-575.6234,105.6104,16.1608,123.6694,150.4009,24.0119,-23.3238,135.3153,22.5608,167.6719,215.0335,31.8706,-66.2735,32.6419,29.7941,28.3718,160.1354,170.8948,6.21,3.86,9.41,2.97,1.5,2.03,1639,694.0784,1743.5,1079.3204,2778.41,35.9609,2.75,1.02,1.88,2.71,1.03,1.9,2,1,1,45.9,12.2,72.7,76.9,21.9,694.46,701.18,68.868,1.82,-0.25805,-0.10973,0,6.15825,0.61168,123.13,54.677,1.35,0.69974,4.3093,-0.25443,-0.05436,1.15223,1.406029791,1.406432386,1.559021459,60.8212,61.115,61.2353,82.7487,-0.38986,-0.20234,-0.20275,304.57,281.76,33.976,1.47,1.78781,0.89525,0.69034,14.8576,-0.19038,-0.02356,136.53,98.77,66.378,1.32,0.76466,4.5053,0.40063,0.36793,-0.18794,-0.07871,7.5468,96.82,66.16,40.159,1.22,20,1.5,1.5,12,80,13.63,96
0.15158,134.3255949,28.00325589,171.4418572,141.6708388,17.37264094,9.491591376,98.28078486,95.48268224,100.7149486,113.5262677,111.3754391,110.4620282,114.0940853,122.4873568,119.4627456,126.9697356,117.2396347,99.976976,89.37795462,1.907537206,2.343990245,2.011347733,1.345003753,1.248997512,1.119358029,1.569697416,1.094267555,1.528102042,1.086187194,-0.18688,-0.05452,3.2233,0.56562,-0.6552,0.83386,-0.16344,-0.61036,0.68556,-0.71519,-0.69905,0.82417,-0.35522,-0.52521,0.2708,-0.67734,0.27553,0.28182,0.26491,-0.4819,-0.77531,-571.8694,104.1237,16.4414,124.2366,150.789,25.9219,-33.285,134.4731,22.6508,168.0483,214.9153,31.7729,-64.9194,32.7882,29.7891,28.4691,159.2985,169.7496,4.75,2.08,7.2,2.97,1.5,2.03,1652.03,537.802,1744.65,1112.6086,2777,40.4168,2.75,1.02,1.88,2.71,1.03,1.9,2,1,1,41.7,12.4,69.6,74.9,9.9,465.13,467.9,70.017,1.6,-0.25805,-0.10973,0,6.15825,0.61168,123.13,54.677,1.35,0.69974,4.3093,-0.25443,-0.05436,1.15223,1.406029791,1.406432386,1.559021459,60.8212,61.115,61.2353,82.7487,-0.38986,-0.20234,-0.20275,304.57,281.76,33.976,1.47,1.78781,0.89525,0.69034,14.8576,-0.19038,-0.02356,136.53,98.77,66.378,1.32,0.76466,4.5053,0.40063,0.36793,-0.18794,-0.07871,7.5468,96.82,66.16,40.159,1.22,20,1.5,1.5,12,80,13.63,94
0.14239,135.9066289,28.98323792,172.6294187,141.121824,17.93991325,7.295400897,102.0786738,93.44707546,99.57250836,113.4769685,111.1023288,110.1197869,114.1556446,122.5093872,119.4548519,128.0239539,116.9977061,102.5158848,89.52056138,1.879852029,2.350276665,2.012456367,1.344322921,1.248876717,1.120994649,1.570605043,1.094162501,1.52834077,1.085317467,-0.18772,-0.05591,3.37,0.56526,-0.65503,0.83341,-0.16316,-0.61058,0.68493,-0.71552,-0.70268,0.82488,-0.35557,-0.51554,0.2663,-0.67665,0.27614,0.28078,0.26546,-0.48156,-0.77538,-566.8848,101.8178,16.6512,123.7589,149.836,26.5729,-30.8479,138.4711,22.1697,168.0376,213.1576,32.0091,-68.1296,32.77,29.8587,28.4347,158.9846,169.567,4.81,2.06,7.76,2.97,1.5,2.03,1653.56,700.7613,1743.88,1042.2225,2744.55,37.9865,2.75,1.02,1.88,2.71,1.03,1.9,2,1,1,42.5,13.3,70.7,75.7,10.1,474.19,476.78,69.418,1.61,-0.25805,-0.10973,0,6.15825,0.61168,123.13,54.677,1.35,0.69974,4.3093,-0.25443,-0.05436,1.15223,1.406029791,1.406432386,1.559021459,60.8212,61.115,61.2353,82.7487,-0.38986,-0.20234,-0.20275,304.57,281.76,33.976,1.47,1.78781,0.89525,0.69034,14.8576,-0.19038,-0.02356,136.53,98.77,66.378,1.32,0.76466,4.5053,0.40063,0.36793,-0.18794,-0.07871,7.5468,96.82,66.16,40.159,1.22,20,1.5,1.5,12,80,13.63,90
0.14378,134.3930621,28.69632073,171.816448,141.4549113,17.37753978,8.449791591,101.4013787,93.78575101,101.0616403,113.4925214,111.075691,110.2281677,114.2201738,122.4841512,119.4588027,127.8108407,117.0202188,102.0059716,89.66414619,1.887512585,2.352174843,2.012207636,1.344541879,1.248979959,1.120253781,1.570521515,1.094084186,1.528300522,1.085309398,-0.18634,-0.0547,2.1288,0.56531,-0.65485,0.8341,-0.16322,-0.60967,0.68563,-0.71557,-0.70296,0.82453,-0.35532,-0.51719,0.26688,-0.67763,0.27649,0.28048,0.26446,-0.48141,-0.77523,-569.7801,103.2547,16.4753,124.019,150.4292,26.3249,-31.4212,139.2732,22.3119,168.1101,213.4421,31.9881,-66.9308,32.7525,29.8604,28.4682,159.0841,169.6493,4.76,2.29,8.22,2.97,1.5,2.03,1652.34,673.6842,1743.53,1047.2805,2756.19,36.6747,2.75,1.02,1.88,2.71,1.03,1.9,2,1,1,42.2,12.7,70.1,76,10.1,504.28,504.42,69.826,1.65,-0.25805,-0.10973,0,6.15825,0.61168,123.13,54.677,1.35,0.69974,4.3093,-0.25443,-0.05436,1.15223,1.406029791,1.406432386,1.559021459,60.8212,61.115,61.2353,82.7487,-0.38986,-0.20234,-0.20275,304.57,281.76,33.976,1.47,1.78781,0.89525,0.69034,14.8576,-0.19038,-0.02356,136.53,98.77,66.378,1.32,0.76466,4.5053,0.40063,0.36793,-0.18794,-0.07871,7.5468,96.82,66.16,40.159,1.22,20,1.5,1.5,12,80,13.63,90
0.14117,133.7935332,29.13566148,171.5431345,141.4103861,17.31632072,8.944630002,100.930279,94.0836818,101.4765753,113.2389008,111.1961265,110.1799474,114.2437311,122.4501156,119.4793566,127.6705303,117.0066167,101.8907849,89.55327817,1.888706473,2.357004559,2.012934025,1.344496143,1.249202127,1.120441951,1.570233704,1.094180073,1.528202434,1.085353252,-0.18575,-0.05458,4.8333,0.56393,-0.65548,0.83441,-0.16338,-0.60836,0.68581,-0.71573,-0.70339,0.82401,-0.35545,-0.51751,0.26664,-0.6777,0.27653,0.28062,0.26434,-0.48093,-0.77488,-568.8886,103.7643,16.4638,124.1007,151.0599,26.2114,-31.8337,138.1734,22.2898,168.07,213.7047,32.072,-66.9053,32.7755,29.8585,28.452,159.2927,169.6942,4.71,2.09,9.32,2.97,1.5,2.03,1651.39,681.3425,1743.45,1043.5588,2760.39,35.8154,2.75,1.02,1.88,2.71,1.03,1.9,2,1,1,42.2,12.5,69.8,76.4,10.2,523.24,522.15,83.8,1.67,-0.25805,-0.10973,0,6.15825,0.61168,123.13,54.677,1.35,0.69974,4.3093,-0.25443,-0.05436,1.15223,1.406029791,1.406432386,1.559021459,60.8212,61.115,61.2353,82.7487,-0.38986,-0.20234,-0.20275,304.57,281.76,33.976,1.47,1.78781,0.89525,0.69034,14.8576,-0.19038,-0.02356,136.53,98.77,66.378,1.32,0.76466,4.5053,0.40063,0.36793,-0.18794,-0.07871,7.5468,96.82,66.16,40.159,1.22,20,1.5,1.5,12,80,13.63,92
0.1089,133.614676,28.36771087,171.1273882,141.6031267,17.39251891,10.02691217,97.58145912,95.46548342,101.5120019,113.2922252,111.2326411,110.3789221,114.1635305,122.4628093,119.4712742,126.7430668,117.30744,99.6415467,89.00488013,1.911046318,2.344818575,2.013101517,1.345223646,1.249028949,1.119367192,1.569474722,1.094272466,1.527982093,1.086239628,-0.18687,-0.05473,3.5349,0.56512,-0.65564,0.83367,-0.16365,-0.60982,0.68585,-0.71445,-0.69912,0.82396,-0.35514,-0.52634,0.27106,-0.67702,0.27558,0.2821,0.26513,-0.48211,-0.77504,-573.1908,103.0546,16.2899,124.3786,151.0978,25.833,-34.0723,132.6618,22.593,167.8502,215.3685,31.7525,-65.3355,32.79,29.7304,28.4129,159.3018,169.6996,5,3.57,11.37,2.97,1.5,2.03,1651.52,641.1346,1744.18,1116.2452,2777.15,41.315,2.75,1.02,1.88,2.71,1.03,1.9,2,1,1,41.8,12.3,69.3,75.6,10,624.93,635.21,70.085,1.75,-0.25805,-0.10973,0,6.15825,0.61168,123.13,54.677,1.35,0.69974,4.3093,-0.25443,-0.05436,1.15223,1.406029791,1.406432386,1.559021459,60.8212,61.115,61.2353,82.7487,-0.38986,-0.20234,-0.20275,304.57,281.76,33.976,1.47,1.78781,0.89525,0.69034,14.8576,-0.19038,-0.02356,136.53,98.77,66.378,1.32,0.76466,4.5053,0.40063,0.36793,-0.18794,-0.07871,7.5468,96.82,66.16,40.159,1.22,20,1.5,1.5,12,80,13.63,84
0.12119,131.7709867,28.75472452,170.9986735,141.8427566,17.00021707,10.85233198,98.50410228,94.53290591,103.301651,113.3221543,111.3040226,110.1785392,114.227794,122.4334467,119.4626218,127.0473983,117.0563079,99.9507829,89.4957161,1.9069073,2.361236121,2.013122847,1.345312322,1.24905593,1.119674365,1.570478591,1.09403549,1.528301892,1.085758461,-0.1862,-0.05434,0.8173,0.56378,-0.65525,0.83435,-0.16337,-0.60917,0.68641,-0.71462,-0.7004,0.82364,-0.35465,-0.52523,0.27038,-0.67745,0.27615,0.28158,0.26419,-0.48204,-0.77519,-573.1308,103.1904,16.23,124.3675,151.1974,25.8224,-34.3298,135.0267,22.5608,167.7152,215.1624,31.8698,-66.1944,32.817,29.7785,28.49,159.5439,169.6151,4.74,3.28,9.7,2.97,1.5,2.03,1651.14,646.5808,1743.69,1109.9142,2771.64,37.7559,2.75,1.02,1.88,2.71,1.03,1.9,2,1,1,42.1,11.9,69.3,76.7,10.5,608.84,611.5,70,1.75,-0.25805,-0.10973,0,6.15825,0.61168,123.13,54.677,1.35,0.69974,4.3093,-0.25443,-0.05436,1.15223,1.406029791,1.406432386,1.559021459,60.8212,61.115,61.2353,82.7487,-0.38986,-0.20234,-0.20275,304.57,281.76,33.976,1.47,1.78781,0.89525,0.69034,14.8576,-0.19038,-0.02356,136.53,98.77,66.378,1.32,0.76466,4.5053,0.40063,0.36793,-0.18794,-0.07871,7.5468,96.82,66.16,40.159,1.22,20,1.5,1.5,12,80,13.63,94
0.15408,132.739708,29.02032336,173.0480822,141.3599782,17.20529255,11.79360442,99.33321775,94.46409165,102.2329546,113.269964,111.3939402,110.0100993,114.1846743,122.4935042,119.3933176,127.3351741,116.8790703,100.6665869,89.84050067,1.897276028,2.38673726,2.012240531,1.344548565,1.250655436,1.120356155,1.571319654,1.093820581,1.527875538,1.085466632,-0.18747,-0.05532,2.5061,0.56652,-0.65458,0.8341,-0.16344,-0.60893,0.68722,-0.71776,-0.70094,0.82393,-0.35462,-0.52066,0.26856,-0.67678,0.2759,0.28145,0.2648,-0.48204,-0.77424,-571.9027,104.419,16.413,123.9678,151.4434,24.8544,-22.8679,137.0943,22.4681,167.95,214.6446,32.0312,-67.3614,32.7316,29.8178,28.4725,158.9889,169.6981,4.75,2.04,8.02,2.97,1.5,2.03,1642.54,673.6812,1743.37,1058.5044,2764.84,34.0201,2.75,1.02,1.88,2.71,1.03,1.9,2,1,1,43,11.7,70.1,76.9,13.4,502.4,503.99,69.863,1.64,-0.25805,-0.10973,0,6.15825,0.61168,123.13,54.677,1.35,0.69974,4.3093,-0.25443,-0.05436,1.15223,1.406029791,1.406432386,1.559021459,60.8212,61.115,61.2353,82.7487,-0.38986,-0.20234,-0.20275,304.57,281.76,33.976,1.47,1.78781,0.89525,0.69034,14.8576,-0.19038,-0.02356,136.53,98.77,66.378,1.32,0.76466,4.5053,0.40063,0.36793,-0.18794,-0.07871,7.5468,96.82,66.16,40.159,1.22,20,1.5,1.5,12,80,13.63,94
0.12795,141.416246,15.47047683,169.2220766,141.9006839,17.96711699,20.16823873,99.45023701,119.4763279,89.95417166,113.7286718,111.4937499,112.8432137,117.1320433,122.6144113,118.545953,127.0466627,118.0152062,101.9897098,87.98611762,1.904643683,2.19885152,2.010478873,1.351892566,1.24855659,1.120340031,1.576938824,1.097494415,1.525190005,1.085105458,-0.1889,-0.05508,4.4241,0.56245,-0.65676,0.83977,-0.1691,-0.61944,0.68796,-0.7108,-0.69406,0.82956,-0.35412,-0.52467,0.26709,-0.6868,0.27686,0.28286,0.26478,-0.49092,-0.77576,-601.7343,119.5394,15.1439,127.8182,154.8868,22.0862,-50.1424,137.7047,20.9915,166.5253,211.0824,31.6248,-53.2288,32.4049,29.2015,28.2541,156.2723,167.6447,6.76,4.22,8.97,2.97,1.5,2.03,1652.09,571.0769,1732.3,1073.2525,2750.42,59.4449,2.75,1.02,1.88,2.71,1.03,1.9,2,1,1,41.1,17.3,58.1,77.9,11.1,580.01,575.91,95.752,1.73,-0.25805,-0.10973,0,6.15825,0.61168,123.13,54.677,1.35,0.69974,4.3093,-0.25443,-0.05436,1.15223,1.406029791,1.406432386,1.559021459,60.8212,61.115,61.2353,82.7487,-0.38986,-0.20234,-0.20275,304.57,281.76,33.976,1.47,1.78781,0.89525,0.69034,14.8576,-0.19038,-0.02356,136.53,98.77,66.378,1.32,0.76466,4.5053,0.40063,0.36793,-0.18794,-0.07871,7.5468,96.82,66.16,40.159,1.22,20,1.5,1.5,12,80,13.63,90
0.28995,142.8062763,26.74871204,173.6674815,141.4904278,17.1500482,2.083917528,102.7498027,91.28495499,96.18434151,113.9892372,108.7571354,110.8030912,113.2059099,122.7433911,119.2374316,127.6675183,117.6464635,103.4328963,90.66703181,1.877287092,2.358289132,2.019403513,1.346319935,1.247344697,1.120096734,1.562279816,1.094730635,1.529154882,1.084813531,-0.1864,-0.05834,3.3081,0.56335,-0.65022,0.83001,-0.16422,-0.61153,0.6779,-0.71909,-0.69772,0.82299,-0.35544,-0.5087,0.26183,-0.67788,0.28186,0.27777,0.26442,-0.47431,-0.778,-585.1276,99.5703,16.7728,120.6625,152.423,26.8719,-34.955,146.3225,21.0946,167.2866,210.8863,32.6031,-66.5008,32.2521,29.6412,27.8379,150.4168,169.7236,4.99,1.56,8.23,2.97,1.5,2.03,1661.01,709.1638,1730.33,1012.4079,2763,28.8662,2.75,1.02,1.88,2.71,1.03,1.9,2,1,1,36.3,9.4,53.7,72.7,9.6,354.97,330.13,77.639,1.54,-0.25805,-0.10973,0,6.15825,0.61168,123.13,54.677,1.35,0.69974,4.3093,-0.25443,-0.05436,1.15223,1.406029791,1.406432386,1.559021459,60.8212,61.115,61.2353,82.7487,-0.38986,-0.20234,-0.20275,304.57,281.76,33.976,1.47,1.78781,0.89525,0.69034,14.8576,-0.19038,-0.02356,136.53,98.77,66.378,1.32,0.76466,4.5053,0.40063,0.36793,-0.18794,-0.07871,7.5468,96.82,66.16,40.159,1.22,20,1.5,1.5,12,80,13.63,92
0.12119,131.7709867,28.75472452,170.9986735,141.8427566,17.00021707,10.85233198,98.50410228,94.53290591,103.301651,113.3221543,111.3040226,110.1785392,114.227794,122.4334467,119.4626218,127.0473983,117.0563079,99.9507829,89.4957161,1.9069073,2.361236121,2.013122847,1.345312322,1.24905593,1.119674365,1.570478591,1.09403549,1.528301892,1.085758461,-0.1862,-0.05434,0.8173,0.56378,-0.65525,0.83435,-0.16337,-0.60917,0.68641,-0.71462,-0.7004,0.82364,-0.35465,-0.52523,0.27038,-0.67745,0.27615,0.28158,0.26419,-0.48204,-0.77519,-573.1308,103.1904,16.23,124.3675,151.1974,25.8224,-34.3298,135.0267,22.5608,167.7152,215.1624,31.8698,-66.1944,32.817,29.7785,28.49,159.5439,169.6151,4.74,3.28,9.7,2.97,1.5,2.03,1651.14,646.5808,1743.69,1109.9142,2771.64,37.7559,2.75,1.02,1.88,2.71,1.03,1.9,2,1,1,42.1,11.9,69.3,76.7,10.5,608.84,611.5,70,1.75,-0.25805,-0.10973,0,6.15825,0.61168,123.13,54.677,1.35,0.69974,4.3093,-0.25443,-0.05436,1.15223,1.406029791,1.406432386,1.559021459,60.8212,61.115,61.2353,82.7487,-0.38986,-0.20234,-0.20275,304.57,281.76,33.976,1.47,1.78781,0.89525,0.69034,14.8576,-0.19038,-0.02356,136.53,98.77,66.378,1.32,0.74468,11.68568,1.47689,1.32194,-0.22374,-0.07308,4.4086,96.85,69.6,27.835,1.18,20,1.5,1.5,12,80,13.63,92
0.12119,131.7709867,28.75472452,170.9986735,141.8427566,17.00021707,10.85233198,98.50410228,94.53290591,103.301651,113.3221543,111.3040226,110.1785392,114.227794,122.4334467,119.4626218,127.0473983,117.0563079,99.9507829,89.4957161,1.9069073,2.361236121,2.013122847,1.345312322,1.24905593,1.119674365,1.570478591,1.09403549,1.528301892,1.085758461,-0.1862,-0.05434,0.8173,0.56378,-0.65525,0.83435,-0.16337,-0.60917,0.68641,-0.71462,-0.7004,0.82364,-0.35465,-0.52523,0.27038,-0.67745,0.27615,0.28158,0.26419,-0.48204,-0.77519,-573.1308,103.1904,16.23,124.3675,151.1974,25.8224,-34.3298,135.0267,22.5608,167.7152,215.1624,31.8698,-66.1944,32.817,29.7785,28.49,159.5439,169.6151,4.74,3.28,9.7,2.97,1.5,2.03,1651.14,646.5808,1743.69,1109.9142,2771.64,37.7559,2.75,1.02,1.88,2.71,1.03,1.9,2,1,1,42.1,11.9,69.3,76.7,10.5,608.84,611.5,70,1.75,-0.25805,-0.10973,0,6.15825,0.61168,123.13,54.677,1.35,0.69974,4.3093,-0.25443,-0.05436,1.15223,1.406029791,1.406432386,1.559021459,60.8212,61.115,61.2353,82.7487,-0.38986,-0.20234,-0.20275,304.57,281.76,33.976,1.47,1.78781,0.89525,0.69034,14.8576,-0.19038,-0.02356,136.53,98.77,66.378,1.32,-1.07941,24.48455,0.84973,0.82123,-0.19514,-0.07854,5.3151,68.37,36.97,23.532,1.27,20,1.5,1.5,12,80,13.63,86
0.12119,131.7709867,28.75472452,170.9986735,141.8427566,17.00021707,10.85233198,98.50410228,94.53290591,103.301651,113.3221543,111.3040226,110.1785392,114.227794,122.4334467,119.4626218,127.0473983,117.0563079,99.9507829,89.4957161,1.9069073,2.361236121,2.013122847,1.345312322,1.24905593,1.119674365,1.570478591,1.09403549,1.528301892,1.085758461,-0.1862,-0.05434,0.8173,0.56378,-0.65525,0.83435,-0.16337,-0.60917,0.68641,-0.71462,-0.7004,0.82364,-0.35465,-0.52523,0.27038,-0.67745,0.27615,0.28158,0.26419,-0.48204,-0.77519,-573.1308,103.1904,16.23,124.3675,151.1974,25.8224,-34.3298,135.0267,22.5608,167.7152,215.1624,31.8698,-66.1944,32.817,29.7785,28.49,159.5439,169.6151,4.74,3.28,9.7,2.97,1.5,2.03,1651.14,646.5808,1743.69,1109.9142,2771.64,37.7559,2.75,1.02,1.88,2.71,1.03,1.9,2,1,1,42.1,11.9,69.3,76.7,10.5,608.84,611.5,70,1.75,-0.28603,-0.15049,0.2333,1.96391,0.16748,151.44,54.622,1.43,0.79269,4.3093,-0.25443,-0.05436,1.15223,1.406029791,1.406432386,1.559021459,60.8212,61.115,61.2353,82.7487,-0.38986,-0.20234,-0.20275,304.57,281.76,33.976,1.47,1.78781,0.89525,0.69034,14.8576,-0.19038,-0.02356,136.53,98.77,66.378,1.32,0.76466,4.5053,0.40063,0.36793,-0.18794,-0.07871,7.5468,96.82,66.16,40.159,1.22,20,1.5,1.5,12,80,13.63,92
0.12119,131.7709867,28.75472452,170.9986735,141.8427566,17.00021707,10.85233198,98.50410228,94.53290591,103.301651,113.3221543,111.3040226,110.1785392,114.227794,122.4334467,119.4626218,127.0473983,117.0563079,99.9507829,89.4957161,1.9069073,2.361236121,2.013122847,1.345312322,1.24905593,1.119674365,1.570478591,1.09403549,1.528301892,1.085758461,-0.1862,-0.05434,0.8173,0.56378,-0.65525,0.83435,-0.16337,-0.60917,0.68641,-0.71462,-0.7004,0.82364,-0.35465,-0.52523,0.27038,-0.67745,0.27615,0.28158,0.26419,-0.48204,-0.77519,-573.1308,103.1904,16.23,124.3675,151.1974,25.8224,-34.3298,135.0267,22.5608,167.7152,215.1624,31.8698,-66.1944,32.817,29.7785,28.49,159.5439,169.6151,4.74,3.28,9.7,2.97,1.5,2.03,1651.14,646.5808,1743.69,1109.9142,2771.64,37.7559,2.75,1.02,1.88,2.71,1.03,1.9,2,1,1,42.1,11.9,69.3,76.7,10.5,608.84,611.5,70,1.75,-0.28351,-0.11334,0.9789,0.23059,0.15953,324.49,39.06,1.89,0.51468,4.3093,-0.25443,-0.05436,1.15223,1.406029791,1.406432386,1.559021459,60.8212,61.115,61.2353,82.7487,-0.38986,-0.20234,-0.20275,304.57,281.76,33.976,1.47,1.78781,0.89525,0.69034,14.8576,-0.19038,-0.02356,136.53,98.77,66.378,1.32,0.76466,4.5053,0.40063,0.36793,-0.18794,-0.07871,7.5468,96.82,66.16,40.159,1.22,20,1.5,1.5,12,80,13.63,88
0.12119,131.7709867,28.75472452,170.9986735,141.8427566,17.00021707,10.85233198,98.50410228,94.53290591,103.301651,113.3221543,111.3040226,110.1785392,114.227794,122.4334467,119.4626218,127.0473983,117.0563079,99.9507829,89.4957161,1.9069073,2.361236121,2.013122847,1.345312322,1.24905593,1.119674365,1.570478591,1.09403549,1.528301892,1.085758461,-0.1862,-0.05434,0.8173,0.56378,-0.65525,0.83435,-0.16337,-0.60917,0.68641,-0.71462,-0.7004,0.82364,-0.35465,-0.52523,0.27038,-0.67745,0.27615,0.28158,0.26419,-0.48204,-0.77519,-573.1308,103.1904,16.23,124.3675,151.1974,25.8224,-34.3298,135.0267,22.5608,167.7152,215.1624,31.8698,-66.1944,32.817,29.7785,28.49,159.5439,169.6151,4.74,3.28,9.7,2.97,1.5,2.03,1651.14,646.5808,1743.69,1109.9142,2771.64,37.7559,2.75,1.02,1.88,2.71,1.03,1.9,2,1,1,42.1,11.9,69.3,76.7,10.5,608.84,611.5,70,1.75,-0.24716,-0.10347,0,1.28177,0.50194,156.96,19.241,1.5,0.34416,4.3093,-0.25443,-0.05436,1.15223,1.406029791,1.406432386,1.559021459,60.8212,61.115,61.2353,82.7487,-0.38986,-0.20234,-0.20275,304.57,281.76,33.976,1.47,1.78781,0.89525,0.69034,14.8576,-0.19038,-0.02356,136.53,98.77,66.378,1.32,0.76466,4.5053,0.40063,0.36793,-0.18794,-0.07871,7.5468,96.82,66.16,40.159,1.22,20,1.5,1.5,12,80,13.63,86
0.12119,131.7709867,28.75472452,170.9986735,141.8427566,17.00021707,10.85233198,98.50410228,94.53290591,103.301651,113.3221543,111.3040226,110.1785392,114.227794,122.4334467,119.4626218,127.0473983,117.0563079,99.9507829,89.4957161,1.9069073,2.361236121,2.013122847,1.345312322,1.24905593,1.119674365,1.570478591,1.09403549,1.528301892,1.085758461,-0.1862,-0.05434,0.8173,0.56378,-0.65525,0.83435,-0.16337,-0.60917,0.68641,-0.71462,-0.7004,0.82364,-0.35465,-0.52523,0.27038,-0.67745,0.27615,0.28158,0.26419,-0.48204,-0.77519,-573.1308,103.1904,16.23,124.3675,151.1974,25.8224,-34.3298,135.0267,22.5608,167.7152,215.1624,31.8698,-66.1944,32.817,29.7785,28.49,159.5439,169.6151,4.74,3.28,9.7,2.97,1.5,2.03,1651.14,646.5808,1743.69,1109.9142,2771.64,37.7559,2.75,1.02,1.88,2.71,1.03,1.9,2,1,1,42.1,11.9,69.3,76.7,10.5,608.84,611.5,70,1.75,-0.24741,-0.10366,0,0.88902,0.08131,288.38,19.246,1.59,0.34889,4.3093,-0.25443,-0.05436,1.15223,1.406029791,1.406432386,1.559021459,60.8212,61.115,61.2353,82.7487,-0.38986,-0.20234,-0.20275,304.57,281.76,33.976,1.47,1.78781,0.89525,0.69034,14.8576,-0.19038,-0.02356,136.53,98.77,66.378,1.32,0.76466,4.5053,0.40063,0.36793,-0.18794,-0.07871,7.5468,96.82,66.16,40.159,1.22,20,1.5,1.5,12,80,13.63,88
0.12119,131.7709867,28.75472452,170.9986735,141.8427566,17.00021707,10.85233198,98.50410228,94.53290591,103.301651,113.3221543,111.3040226,110.1785392,114.227794,122.4334467,119.4626218,127.0473983,117.0563079,99.9507829,89.4957161,1.9069073,2.361236121,2.013122847,1.345312322,1.24905593,1.119674365,1.570478591,1.09403549,1.528301892,1.085758461,-0.1862,-0.05434,0.8173,0.56378,-0.65525,0.83435,-0.16337,-0.60917,0.68641,-0.71462,-0.7004,0.82364,-0.35465,-0.52523,0.27038,-0.67745,0.27615,0.28158,0.26419,-0.48204,-0.77519,-573.1308,103.1904,16.23,124.3675,151.1974,25.8224,-34.3298,135.0267,22.5608,167.7152,215.1624,31.8698,-66.1944,32.817,29.7785,28.49,159.5439,169.6151,4.74,3.28,9.7,2.97,1.5,2.03,1651.14,646.5808,1743.69,1109.9142,2771.64,37.7559,2.75,1.02,1.88,2.71,1.03,1.9,2,1,1,42.1,11.9,69.3,76.7,10.5,608.84,611.5,70,1.75,-0.2376,-0.06347,1.1414,1.55657,0.28081,184.51,0,1.51,0.23406,4.3093,-0.25443,-0.05436,1.15223,1.406029791,1.406432386,1.559021459,60.8212,61.115,61.2353,82.7487,-0.38986,-0.20234,-0.20275,304.57,281.76,33.976,1.47,1.78781,0.89525,0.69034,14.8576,-0.19038,-0.02356,136.53,98.77,66.378,1.32,0.76466,4.5053,0.40063,0.36793,-0.18794,-0.07871,7.5468,96.82,66.16,40.159,1.22,20,1.5,1.5,12,80,13.63,84
0.12119,131.7709867,28.75472452,170.9986735,141.8427566,17.00021707,10.85233198,98.50410228,94.53290591,103.301651,113.3221543,111.3040226,110.1785392,114.227794,122.4334467,119.4626218,127.0473983,117.0563079,99.9507829,89.4957161,1.9069073,2.361236121,2.013122847,1.345312322,1.24905593,1.119674365,1.570478591,1.09403549,1.528301892,1.085758461,-0.1862,-0.05434,0.8173,0.56378,-0.65525,0.83435,-0.16337,-0.60917,0.68641,-0.71462,-0.7004,0.82364,-0.35465,-0.52523,0.27038,-0.67745,0.27615,0.28158,0.26419,-0.48204,-0.77519,-573.1308,103.1904,16.23,124.3675,151.1974,25.8224,-34.3298,135.0267,22.5608,167.7152,215.1624,31.8698,-66.1944,32.817,29.7785,28.49,159.5439,169.6151,4.74,3.28,9.7,2.97,1.5,2.03,1651.14,646.5808,1743.69,1109.9142,2771.64,37.7559,2.75,1.02,1.88,2.71,1.03,1.9,2,1,1,42.1,11.9,69.3,76.7,10.5,608.84,611.5,70,1.75,-0.22546,-0.08008,1.156,0.09583,0.05344,632.39,0,1.79,-0.10657,4.3093,-0.25443,-0.05436,1.15223,1.406029791,1.406432386,1.559021459,60.8212,61.115,61.2353,82.7487,-0.38986,-0.20234,-0.20275,304.57,281.76,33.976,1.47,1.78781,0.89525,0.69034,14.8576,-0.19038,-0.02356,136.53,98.77,66.378,1.32,0.76466,4.5053,0.40063,0.36793,-0.18794,-0.07871,7.5468,96.82,66.16,40.159,1.22,20,1.5,1.5,12,80,13.63,82
0.12106,132.1949294,28.41259925,171.946388,141.5324561,16.88203925,11.69841951,98.27745744,94.70678708,103.037557,113.4150445,111.1337191,110.161914,114.1682206,122.4941438,119.3645095,127.1054237,117.0196999,99.96274093,89.34722966,1.909209401,2.354837347,2.012116735,1.344915943,1.248707534,1.119460036,1.57090859,1.094162688,1.529204591,1.085745504,-0.17545,-0.0434,1.3232,0.57035,-0.65035,0.8335,-0.16245,-0.61012,0.68596,-0.71285,-0.69636,0.82291,-0.35302,-0.52338,0.27072,-0.67526,0.27334,0.27807,0.26076,-0.48204,-0.77409,-576.9316,100.9552,16.6604,124.2766,151.4268,26.2724,-35.4324,133.6487,23.0785,167.6902,214.7532,31.8007,-67.2489,32.8554,29.8536,28.5594,159.3508,169.4575,4.74,3.28,9.69,2.97,1.5,2.03,1655.44,581.9125,1747.14,1053.5179,2775.88,35.6145,2.75,1.02,1.88,2.71,1.03,1.9,2,1,1,42.1,11.9,69.3,76.7,10.5,609.05,611.46,69.811,1.75,-0.2582,-0.10974,0.0001,6.15816,0.61175,123.13,54.67,1.35,0.70235,4.1608,-0.2533,-0.0535,1.15182,1.405997319,1.406414685,1.558334299,60.9872,61.1296,61.1732,82.73,-0.38951,-0.20077,-0.20098,304.57,281.76,33.976,1.47,1.84831,0.88232,0.69091,14.1865,-0.18759,-0.026,136.17,98.62,66.294,1.32,0.75582,4.5178,0.40418,0.371,-0.1898,-0.08443,7.2601,96.57,66.07,40.078,1.22,20,1.5,1.5,12,80,5.84,88
0.12021,137.9350826,29.93477173,173.7194579,141.5871358,17.62158599,8.663919356,97.27098524,97.10407822,96.24115515,112.3361379,112.223119,110.4710113,113.9068654,122.0280923,119.3543006,126.1342835,117.2745563,100.1281679,91.45376385,1.902850207,2.418275818,2.020517131,1.339088766,1.25654385,1.119654519,1.565034249,1.095088195,1.524246478,1.085643006,-0.2016,-0.06894,1.2656,0.59959,-0.67833,0.84613,-0.16518,-0.59435,0.69217,-0.7577,-0.71792,0.83727,-0.35816,-0.52034,0.26776,-0.71234,0.2816,0.28994,0.27573,-0.48101,-0.77645,-604.5061,111.8674,13.8866,123.7936,150.7318,23.2754,-6.0349,144.4416,18.9652,168.1077,215.2971,32.4137,-45.4924,32.5348,29.611,28.3545,159.8727,170.043,5.01,3.43,9.6,2.97,1.5,2.03,1608.73,903.5083,1696.83,1203.9769,2780.35,28.3347,2.75,1.02,1.88,2.71,1.03,1.9,2,1,1,42.1,11.9,69.3,76.7,10.5,607.65,610.91,70.563,1.75,-0.25089,-0.10865,0,6.15737,0.60887,123.19,54.714,1.35,0.74907,4.7122,-0.25675,-0.05852,1.15205,1.4060664,1.406283731,1.558168306,60.6965,60.9985,61.1484,82.7777,-0.38925,-0.2014,-0.20164,304.57,281.76,33.976,1.47,1.7646415,1.0102694,0.7401255,14.3025,-0.21037,-0.02886,139.98,100.02,70.903,1.34,0.79875,4.46774,0.38892,0.35777,-0.203,-0.07991,8.3156,97.19,69.71,27.931,1.19,20,1.5,1.5,12,80,16.82,78
0.12119,131.7709867,28.75472452,170.9986735,141.8427566,17.00021707,10.85233198,98.50410228,94.53290591,103.301651,113.3221543,111.3040226,110.1785392,114.227794,122.4334467,119.4626218,127.0473983,117.0563079,99.9507829,89.4957161,1.9069073,2.361236121,2.013122847,1.345312322,1.24905593,1.119674365,1.570478591,1.09403549,1.528301892,1.085758461,-0.1862,-0.05434,0.8173,0.56378,-0.65525,0.83435,-0.16337,-0.60917,0.68641,-0.71462,-0.7004,0.82364,-0.35465,-0.52523,0.27038,-0.67745,0.27615,0.28158,0.26419,-0.48204,-0.77519,-573.1308,103.1904,16.23,124.3675,151.1974,25.8224,-34.3298,135.0267,22.5608,167.7152,215.1624,31.8698,-66.1944,32.817,29.7785,28.49,159.5439,169.6151,4.74,3.28,9.7,2.97,1.5,2.03,1651.14,646.5808,1743.69,1109.9142,2771.64,37.7559,2.75,1.02,1.88,2.71,1.03,1.9,2,1,1,42.1,11.9,69.3,76.7,10.5,608.84,611.5,70,1.75,-0.25805,-0.10973,0,6.15825,0.61168,123.13,54.677,1.35,0.69974,4.3093,-0.25443,-0.05436,1.15223,1.406029791,1.406432386,1.559021459,60.8212,61.115,61.2353,82.7487,-0.38986,-0.20234,-0.20275,304.57,281.76,33.976,1.47,1.78781,0.89525,0.69034,14.8576,-0.19038,-0.02356,136.53,98.77,66.378,1.32,0.76466,4.5053,0.40063,0.36793,-0.18794,-0.07871,7.5468,96.82,66.16,40.159,1.22,20,1.5,1.5,12,70,13.63,94
0.12119,131.7709867,28.75472452,170.9986735,141.8427566,17.00021707,10.85233198,98.50410228,94.53290591,103.301651,113.3221543,111.3040226,110.1785392,114.227794,122.4334467,119.4626218,127.0473983,117.0563079,99.9507829,89.4957161,1.9069073,2.361236121,2.013122847,1.345312322,1.24905593,1.119674365,1.570478591,1.09403549,1.528301892,1.085758461,-0.1862,-0.05434,0.8173,0.56378,-0.65525,0.83435,-0.16337,-0.60917,0.68641,-0.71462,-0.7004,0.82364,-0.35465,-0.52523,0.27038,-0.67745,0.27615,0.28158,0.26419,-0.48204,-0.77519,-573.1308,103.1904,16.23,124.3675,151.1974,25.8224,-34.3298,135.0267,22.5608,167.7152,215.1624,31.8698,-66.1944,32.817,29.7785,28.49,159.5439,169.6151,4.74,3.28,9.7,2.97,1.5,2.03,1651.14,646.5808,1743.69,1109.9142,2771.64,37.7559,2.75,1.02,1.88,2.71,1.03,1.9,2,1,1,42.1,11.9,69.3,76.7,10.5,608.84,611.5,70,1.75,-0.25805,-0.10973,0,6.15825,0.61168,123.13,54.677,1.35,0.69974,4.3093,-0.25443,-0.05436,1.15223,1.406029791,1.406432386,1.559021459,60.8212,61.115,61.2353,82.7487,-0.38986,-0.20234,-0.20275,304.57,281.76,33.976,1.47,1.78781,0.89525,0.69034,14.8576,-0.19038,-0.02356,136.53,98.77,66.378,1.32,0.76466,4.5053,0.40063,0.36793,-0.18794,-0.07871,7.5468,96.82,66.16,40.159,1.22,20,1.5,1.5,12,90,13.63,80
0.12119,131.7709867,28.75472452,170.9986735,141.8427566,17.00021707,10.85233198,98.50410228,94.53290591,103.301651,113.3221543,111.3040226,110.1785392,114.227794,122.4334467,119.4626218,127.0473983,117.0563079,99.9507829,89.4957161,1.9069073,2.361236121,2.013122847,1.345312322,1.24905593,1.119674365,1.570478591,1.09403549,1.528301892,1.085758461,-0.1862,-0.05434,0.8173,0.56378,-0.65525,0.83435,-0.16337,-0.60917,0.68641,-0.71462,-0.7004,0.82364,-0.35465,-0.52523,0.27038,-0.67745,0.27615,0.28158,0.26419,-0.48204,-0.77519,-573.1308,103.1904,16.23,124.3675,151.1974,25.8224,-34.3298,135.0267,22.5608,167.7152,215.1624,31.8698,-66.1944,32.817,29.7785,28.49,159.5439,169.6151,4.74,3.28,9.7,2.97,1.5,2.03,1651.14,646.5808,1743.69,1109.9142,2771.64,37.7559,2.75,1.02,1.88,2.71,1.03,1.9,2,1,1,42.1,11.9,69.3,76.7,10.5,608.84,611.5,70,1.75,-0.25805,-0.10973,0,6.15825,0.61168,123.13,54.677,1.35,0.69974,4.3093,-0.25443,-0.05436,1.15223,1.406029791,1.406432386,1.559021459,60.8212,61.115,61.2353,82.7487,-0.38986,-0.20234,-0.20275,304.57,281.76,33.976,1.47,6.0916311,1.9518899,1.4782697,9.4425,-0.18124,-0.02116,90.74,62.17,40.147,1.2,0.76466,4.5053,0.40063,0.36793,-0.18794,-0.07871,7.5468,96.82,66.16,40.159,1.22,20,1.5,1.5,12,80,13.63,88
0.12119,131.7709867,28.75472452,170.9986735,141.8427566,17.00021707,10.85233198,98.50410228,94.53290591,103.301651,113.3221543,111.3040226,110.1785392,114.227794,122.4334467,119.4626218,127.0473983,117.0563079,99.9507829,89.4957161,1.9069073,2.361236121,2.013122847,1.345312322,1.24905593,1.119674365,1.570478591,1.09403549,1.528301892,1.085758461,-0.1862,-0.05434,0.8173,0.56378,-0.65525,0.83435,-0.16337,-0.60917,0.68641,-0.71462,-0.7004,0.82364,-0.35465,-0.52523,0.27038,-0.67745,0.27615,0.28158,0.26419,-0.48204,-0.77519,-573.1308,103.1904,16.23,124.3675,151.1974,25.8224,-34.3298,135.0267,22.5608,167.7152,215.1624,31.8698,-66.1944,32.817,29.7785,28.49,159.5439,169.6151,4.74,3.28,9.7,2.97,1.5,2.03,1651.14,646.5808,1743.69,1109.9142,2771.64,37.7559,2.75,1.02,1.88,2.71,1.03,1.9,2,1,1,42.1,11.9,69.3,76.7,10.5,608.84,611.5,70,1.75,-0.25805,-0.10973,0,6.15825,0.61168,123.13,54.677,1.35,0.69974,4.3093,-0.25443,-0.05436,1.15223,1.406029791,1.406432386,1.559021459,60.8212,61.115,61.2353,82.7487,-0.38986,-0.20234,-0.20275,304.57,281.76,33.976,1.47,11.5194601,1.9003028,1.6478714,8.3513,-0.20964,-0.01911,106.57,78.43,26.976,1.2,0.76466,4.5053,0.40063,0.36793,-0.18794,-0.07871,7.5468,96.82,66.16,40.159,1.22,20,1.5,1.5,12,80,13.63,88
0.12119,131.7709867,28.75472452,170.9986735,141.8427566,17.00021707,10.85233198,98.50410228,94.53290591,103.301651,113.3221543,111.3040226,110.1785392,114.227794,122.4334467,119.4626218,127.0473983,117.0563079,99.9507829,89.4957161,1.9069073,2.361236121,2.013122847,1.345312322,1.24905593,1.119674365,1.570478591,1.09403549,1.528301892,1.085758461,-0.1862,-0.05434,0.8173,0.56378,-0.65525,0.83435,-0.16337,-0.60917,0.68641,-0.71462,-0.7004,0.82364,-0.35465,-0.52523,0.27038,-0.67745,0.27615,0.28158,0.26419,-0.48204,-0.77519,-573.1308,103.1904,16.23,124.3675,151.1974,25.8224,-34.3298,135.0267,22.5608,167.7152,215.1624,31.8698,-66.1944,32.817,29.7785,28.49,159.5439,169.6151,4.74,3.28,9.7,2.97,1.5,2.03,1651.14,646.5808,1743.69,1109.9142,2771.64,37.7559,2.75,1.02,1.88,2.71,1.03,1.9,2,1,1,42.1,11.9,69.3,76.7,10.5,608.84,611.5,70,1.75,-0.25805,-0.10973,0,6.15825,0.61168,123.13,54.677,1.35,0.69974,4.3093,-0.25443,-0.05436,1.15223,1.406029791,1.406432386,1.559021459,60.8212,61.115,61.2353,82.7487,-0.38986,-0.20234,-0.20275,304.57,281.76,33.976,1.47,4.5536163,1.2698643,1.2489696,9.4438,-0.23977,-0.0227,116.98,82.32,76.793,1.28,0.76466,4.5053,0.40063,0.36793,-0.18794,-0.07871,7.5468,96.82,66.16,40.159,1.22,20,1.5,1.5,12,80,13.63,88
0.12119,131.7709867,28.75472452,170.9986735,141.8427566,17.00021707,10.85233198,98.50410228,94.53290591,103.301651,113.3221543,111.3040226,110.1785392,114.227794,122.4334467,119.4626218,127.0473983,117.0563079,99.9507829,89.4957161,1.9069073,2.361236121,2.013122847,1.345312322,1.24905593,1.119674365,1.570478591,1.09403549,1.528301892,1.085758461,-0.1862,-0.05434,0.8173,0.56378,-0.65525,0.83435,-0.16337,-0.60917,0.68641,-0.71462,-0.7004,0.82364,-0.35465,-0.52523,0.27038,-0.67745,0.27615,0.28158,0.26419,-0.48204,-0.77519,-573.1308,103.1904,16.23,124.3675,151.1974,25.8224,-34.3298,135.0267,22.5608,167.7152,215.1624,31.8698,-66.1944,32.817,29.7785,28.49,159.5439,169.6151,4.74,3.28,9.7,2.97,1.5,2.03,1651.14,646.5808,1743.69,1109.9142,2771.64,37.7559,2.75,1.02,1.88,2.71,1.03,1.9,2,1,1,42.1,11.9,69.3,76.7,10.5,608.84,611.5,70,1.75,-0.25805,-0.10973,0,6.15825,0.61168,123.13,54.677,1.35,0.69974,4.3093,-0.25443,-0.05436,1.15223,1.406029791,1.406432386,1.559021459,60.8212,61.115,61.2353,82.7487,-0.38986,-0.20234,-0.20275,304.57,281.76,33.976,1.47,0.75055,0.58661,0.48654,11.707,-0.21436,-0.02132,200.6,149.39,135.15,1.47,0.76466,4.5053,0.40063,0.36793,-0.18794,-0.07871,7.5468,96.82,66.16,40.159,1.22,20,1.5,1.5,12,80,13.63,86
0.12119,131.7709867,28.75472452,170.9986735,141.8427566,17.00021707,10.85233198,98.50410228,94.53290591,103.301651,113.3221543,111.3040226,110.1785392,114.227794,122.4334467,119.4626218,127.0473983,117.0563079,99.9507829,89.4957161,1.9069073,2.361236121,2.013122847,1.345312322,1.24905593,1.119674365,1.570478591,1.09403549,1.528301892,1.085758461,-0.1862,-0.05434,0.8173,0.56378,-0.65525,0.83435,-0.16337,-0.60917,0.68641,-0.71462,-0.7004,0.82364,-0.35465,-0.52523,0.27038,-0.67745,0.27615,0.28158,0.26419,-0.48204,-0.77519,-573.1308,103.1904,16.23,124.3675,151.1974,25.8224,-34.3298,135.0267,22.5608,167.7152,215.1624,31.8698,-66.1944,32.817,29.7785,28.49,159.5439,169.6151,4.74,3.28,9.7,2.97,1.5,2.03,1651.14,646.5808,1743.69,1109.9142,2771.64,37.7559,2.75,1.02,1.88,2.71,1.03,1.9,2,1,1,42.1,11.9,69.3,76.7,10.5,608.84,611.5,70,1.75,-0.25805,-0.10973,0,6.15825,0.61168,123.13,54.677,1.35,0.69974,4.3093,-0.25443,-0.05436,1.15223,1.406029791,1.406432386,1.559021459,60.8212,61.115,61.2353,82.7487,-0.38986,-0.20234,-0.20275,304.57,281.76,33.976,1.47,0.8795579,0.8724809,0.5383122,11.579,-0.15702,-0.02166,154.85,115.37,60.92,1.35,0.76466,4.5053,0.40063,0.36793,-0.18794,-0.07871,7.5468,96.82,66.16,40.159,1.22,20,1.5,1.5,12,80,13.63,92
0.12119,131.7709867,28.75472452,170.9986735,141.8427566,17.00021707,10.85233198,98.50410228,94.53290591,103.301651,113.3221543,111.3040226,110.1785392,114.227794,122.4334467,119.4626218,127.0473983,117.0563079,99.9507829,89.4957161,1.9069073,2.361236121,2.013122847,1.345312322,1.24905593,1.119674365,1.570478591,1.09403549,1.528301892,1.085758461,-0.1862,-0.05434,0.8173,0.56378,-0.65525,0.83435,-0.16337,-0.60917,0.68641,-0.71462,-0.7004,0.82364,-0.35465,-0.52523,0.27038,-0.67745,0.27615,0.28158,0.26419,-0.48204,-0.77519,-573.1308,103.1904,16.23,124.3675,151.1974,25.8224,-34.3298,135.0267,22.5608,167.7152,215.1624,31.8698,-66.1944,32.817,29.7785,28.49,159.5439,169.6151,4.74,3.28,9.7,2.97,1.5,2.03,1651.14,646.5808,1743.69,1109.9142,2771.64,37.7559,2.75,1.02,1.88,2.71,1.03,1.9,2,1,1,42.1,11.9,69.3,76.7,10.5,608.84,611.5,70,1.75,-0.25805,-0.10973,0,6.15825,0.61168,123.13,54.677,1.35,0.69974,4.3093,-0.25443,-0.05436,1.15223,1.406029791,1.406432386,1.559021459,60.8212,61.115,61.2353,82.7487,-0.38986,-0.20234,-0.20275,304.57,281.76,33.976,1.47,2.83831,0.21079,0.19635,14.4075,-0.09674,-0.0133,147.08,112.65,38.211,1.3,0.76466,4.5053,0.40063,0.36793,-0.18794,-0.07871,7.5468,96.82,66.16,40.159,1.22,20,1.5,1.5,12,80,13.63,90
0.26326,148.509503,18.63234866,175.4108809,145.3724872,10.88715667,9.029950025,86.96700788,103.1634298,89.32856829,114.297989,109.0313072,112.6120881,113.5153017,122.2901923,119.0072974,124.8690775,112.9820115,113.3331065,92.56201396,1.805477227,2.380643321,2.014409134,1.3438594,1.253056169,1.14047106,1.55585026,1.09609104,1.525459933,1.539099049,-0.19905,-0.07036,1.8939,0.57371,-0.64916,0.83164,-0.16567,-0.6172,0.67974,-0.71531,-0.70172,0.83729,-0.15631,-0.43609,0.2214,-0.68303,0.27077,-0.44911,0.26669,-0.47716,-0.77743,-575.7019,102.4444,15.7601,122.8541,150.3375,26.2,-39.4334,132.9387,16.5067,139.8145,164.103,35.3921,-55.9799,29.6087,153.0843,27.7723,150.3481,169.5647,4.91,1.56,5.96,2.97,1.5,2.03,1624.78,750.4423,1692.81,1052.4753,2538.38,300.8947,2.75,1.02,1.88,2.71,1.03,1.9,4.05,1.5,3.14,32.9,9.9,55.1,56.1,10.5,381.31,355.65,71.179,1.57,-0.25805,-0.10973,0,6.15825,0.61168,123.13,54.677,1.35,0.69974,4.3093,-0.25443,-0.05436,1.15223,1.406029791,1.406432386,1.559021459,60.8212,61.115,61.2353,82.7487,-0.38986,-0.20234,-0.20275,304.57,281.76,33.976,1.47,1.78781,0.89525,0.69034,14.8576,-0.19038,-0.02356,136.53,98.77,66.378,1.32,0.76466,4.5053,0.40063,0.36793,-0.18794,-0.07871,7.5468,96.82,66.16,40.159,1.22,20,1.5,2,12,60,12.58,50
0.11885,160.8754088,14.00956945,176.698016,146.8466106,13.01671733,2.812873705,85.78142545,108.8053909,76.77763054,115.0454916,109.1986043,113.5204229,113.4299385,124.9769979,123.1748761,124.9724142,112.9743099,114.3003654,94.32210208,1.808768601,2.47943138,2.002310385,1.342796829,1.238280674,1.138202645,1.555083513,1.097114723,1.374651429,1.539914242,-0.17983,-0.05944,6.5647,0.559,-0.64781,0.83597,-0.1599,-0.65654,0.94282,-0.73269,-0.65349,0.70564,-0.1264,-0.42395,0.22183,-0.6584,0.2743,-0.44872,0.2686,-0.48037,-0.60869,-524.0075,101.323,16.3379,123.649,171.0902,40.6507,80.7865,127.2721,18.9198,138.8872,161.1632,35.9767,-63.8554,29.3376,152.9247,27.7343,151.3283,151.5889,4.83,1.55,6,5.27,1.05,4.2,1701.51,661.274,1715.81,543.7827,2566.89,298.7754,2.75,1.02,1.88,6.17,1.49,7.78,4.05,1.5,3.14,32.3,4.8,57.1,57,10.4,571.92,545.87,76.608,1.77,-0.2582,-0.10974,0.0001,6.15816,0.61175,123.13,54.67,1.35,0.70235,2.3435,-0.24552,-0.02109,1.33336,1.406419107,1.406353917,1.554839652,66.6148,61.3157,61.3096,82.5072,-0.41996,-0.20006,-0.20008,251.54,233.53,13.896,1.37,6.1268961,1.9593751,1.4846016,9.2134,-0.1792,-0.02399,90.57,62.11,40.099,1.19,0.75582,4.5178,0.40418,0.371,-0.1898,-0.08443,7.2601,96.57,66.07,40.078,1.22,11,2,1.5,24,70,5.91,31
0.08556,161.5147332,14.05223809,176.1518306,147.6850569,14.06284615,0.901235885,86.54714773,108.0336446,76.32790864,115.0762819,108.9573988,113.3615687,113.7283483,126.0999946,123.3129028,124.925644,112.9396815,114.7790419,94.52629158,1.81184055,2.479289083,2.000164547,1.336434104,1.230408736,1.137423389,1.555112427,1.09491426,1.400160495,1.539315293,-0.18409,-0.06124,8.3906,0.56698,-0.64644,0.83681,-0.16065,-0.65159,0.93965,-0.7103,-0.65224,0.70557,-0.12644,-0.42397,0.22065,-0.65714,0.27316,-0.44869,0.27229,-0.47958,-0.61346,-527.5066,102.8123,16.7157,124.0053,167.536,42.5552,73.9543,127.9995,18.9157,139.1445,160.9796,36.0067,-65.7028,29.4422,152.9465,27.5455,151.3485,154.7959,4.82,1.55,6,6.47,2.19,6.81,1737.24,780.2769,1714.72,506.3875,2578.34,296.5422,2.75,1.02,1.88,6.17,1.49,7.78,4.05,1.5,3.14,33.9,9.6,59.5,56.1,10.5,686.88,661.2,74.768,1.87,-0.2582,-0.10974,0.0001,6.15816,0.61175,123.13,54.67,1.35,0.70235,2.3435,-0.24552,-0.02109,1.33336,1.406419107,1.406353917,1.554839652,66.6148,61.3157,61.3096,82.5072,-0.41996,-0.20006,-0.20008,251.54,233.53,13.896,1.37,6.1268961,1.9593751,1.4846016,9.2134,-0.1792,-0.02399,90.57,62.11,40.099,1.19,0.75582,4.5178,0.40418,0.371,-0.1898,-0.08443,7.2601,96.57,66.07,40.078,1.22,11,2,1.5,24,70,5.91,32
0.07453,128.7026074,19.77381029,164.3014591,148.3809987,16.10850569,16.21501068,90.04791138,103.6615055,106.1070715,114.6382209,110.7447252,111.3398421,114.1515442,124.2411017,122.877865,125.5359485,111.7408798,116.6310122,94.79248419,1.832210594,2.535763003,1.996948939,1.34744677,1.239284745,1.133835705,1.559839472,1.09352163,1.371620467,1.538218544,-0.17996,-0.0592,6.9739,0.56435,-0.65633,0.83625,-0.16008,-0.6615,0.94769,-0.72059,-0.66584,0.7052,-0.12353,-0.42874,0.21788,-0.66387,0.26451,-0.44597,0.27256,-0.48066,-0.6051,-527.502,100.5866,16.3738,124.7523,169.0119,37.9608,57.3058,129.5602,18.9809,138.6399,162.285,35.217,-60.3085,29.478,151.9083,28.228,159.4835,161.3855,5.08,2.08,7.84,5.27,1.05,4.2,1684.51,532.1729,1711.95,521.3315,2620.98,279.2364,2.75,1.02,1.88,6.17,1.49,7.78,4.05,1.5,3.14,40.3,17.3,64,69,10.9,711.8,718.85,76.952,1.83,-0.2582,-0.10974,0.0001,6.15816,0.61175,123.13,54.67,1.35,0.70235,2.3435,-0.24552,-0.02109,1.33336,1.406419107,1.406353917,1.554839652,66.6148,61.3157,61.3096,82.5072,-0.41996,-0.20006,-0.20008,251.54,233.53,13.896,1.37,6.1268961,1.9593751,1.4846016,9.2134,-0.1792,-0.02399,90.57,62.11,40.099,1.19,0.75582,4.5178,0.40418,0.371,-0.1898,-0.08443,7.2601,96.57,66.07,40.078,1.22,11,2,1.5,24,70,5.91,45
0.12119,131.7709867,28.75472452,170.9986735,141.8427566,17.00021707,10.85233198,98.50410228,94.53290591,103.301651,113.3221543,111.3040226,110.1785392,114.227794,122.4334467,119.4626218,127.0473983,117.0563079,99.9507829,89.4957161,1.9069073,2.361236121,2.013122847,1.345312322,1.24905593,1.119674365,1.570478591,1.09403549,1.528301892,1.085758461,-0.1862,-0.05434,0.8173,0.56378,-0.65525,0.83435,-0.16337,-0.60917,0.68641,-0.71462,-0.7004,0.82364,-0.35465,-0.52523,0.27038,-0.67745,0.27615,0.28158,0.26419,-0.48204,-0.77519,-573.1308,103.1904,16.23,124.3675,151.1974,25.8224,-34.3298,135.0267,22.5608,167.7152,215.1624,31.8698,-66.1944,32.817,29.7785,28.49,159.5439,169.6151,4.74,3.28,9.7,2.97,1.5,2.03,1651.14,646.5808,1743.69,1109.9142,2771.64,37.7559,2.75,1.02,1.88,2.71,1.03,1.9,2,1,1,42.1,11.9,69.3,76.7,10.5,608.84,611.5,70,1.75,-0.25805,-0.10973,0,6.15825,0.61168,123.13,54.677,1.35,0.69974,1.17654,-0.24583,-0.05997,5.9298,1.408167006,1.405771622,1.562001721,60.5658,61.3453,60.9547,83.0383,-0.38779,-0.2043,-0.20326,292.97,272.73,28.206,1.44,1.78781,0.89525,0.69034,14.8576,-0.19038,-0.02356,136.53,98.77,66.378,1.32,0.76466,4.5053,0.40063,0.36793,-0.18794,-0.07871,7.5468,96.82,66.16,40.159,1.22,20,1.5,1.5,12,80,13.63,96
0.12119,131.7709867,28.75472452,170.9986735,141.8427566,17.00021707,10.85233198,98.50410228,94.53290591,103.301651,113.3221543,111.3040226,110.1785392,114.227794,122.4334467,119.4626218,127.0473983,117.0563079,99.9507829,89.4957161,1.9069073,2.361236121,2.013122847,1.345312322,1.24905593,1.119674365,1.570478591,1.09403549,1.528301892,1.085758461,-0.1862,-0.05434,0.8173,0.56378,-0.65525,0.83435,-0.16337,-0.60917,0.68641,-0.71462,-0.7004,0.82364,-0.35465,-0.52523,0.27038,-0.67745,0.27615,0.28158,0.26419,-0.48204,-0.77519,-573.1308,103.1904,16.23,124.3675,151.1974,25.8224,-34.3298,135.0267,22.5608,167.7152,215.1624,31.8698,-66.1944,32.817,29.7785,28.49,159.5439,169.6151,4.74,3.28,9.7,2.97,1.5,2.03,1651.14,646.5808,1743.69,1109.9142,2771.64,37.7559,2.75,1.02,1.88,2.71,1.03,1.9,2,1,1,42.1,11.9,69.3,76.7,10.5,608.84,611.5,70,1.75,-0.25805,-0.10973,0,6.15825,0.61168,123.13,54.677,1.35,0.69974,1.07271,-0.2583,-0.04008,5.9894,1.405414302,1.40648859,1.562309767,61.7734,60.9808,60.8208,83.1233,-0.39316,-0.1946,-0.19489,287.76,265.85,13.779,1.44,1.78781,0.89525,0.69034,14.8576,-0.19038,-0.02356,136.53,98.77,66.378,1.32,0.76466,4.5053,0.40063,0.36793,-0.18794,-0.07871,7.5468,96.82,66.16,40.159,1.22,20,1.5,1.5,12,80,13.63,94
0.12119,131.7709867,28.75472452,170.9986735,141.8427566,17.00021707,10.85233198,98.50410228,94.53290591,103.301651,113.3221543,111.3040226,110.1785392,114.227794,122.4334467,119.4626218,127.0473983,117.0563079,99.9507829,89.4957161,1.9069073,2.361236121,2.013122847,1.345312322,1.24905593,1.119674365,1.570478591,1.09403549,1.528301892,1.085758461,-0.1862,-0.05434,0.8173,0.56378,-0.65525,0.83435,-0.16337,-0.60917,0.68641,-0.71462,-0.7004,0.82364,-0.35465,-0.52523,0.27038,-0.67745,0.27615,0.28158,0.26419,-0.48204,-0.77519,-573.1308,103.1904,16.23,124.3675,151.1974,25.8224,-34.3298,135.0267,22.5608,167.7152,215.1624,31.8698,-66.1944,32.817,29.7785,28.49,159.5439,169.6151,4.74,3.28,9.7,2.97,1.5,2.03,1651.14,646.5808,1743.69,1109.9142,2771.64,37.7559,2.75,1.02,1.88,2.71,1.03,1.9,2,1,1,42.1,11.9,69.3,76.7,10.5,608.84,611.5,70,1.75,-0.25805,-0.10973,0,6.15825,0.61168,123.13,54.677,1.35,0.69974,1.20367,-0.2652,-0.0919,8.6944,1.406851126,1.40684054,1.565189652,56.8393,59.9371,59.9703,83.3588,-0.36827,-0.19508,-0.19508,277.66,255.32,52.744,1.43,1.78781,0.89525,0.69034,14.8576,-0.19038,-0.02356,136.53,98.77,66.378,1.32,0.76466,4.5053,0.40063,0.36793,-0.18794,-0.07871,7.5468,96.82,66.16,40.159,1.22,20,1.5,1.5,12,80,13.63,94
0.12119,131.7709867,28.75472452,170.9986735,141.8427566,17.00021707,10.85233198,98.50410228,94.53290591,103.301651,113.3221543,111.3040226,110.1785392,114.227794,122.4334467,119.4626218,127.0473983,117.0563079,99.9507829,89.4957161,1.9069073,2.361236121,2.013122847,1.345312322,1.24905593,1.119674365,1.570478591,1.09403549,1.528301892,1.085758461,-0.1862,-0.05434,0.8173,0.56378,-0.65525,0.83435,-0.16337,-0.60917,0.68641,-0.71462,-0.7004,0.82364,-0.35465,-0.52523,0.27038,-0.67745,0.27615,0.28158,0.26419,-0.48204,-0.77519,-573.1308,103.1904,16.23,124.3675,151.1974,25.8224,-34.3298,135.0267,22.5608,167.7152,215.1624,31.8698,-66.1944,32.817,29.7785,28.49,159.5439,169.6151,4.74,3.28,9.7,2.97,1.5,2.03,1651.14,646.5808,1743.69,1109.9142,2771.64,37.7559,2.75,1.02,1.88,2.71,1.03,1.9,2,1,1,42.1,11.9,69.3,76.7,10.5,608.84,611.5,70,1.75,-0.25805,-0.10973,0,6.15825,0.61168,123.13,54.677,1.35,0.69974,1.3233,-0.25896,-0.05897,8.7529,1.406602025,1.406591234,1.56391865,59.9996,61.0573,61.0811,83.2863,-0.37778,-0.19867,-0.1987,272.93,253.33,29.165,1.41,1.78781,0.89525,0.69034,14.8576,-0.19038,-0.02356,136.53,98.77,66.378,1.32,0.76466,4.5053,0.40063,0.36793,-0.18794,-0.07871,7.5468,96.82,66.16,40.159,1.22,20,1.5,1.5,12,80,13.63,94
0.12119,131.7709867,28.75472452,170.9986735,141.8427566,17.00021707,10.85233198,98.50410228,94.53290591,103.301651,113.3221543,111.3040226,110.1785392,114.227794,122.4334467,119.4626218,127.0473983,117.0563079,99.9507829,89.4957161,1.9069073,2.361236121,2.013122847,1.345312322,1.24905593,1.119674365,1.570478591,1.09403549,1.528301892,1.085758461,-0.1862,-0.05434,0.8173,0.56378,-0.65525,0.83435,-0.16337,-0.60917,0.68641,-0.71462,-0.7004,0.82364,-0.35465,-0.52523,0.27038,-0.67745,0.27615,0.28158,0.26419,-0.48204,-0.77519,-573.1308,103.1904,16.23,124.3675,151.1974,25.8224,-34.3298,135.0267,22.5608,167.7152,215.1624,31.8698,-66.1944,32.817,29.7785,28.49,159.5439,169.6151,4.74,3.28,9.7,2.97,1.5,2.03,1651.14,646.5808,1743.69,1109.9142,2771.64,37.7559,2.75,1.02,1.88,2.71,1.03,1.9,2,1,1,42.1,11.9,69.3,76.7,10.5,608.84,611.5,70,1.75,-0.25805,-0.10973,0,6.15825,0.61168,123.13,54.677,1.35,0.69974,1.32496,-0.24228,-0.02013,4.1986,1.407389215,1.407386606,1.557288196,70.25,58.7646,58.7892,83.1413,-0.43267,-0.18602,-0.18608,257.72,238.35,13.79,1.39,1.78781,0.89525,0.69034,14.8576,-0.19038,-0.02356,136.53,98.77,66.378,1.32,0.76466,4.5053,0.40063,0.36793,-0.18794,-0.07871,7.5468,96.82,66.16,40.159,1.22,20,1.5,1.5,12,80,13.63,94
0.12119,131.7709867,28.75472452,170.9986735,141.8427566,17.00021707,10.85233198,98.50410228,94.53290591,103.301651,113.3221543,111.3040226,110.1785392,114.227794,122.4334467,119.4626218,127.0473983,117.0563079,99.9507829,89.4957161,1.9069073,2.361236121,2.013122847,1.345312322,1.24905593,1.119674365,1.570478591,1.09403549,1.528301892,1.085758461,-0.1862,-0.05434,0.8173,0.56378,-0.65525,0.83435,-0.16337,-0.60917,0.68641,-0.71462,-0.7004,0.82364,-0.35465,-0.52523,0.27038,-0.67745,0.27615,0.28158,0.26419,-0.48204,-0.77519,-573.1308,103.1904,16.23,124.3675,151.1974,25.8224,-34.3298,135.0267,22.5608,167.7152,215.1624,31.8698,-66.1944,32.817,29.7785,28.49,159.5439,169.6151,4.74,3.28,9.7,2.97,1.5,2.03,1651.14,646.5808,1743.69,1109.9142,2771.64,37.7559,2.75,1.02,1.88,2.71,1.03,1.9,2,1,1,42.1,11.9,69.3,76.7,10.5,608.84,611.5,70,1.75,-0.25805,-0.10973,0,6.15825,0.61168,123.13,54.677,1.35,0.69974,1.325,-0.24508,-0.03034,5.1475,1.40584728,1.405860311,1.55959306,67.1238,59.7062,59.7561,83.166,-0.4139,-0.18634,-0.18642,267.78,247.49,13.787,1.4,1.78781,0.89525,0.69034,14.8576,-0.19038,-0.02356,136.53,98.77,66.378,1.32,0.76466,4.5053,0.40063,0.36793,-0.18794,-0.07871,7.5468,96.82,66.16,40.159,1.22,20,1.5,1.5,12,80,13.63,94
0.12119,131.7709867,28.75472452,170.9986735,141.8427566,17.00021707,10.85233198,98.50410228,94.53290591,103.301651,113.3221543,111.3040226,110.1785392,114.227794,122.4334467,119.4626218,127.0473983,117.0563079,99.9507829,89.4957161,1.9069073,2.361236121,2.013122847,1.345312322,1.24905593,1.119674365,1.570478591,1.09403549,1.528301892,1.085758461,-0.1862,-0.05434,0.8173,0.56378,-0.65525,0.83435,-0.16337,-0.60917,0.68641,-0.71462,-0.7004,0.82364,-0.35465,-0.52523,0.27038,-0.67745,0.27615,0.28158,0.26419,-0.48204,-0.77519,-573.1308,103.1904,16.23,124.3675,151.1974,25.8224,-34.3298,135.0267,22.5608,167.7152,215.1624,31.8698,-66.1944,32.817,29.7785,28.49,159.5439,169.6151,4.74,3.28,9.7,2.97,1.5,2.03,1651.14,646.5808,1743.69,1109.9142,2771.64,37.7559,2.75,1.02,1.88,2.71,1.03,1.9,2,1,1,42.1,11.9,69.3,76.7,10.5,608.84,611.5,70,1.75,-0.25805,-0.10973,0,6.15825,0.61168,123.13,54.677,1.35,0.69974,1.31855,-0.23618,-0.01935,1.8075,1.405490099,1.408195256,1.556436817,69.6796,61.266,61.6429,82.7897,-0.43117,-0.19622,-0.1976,271.97,252.04,13.805,1.41,1.78781,0.89525,0.69034,14.8576,-0.19038,-0.02356,136.53,98.77,66.378,1.32,0.76466,4.5053,0.40063,0.36793,-0.18794,-0.07871,7.5468,96.82,66.16,40.159,1.22,20,1.5,1.5,12,80,13.63,98
0.12119,131.7709867,28.75472452,170.9986735,141.8427566,17.00021707,10.85233198,98.50410228,94.53290591,103.301651,113.3221543,111.3040226,110.1785392,114.227794,122.4334467,119.4626218,127.0473983,117.0563079,99.9507829,89.4957161,1.9069073,2.361236121,2.013122847,1.345312322,1.24905593,1.119674365,1.570478591,1.09403549,1.528301892,1.085758461,-0.1862,-0.05434,0.8173,0.56378,-0.65525,0.83435,-0.16337,-0.60917,0.68641,-0.71462,-0.7004,0.82364,-0.35465,-0.52523,0.27038,-0.67745,0.27615,0.28158,0.26419,-0.48204,-0.77519,-573.1308,103.1904,16.23,124.3675,151.1974,25.8224,-34.3298,135.0267,22.5608,167.7152,215.1624,31.8698,-66.1944,32.817,29.7785,28.49,159.5439,169.6151,4.74,3.28,9.7,2.97,1.5,2.03,1651.14,646.5808,1743.69,1109.9142,2771.64,37.7559,2.75,1.02,1.88,2.71,1.03,1.9,2,1,1,42.1,11.9,69.3,76.7,10.5,608.84,611.5,70,1.75,-0.25805,-0.10973,0,6.15825,0.61168,123.13,54.677,1.35,0.69974,1.0311,-0.24426,-0.02575,5.0978,1.404724823,1.406798816,1.558231722,69.0441,59.1183,59.064,83.2233,-0.42366,-0.18033,-0.18451,297.32,274.52,20.328,1.46,1.78781,0.89525,0.69034,14.8576,-0.19038,-0.02356,136.53,98.77,66.378,1.32,0.76466,4.5053,0.40063,0.36793,-0.18794,-0.07871,7.5468,96.82,66.16,40.159,1.22,20,1.5,1.5,12,80,13.63,94
0.12119,131.7709867,28.75472452,170.9986735,141.8427566,17.00021707,10.85233198,98.50410228,94.53290591,103.301651,113.3221543,111.3040226,110.1785392,114.227794,122.4334467,119.4626218,127.0473983,117.0563079,99.9507829,89.4957161,1.9069073,2.361236121,2.013122847,1.345312322,1.24905593,1.119674365,1.570478591,1.09403549,1.528301892,1.085758461,-0.1862,-0.05434,0.8173,0.56378,-0.65525,0.83435,-0.16337,-0.60917,0.68641,-0.71462,-0.7004,0.82364,-0.35465,-0.52523,0.27038,-0.67745,0.27615,0.28158,0.26419,-0.48204,-0.77519,-573.1308,103.1904,16.23,124.3675,151.1974,25.8224,-34.3298,135.0267,22.5608,167.7152,215.1624,31.8698,-66.1944,32.817,29.7785,28.49,159.5439,169.6151,4.74,3.28,9.7,2.97,1.5,2.03,1651.14,646.5808,1743.69,1109.9142,2771.64,37.7559,2.75,1.02,1.88,2.71,1.03,1.9,2,1,1,42.1,11.9,69.3,76.7,10.5,608.84,611.5,70,1.75,-0.25805,-0.10973,0,6.15825,0.61168,123.13,54.677,1.35,0.69974,0.78593,-0.25782,-0.03323,5.1694,1.406295584,1.403579133,1.561168239,65.0434,57.8614,63.2018,83.1293,-0.404,-0.18334,-0.17231,287.7,265.84,13.794,1.44,1.78781,0.89525,0.69034,14.8576,-0.19038,-0.02356,136.53,98.77,66.378,1.32,0.76466,4.5053,0.40063,0.36793,-0.18794,-0.07871,7.5468,96.82,66.16,40.159,1.22,20,1.5,1.5,12,80,13.63,84
0.12119,131.7709867,28.75472452,170.9986735,141.8427566,17.00021707,10.85233198,98.50410228,94.53290591,103.301651,113.3221543,111.3040226,110.1785392,114.227794,122.4334467,119.4626218,127.0473983,117.0563079,99.9507829,89.4957161,1.9069073,2.361236121,2.013122847,1.345312322,1.24905593,1.119674365,1.570478591,1.09403549,1.528301892,1.085758461,-0.1862,-0.05434,0.8173,0.56378,-0.65525,0.83435,-0.16337,-0.60917,0.68641,-0.71462,-0.7004,0.82364,-0.35465,-0.52523,0.27038,-0.67745,0.27615,0.28158,0.26419,-0.48204,-0.77519,-573.1308,103.1904,16.23,124.3675,151.1974,25.8224,-34.3298,135.0267,22.5608,167.7152,215.1624,31.8698,-66.1944,32.817,29.7785,28.49,159.5439,169.6151,4.74,3.28,9.7,2.97,1.5,2.03,1651.14,646.5808,1743.69,1109.9142,2771.64,37.7559,2.75,1.02,1.88,2.71,1.03,1.9,2,1,1,42.1,11.9,69.3,76.7,10.5,608.84,611.5,70,1.75,-0.25805,-0.10973,0,6.15825,0.61168,123.13,54.677,1.35,0.69974,0.84714,-0.25424,-0.04432,2.415,1.407174974,1.402386252,1.560554402,65.5282,56.5954,58.7003,82.9981,-0.41348,-0.17721,-0.15312,305,281.97,33.844,1.47,1.78781,0.89525,0.69034,14.8576,-0.19038,-0.02356,136.53,98.77,66.378,1.32,0.76466,4.5053,0.40063,0.36793,-0.18794,-0.07871,7.5468,96.82,66.16,40.159,1.22,20,1.5,1.5,12,80,13.63,90
0.12119,131.7709867,28.75472452,170.9986735,141.8427566,17.00021707,10.85233198,98.50410228,94.53290591,103.301651,113.3221543,111.3040226,110.1785392,114.227794,122.4334467,119.4626218,127.0473983,117.0563079,99.9507829,89.4957161,1.9069073,2.361236121,2.013122847,1.345312322,1.24905593,1.119674365,1.570478591,1.09403549,1.528301892,1.085758461,-0.1862,-0.05434,0.8173,0.56378,-0.65525,0.83435,-0.16337,-0.60917,0.68641,-0.71462,-0.7004,0.82364,-0.35465,-0.52523,0.27038,-0.67745,0.27615,0.28158,0.26419,-0.48204,-0.77519,-573.1308,103.1904,16.23,124.3675,151.1974,25.8224,-34.3298,135.0267,22.5608,167.7152,215.1624,31.8698,-66.1944,32.817,29.7785,28.49,159.5439,169.6151,4.74,3.28,9.7,2.97,1.5,2.03,1651.14,646.5808,1743.69,1109.9142,2771.64,37.7559,2.75,1.02,1.88,2.71,1.03,1.9,2,1,1,42.1,11.9,69.3,76.7,10.5,608.84,611.5,70,1.75,-0.25805,-0.10973,0,6.15825,0.61168,123.13,54.677,1.35,0.69974,0.56448,-0.25171,-0.04394,0.3952,1.41075387,1.402862302,1.578300102,56.4898,62.7951,64.5029,81.4542,-0.33183,-0.15138,-0.2248,299.61,280.75,30.515,1.44,1.78781,0.89525,0.69034,14.8576,-0.19038,-0.02356,136.53,98.77,66.378,1.32,0.76466,4.5053,0.40063,0.36793,-0.18794,-0.07871,7.5468,96.82,66.16,40.159,1.22,20,1.5,1.5,12,80,13.63,98
0.12119,131.7709867,28.75472452,170.9986735,141.8427566,17.00021707,10.85233198,98.50410228,94.53290591,103.301651,113.3221543,111.3040226,110.1785392,114.227794,122.4334467,119.4626218,127.0473983,117.0563079,99.9507829,89.4957161,1.9069073,2.361236121,2.013122847,1.345312322,1.24905593,1.119674365,1.570478591,1.09403549,1.528301892,1.085758461,-0.1862,-0.05434,0.8173,0.56378,-0.65525,0.83435,-0.16337,-0.60917,0.68641,-0.71462,-0.7004,0.82364,-0.35465,-0.52523,0.27038,-0.67745,0.27615,0.28158,0.26419,-0.48204,-0.77519,-573.1308,103.1904,16.23,124.3675,151.1974,25.8224,-34.3298,135.0267,22.5608,167.7152,215.1624,31.8698,-66.1944,32.817,29.7785,28.49,159.5439,169.6151,4.74,3.28,9.7,2.97,1.5,2.03,1651.14,646.5808,1743.69,1109.9142,2771.64,37.7559,2.75,1.02,1.88,2.71,1.03,1.9,2,1,1,42.1,11.9,69.3,76.7,10.5,608.84,611.5,70,1.75,-0.25805,-0.10973,0,6.15825,0.61168,123.13,54.677,1.35,0.69974,1.32655,-0.24689,-0.02215,2.4744,1.407188607,1.40714233,1.558678082,66.3684,61.5069,61.4315,82.825,-0.41935,-0.20325,-0.20325,251.98,233.75,13.784,1.37,1.78781,0.89525,0.69034,14.8576,-0.19038,-0.02356,136.53,98.77,66.378,1.32,0.76466,4.5053,0.40063,0.36793,-0.18794,-0.07871,7.5468,96.82,66.16,40.159,1.22,20,1.5,1.5,12,80,13.63,96
0.12119,131.7709867,28.75472452,170.9986735,141.8427566,17.00021707,10.85233198,98.50410228,94.53290591,103.301651,113.3221543,111.3040226,110.1785392,114.227794,122.4334467,119.4626218,127.0473983,117.0563079,99.9507829,89.4957161,1.9069073,2.361236121,2.013122847,1.345312322,1.24905593,1.119674365,1.570478591,1.09403549,1.528301892,1.085758461,-0.1862,-0.05434,0.8173,0.56378,-0.65525,0.83435,-0.16337,-0.60917,0.68641,-0.71462,-0.7004,0.82364,-0.35465,-0.52523,0.27038,-0.67745,0.27615,0.28158,0.26419,-0.48204,-0.77519,-573.1308,103.1904,16.23,124.3675,151.1974,25.8224,-34.3298,135.0267,22.5608,167.7152,215.1624,31.8698,-66.1944,32.817,29.7785,28.49,159.5439,169.6151,4.74,3.28,9.7,2.97,1.5,2.03,1651.14,646.5808,1743.69,1109.9142,2771.64,37.7559,2.75,1.02,1.88,2.71,1.03,1.9,2,1,1,42.1,11.9,69.3,76.7,10.5,608.84,611.5,70,1.75,-0.25805,-0.10973,0,6.15825,0.61168,123.13,54.677,1.35,0.69974,0.29832,-0.26125,-0.05336,4.3189,1.40402279,1.402010724,1.562156737,64.7371,55.6591,54.4489,83.1566,-0.40715,-0.1363,-0.13051,358.05,330.2,53.88,1.55,1.78781,0.89525,0.69034,14.8576,-0.19038,-0.02356,136.53,98.77,66.378,1.32,0.76466,4.5053,0.40063,0.36793,-0.18794,-0.07871,7.5468,96.82,66.16,40.159,1.22,20,1.5,1.5,12,80,13.63,94
0.12119,131.7709867,28.75472452,170.9986735,141.8427566,17.00021707,10.85233198,98.50410228,94.53290591,103.301651,113.3221543,111.3040226,110.1785392,114.227794,122.4334467,119.4626218,127.0473983,117.0563079,99.9507829,89.4957161,1.9069073,2.361236121,2.013122847,1.345312322,1.24905593,1.119674365,1.570478591,1.09403549,1.528301892,1.085758461,-0.1862,-0.05434,0.8173,0.56378,-0.65525,0.83435,-0.16337,-0.60917,0.68641,-0.71462,-0.7004,0.82364,-0.35465,-0.52523,0.27038,-0.67745,0.27615,0.28158,0.26419,-0.48204,-0.77519,-573.1308,103.1904,16.23,124.3675,151.1974,25.8224,-34.3298,135.0267,22.5608,167.7152,215.1624,31.8698,-66.1944,32.817,29.7785,28.49,159.5439,169.6151,4.74,3.28,9.7,2.97,1.5,2.03,1651.14,646.5808,1743.69,1109.9142,2771.64,37.7559,2.75,1.02,1.88,2.71,1.03,1.9,2,1,1,42.1,11.9,69.3,76.7,10.5,608.84,611.5,70,1.75,-0.25805,-0.10973,0,6.15825,0.61168,123.13,54.677,1.35,0.69974,0.25619,-0.21315,-0.0221,4.3887,1.40554127,1.40637385,1.570923054,74.1935,58.865,67.4812,82.874,-0.40251,0.18543,-0.22414,385.81,369.47,27.802,1.55,1.78781,0.89525,0.69034,14.8576,-0.19038,-0.02356,136.53,98.77,66.378,1.32,0.76466,4.5053,0.40063,0.36793,-0.18794,-0.07871,7.5468,96.82,66.16,40.159,1.22,20,1.5,1.5,12,80,13.63,98
0.09805,130.0876591,28.48245846,170.0931141,142.0885438,16.59656457,11.8476179,98.46271053,95.33055273,104.1365737,113.3602922,111.8371705,110.0877696,114.3461402,122.5415645,119.7313298,127.1603266,116.7969475,99.70991511,89.65434137,1.914186394,2.399565639,2.013074703,1.345219519,1.251189361,1.119217876,1.568990168,1.093407737,1.52733952,1.086020656,-0.18668,-0.05531,1.7267,0.57707,-0.65545,0.83598,-0.16356,-0.60921,0.69057,-0.71585,-0.70079,0.82517,-0.35385,-0.52407,0.26938,-0.67521,0.27326,0.28248,0.26413,-0.48164,-0.77192,-575.6234,105.6104,16.1608,123.6694,150.4009,24.0119,-23.3238,135.3153,22.5608,167.6719,215.0335,31.8706,-66.2735,32.6419,29.7941,28.3718,160.1354,170.8948,6.21,3.86,9.41,2.97,1.5,2.03,1639,694.0784,1743.5,1079.3204,2778.41,35.9609,2.75,1.02,1.88,2.71,1.03,1.9,2,1,1,45.9,12.2,72.7,76.9,21.9,694.46,701.18,68.868,1.82,-0.2376,-0.06347,1.1414,1.55657,0.28081,184.51,0,1.51,0.23406,0.5165,-0.21687,-0.05508,2.9133,1.342060019,1.473701487,2.200564065,51.8173,56.9703,51.6551,43.4357,-0.13919,-0.23455,-0.10834,253.91,240.6,0,1.36,1.78781,0.89525,0.69034,14.8576,-0.19038,-0.02356,136.53,98.77,66.378,1.32,0.76466,4.5053,0.40063,0.36793,-0.18794,-0.07871,7.5468,96.82,66.16,40.159,1.22,20,1.5,1.5,12,80,13.63,96
0.09805,130.0876591,28.48245846,170.0931141,142.0885438,16.59656457,11.8476179,98.46271053,95.33055273,104.1365737,113.3602922,111.8371705,110.0877696,114.3461402,122.5415645,119.7313298,127.1603266,116.7969475,99.70991511,89.65434137,1.914186394,2.399565639,2.013074703,1.345219519,1.251189361,1.119217876,1.568990168,1.093407737,1.52733952,1.086020656,-0.18668,-0.05531,1.7267,0.57707,-0.65545,0.83598,-0.16356,-0.60921,0.69057,-0.71585,-0.70079,0.82517,-0.35385,-0.52407,0.26938,-0.67521,0.27326,0.28248,0.26413,-0.48164,-0.77192,-575.6234,105.6104,16.1608,123.6694,150.4009,24.0119,-23.3238,135.3153,22.5608,167.6719,215.0335,31.8706,-66.2735,32.6419,29.7941,28.3718,160.1354,170.8948,6.21,3.86,9.41,2.97,1.5,2.03,1639,694.0784,1743.5,1079.3204,2778.41,35.9609,2.75,1.02,1.88,2.71,1.03,1.9,2,1,1,45.9,12.2,72.7,76.9,21.9,694.46,701.18,68.868,1.82,-0.2376,-0.06347,1.1414,1.55657,0.28081,184.51,0,1.51,0.23406,3.03363,-0.22201,-0.03871,2.7031,1.339480022,1.4957886,2.192571553,48.8053,58.3035,163.5176,45.7252,-0.12732,-0.26299,-0.73216,194.03,175.26,0,1.28,1.78781,0.89525,0.69034,14.8576,-0.19038,-0.02356,136.53,98.77,66.378,1.32,0.76466,4.5053,0.40063,0.36793,-0.18794,-0.07871,7.5468,96.82,66.16,40.159,1.22,20,1.5,1.5,12,80,13.63,94
0.09805,130.0876591,28.48245846,170.0931141,142.0885438,16.59656457,11.8476179,98.46271053,95.33055273,104.1365737,113.3602922,111.8371705,110.0877696,114.3461402,122.5415645,119.7313298,127.1603266,116.7969475,99.70991511,89.65434137,1.914186394,2.399565639,2.013074703,1.345219519,1.251189361,1.119217876,1.568990168,1.093407737,1.52733952,1.086020656,-0.18668,-0.05531,1.7267,0.57707,-0.65545,0.83598,-0.16356,-0.60921,0.69057,-0.71585,-0.70079,0.82517,-0.35385,-0.52407,0.26938,-0.67521,0.27326,0.28248,0.26413,-0.48164,-0.77192,-575.6234,105.6104,16.1608,123.6694,150.4009,24.0119,-23.3238,135.3153,22.5608,167.6719,215.0335,31.8706,-66.2735,32.6419,29.7941,28.3718,160.1354,170.8948,6.21,3.86,9.41,2.97,1.5,2.03,1639,694.0784,1743.5,1079.3204,2778.41,35.9609,2.75,1.02,1.88,2.71,1.03,1.9,2,1,1,45.9,12.2,72.7,76.9,21.9,694.46,701.18,68.868,1.82,-0.2376,-0.06347,1.1414,1.55657,0.28081,184.51,0,1.51,0.23406,1.71531,-0.22256,-0.03836,2.8776,1.339521658,1.501564541,2.202245108,39.7666,58.4786,158.5255,46.8279,-0.11895,-0.25939,-0.50726,213.94,193.84,0,1.32,1.78781,0.89525,0.69034,14.8576,-0.19038,-0.02356,136.53,98.77,66.378,1.32,0.76466,4.5053,0.40063,0.36793,-0.18794,-0.07871,7.5468,96.82,66.16,40.159,1.22,20,1.5,1.5,12,80,13.63,88
0.09805,130.0876591,28.48245846,170.0931141,142.0885438,16.59656457,11.8476179,98.46271053,95.33055273,104.1365737,113.3602922,111.8371705,110.0877696,114.3461402,122.5415645,119.7313298,127.1603266,116.7969475,99.70991511,89.65434137,1.914186394,2.399565639,2.013074703,1.345219519,1.251189361,1.119217876,1.568990168,1.093407737,1.52733952,1.086020656,-0.18668,-0.05531,1.7267,0.57707,-0.65545,0.83598,-0.16356,-0.60921,0.69057,-0.71585,-0.70079,0.82517,-0.35385,-0.52407,0.26938,-0.67521,0.27326,0.28248,0.26413,-0.48164,-0.77192,-575.6234,105.6104,16.1608,123.6694,150.4009,24.0119,-23.3238,135.3153,22.5608,167.6719,215.0335,31.8706,-66.2735,32.6419,29.7941,28.3718,160.1354,170.8948,6.21,3.86,9.41,2.97,1.5,2.03,1639,694.0784,1743.5,1079.3204,2778.41,35.9609,2.75,1.02,1.88,2.71,1.03,1.9,2,1,1,45.9,12.2,72.7,76.9,21.9,694.46,701.18,68.868,1.82,-0.2376,-0.06347,1.1414,1.55657,0.28081,184.51,0,1.51,0.23406,0.55287,-0.22067,-0.03803,2.8251,1.340521537,1.499297683,2.197978906,42.4519,58.981,149.4538,46.1955,-0.11444,-0.26079,-0.50896,253.39,230.52,0,1.39,1.78781,0.89525,0.69034,14.8576,-0.19038,-0.02356,136.53,98.77,66.378,1.32,0.76466,4.5053,0.40063,0.36793,-0.18794,-0.07871,7.5468,96.82,66.16,40.159,1.22,20,1.5,1.5,12,80,13.63,84
0.09805,130.0876591,28.48245846,170.0931141,142.0885438,16.59656457,11.8476179,98.46271053,95.33055273,104.1365737,113.3602922,111.8371705,110.0877696,114.3461402,122.5415645,119.7313298,127.1603266,116.7969475,99.70991511,89.65434137,1.914186394,2.399565639,2.013074703,1.345219519,1.251189361,1.119217876,1.568990168,1.093407737,1.52733952,1.086020656,-0.18668,-0.05531,1.7267,0.57707,-0.65545,0.83598,-0.16356,-0.60921,0.69057,-0.71585,-0.70079,0.82517,-0.35385,-0.52407,0.26938,-0.67521,0.27326,0.28248,0.26413,-0.48164,-0.77192,-575.6234,105.6104,16.1608,123.6694,150.4009,24.0119,-23.3238,135.3153,22.5608,167.6719,215.0335,31.8706,-66.2735,32.6419,29.7941,28.3718,160.1354,170.8948,6.21,3.86,9.41,2.97,1.5,2.03,1639,694.0784,1743.5,1079.3204,2778.41,35.9609,2.75,1.02,1.88,2.71,1.03,1.9,2,1,1,45.9,12.2,72.7,76.9,21.9,694.46,701.18,68.868,1.82,-0.2376,-0.06347,1.1414,1.55657,0.28081,184.51,0,1.51,0.23406,3.68364,-0.22836,-0.02976,3.2635,1.33878092,2.150184275,2.215393211,58.9317,59.8523,29.6876,48.1208,-0.14505,-0.02918,0.25988,151.06,127.86,0,1.23,1.78781,0.89525,0.69034,14.8576,-0.19038,-0.02356,136.53,98.77,66.378,1.32,0.76466,4.5053,0.40063,0.36793,-0.18794,-0.07871,7.5468,96.82,66.16,40.159,1.22,20,1.5,1.5,12,80,13.63,90
0.09805,130.0876591,28.48245846,170.0931141,142.0885438,16.59656457,11.8476179,98.46271053,95.33055273,104.1365737,113.3602922,111.8371705,110.0877696,114.3461402,122.5415645,119.7313298,127.1603266,116.7969475,99.70991511,89.65434137,1.914186394,2.399565639,2.013074703,1.345219519,1.251189361,1.119217876,1.568990168,1.093407737,1.52733952,1.086020656,-0.18668,-0.05531,1.7267,0.57707,-0.65545,0.83598,-0.16356,-0.60921,0.69057,-0.71585,-0.70079,0.82517,-0.35385,-0.52407,0.26938,-0.67521,0.27326,0.28248,0.26413,-0.48164,-0.77192,-575.6234,105.6104,16.1608,123.6694,150.4009,24.0119,-23.3238,135.3153,22.5608,167.6719,215.0335,31.8706,-66.2735,32.6419,29.7941,28.3718,160.1354,170.8948,6.21,3.86,9.41,2.97,1.5,2.03,1639,694.0784,1743.5,1079.3204,2778.41,35.9609,2.75,1.02,1.88,2.71,1.03,1.9,2,1,1,45.9,12.2,72.7,76.9,21.9,694.46,701.18,68.868,1.82,-0.2376,-0.06347,1.1414,1.55657,0.28081,184.51,0,1.51,0.23406,4.54434,-0.23134,-0.02928,3.2023,1.331729225,1.50369467,2.189718855,53.3826,59.9403,150.4843,46.9547,-0.16499,-0.23801,-0.50422,153.03,133.69,0,1.21,1.78781,0.89525,0.69034,14.8576,-0.19038,-0.02356,136.53,98.77,66.378,1.32,0.76466,4.5053,0.40063,0.36793,-0.18794,-0.07871,7.5468,96.82,66.16,40.159,1.22,20,1.5,1.5,12,80,13.63,96
0.09805,130.0876591,28.48245846,170.0931141,142.0885438,16.59656457,11.8476179,98.46271053,95.33055273,104.1365737,113.3602922,111.8371705,110.0877696,114.3461402,122.5415645,119.7313298,127.1603266,116.7969475,99.70991511,89.65434137,1.914186394,2.399565639,2.013074703,1.345219519,1.251189361,1.119217876,1.568990168,1.093407737,1.52733952,1.086020656,-0.18668,-0.05531,1.7267,0.57707,-0.65545,0.83598,-0.16356,-0.60921,0.69057,-0.71585,-0.70079,0.82517,-0.35385,-0.52407,0.26938,-0.67521,0.27326,0.28248,0.26413,-0.48164,-0.77192,-575.6234,105.6104,16.1608,123.6694,150.4009,24.0119,-23.3238,135.3153,22.5608,167.6719,215.0335,31.8706,-66.2735,32.6419,29.7941,28.3718,160.1354,170.8948,6.21,3.86,9.41,2.97,1.5,2.03,1639,694.0784,1743.5,1079.3204,2778.41,35.9609,2.75,1.02,1.88,2.71,1.03,1.9,2,1,1,45.9,12.2,72.7,76.9,21.9,694.46,701.18,68.868,1.82,-0.2376,-0.06347,1.1414,1.55657,0.28081,184.51,0,1.51,0.23406,1.18986,-0.20547,-0.02867,5.6119,1.339665675,1.500723139,2.161608358,76.4959,65.9378,155.2976,47.6981,-0.24444,-0.04871,-0.50219,256.81,231.51,17.907,1.41,1.78781,0.89525,0.69034,14.8576,-0.19038,-0.02356,136.53,98.77,66.378,1.32,0.76466,4.5053,0.40063,0.36793,-0.18794,-0.07871,7.5468,96.82,66.16,40.159,1.22,20,1.5,1.5,12,80,13.63,94
0.13002,153.3455751,16.32135022,172.3632142,151.0334746,19.43681333,8.638842531,86.49560596,115.177747,80.51442184,118.0626017,110.974536,115.8641975,115.2589696,124.7773995,123.0808291,123.7545011,112.2620185,115.3150891,94.00521157,1.891794146,2.453219731,1.988417433,1.342649391,1.240258783,1.126292666,1.547276213,1.099118523,1.373325139,1.539296372,-0.17903,-0.05316,4.3915,0.47777,-0.30199,0.65954,-0.13953,-0.64743,0.94539,-0.72994,-0.66681,0.70341,-0.12702,-0.42796,0.21994,-0.66236,0.26434,-0.44791,0.26511,-0.4639,-0.60598,-456.5242,16.1083,17.4046,131.027,164.8028,39.8751,72.9119,125.9675,18.4687,137.8066,158.105,33.5586,-64.1256,28.9841,153.976,28.2394,154.2173,149.4097,4.29,1.57,4.35,5.27,1.05,4.2,1690.36,557.5325,1709.51,715.5608,2694.12,355.2023,4.81,1.45,3.51,6.17,1.49,7.78,4.05,1.5,3.14,35.3,2.6,54.3,56.3,28.2,580.27,548.18,78.936,1.79,-0.2582,-0.10974,0.0001,6.15816,0.61175,123.13,54.67,1.35,0.70235,2.3435,-0.24552,-0.02109,1.33336,1.406419107,1.406353917,1.554839652,66.6148,61.3157,61.3096,82.5072,-0.41996,-0.20006,-0.20008,251.54,233.53,13.896,1.37,6.1268961,1.9593751,1.4846016,9.2134,-0.1792,-0.02399,90.57,62.11,40.099,1.19,0.75582,4.5178,0.40418,0.371,-0.1898,-0.08443,7.2601,96.57,66.07,40.078,1.22,11,2,1.5,24,70,5.91,79
0.11852,151.7205058,19.85113922,171.4454977,151.2796088,20.76708518,7.98718325,87.51680318,114.590275,81.31010668,116.7259473,111.5406152,115.590153,115.6793692,124.71271,123.2628817,123.2646887,112.08389,116.6536654,93.55717173,1.960623516,2.480406998,1.996212386,1.343214193,1.239888471,1.121103448,1.546256351,1.099500949,1.372742178,1.539263156,-0.17968,-0.05536,4.6702,0.50205,-0.29882,0.65532,-0.13855,-0.64864,0.94506,-0.7261,-0.67938,0.7021,-0.12739,-0.43154,0.21967,-0.66568,0.26077,-0.44699,0.26484,-0.46446,-0.60548,-493.7785,24.9737,19.2229,130.9732,167.6698,39.6246,71.5104,127.7839,18.0155,138.1795,157.8918,32.9227,-64.6205,29.0943,153.7267,28.1708,154.5705,148.3871,4.29,1.57,4.35,5.27,1.05,4.2,1690.17,564.1121,1703.94,772.2863,2785.73,397.1205,5.82,1.5,4.49,6.17,1.49,7.78,4.05,1.5,3.14,37.5,4.6,53.4,58,34.1,615.17,585.14,77.948,1.82,-0.2582,-0.10974,0.0001,6.15816,0.61175,123.13,54.67,1.35,0.70235,2.3435,-0.24552,-0.02109,1.33336,1.406419107,1.406353917,1.554839652,66.6148,61.3157,61.3096,82.5072,-0.41996,-0.20006,-0.20008,251.54,233.53,13.896,1.37,6.1268961,1.9593751,1.4846016,9.2134,-0.1792,-0.02399,90.57,62.11,40.099,1.19,0.75582,4.5178,0.40418,0.371,-0.1898,-0.08443,7.2601,96.57,66.07,40.078,1.22,11,2,1.5,24,70,5.91,60
0.0997,159.1153493,11.22354861,174.26305,147.867718,22.37952912,14.94976887,80.36751244,126.2557283,75.10751295,115.8630534,111.5781345,117.8068166,115.2402474,122.8184136,123.9523026,117.4615535,111.2772197,113.6882053,99.44925048,2.582670031,3.469052613,1.997832655,1.33896933,1.244582525,1.096142357,1.54558345,1.10160191,1.363885542,1.539462212,-0.18367,-0.06191,5.3344,0.54876,-0.30688,0.66281,-0.14009,-0.65391,0.94578,-0.71251,-0.71324,0.70711,-0.12976,-0.43816,0.23242,-0.66069,0.24204,-0.44988,0.26227,-0.46419,-0.59802,-616.5524,35.8915,15.3368,134.1935,179.3603,37.5203,89.4795,124.6908,15.8547,136.293,151.9917,28.1047,-81.1152,28.0757,155.4304,28.4382,153.7485,140.3992,4.27,1.57,4.39,5.27,1.05,4.2,1661.55,414.6788,1698.7,579.6561,3043.94,76.0953,5.8,1.46,4.84,6.17,1.49,7.78,4.05,1.5,3.14,38.8,1.3,46.3,63.5,44.2,641.29,603.98,79.14,1.86,-0.2582,-0.10974,0.0001,6.15816,0.61175,123.13,54.67,1.35,0.70235,2.3435,-0.24552,-0.02109,1.33336,1.406419107,1.406353917,1.554839652,66.6148,61.3157,61.3096,82.5072,-0.41996,-0.20006,-0.20008,251.54,233.53,13.896,1.37,6.1268961,1.9593751,1.4846016,9.2134,-0.1792,-0.02399,90.57,62.11,40.099,1.19,0.75582,4.5178,0.40418,0.371,-0.1898,-0.08443,7.2601,96.57,66.07,40.078,1.22,11,2,1.5,24,70,5.91,43
0.11932,155.5697699,22.90025945,172.7929824,151.5899576,20.99026091,6.839927061,86.06453497,116.3938519,77.09317755,113.563783,111.8548452,115.5701546,116.3804875,125.7151117,121.4992688,122.5616677,112.4997322,116.7440533,92.88149989,1.960287469,2.482021706,2.011964703,1.33715957,1.238637559,1.120667706,1.546733989,1.100573322,1.382293105,1.538372026,-0.18288,-0.05663,4.6923,0.49876,-0.30469,0.66165,-0.14011,-0.64325,0.94036,-0.72268,-0.69183,0.7006,-0.12697,-0.43019,0.21845,-0.67119,0.26049,-0.44572,0.26437,-0.46537,-0.59021,-510.225,22.6728,15.9591,132.1927,170.2465,40.426,74.616,130.6249,17.9657,138.1898,157.3085,32.917,-59.9479,29.0977,154.0349,28.1923,155.1241,162.4164,4.3,1.57,4.36,4.88,1.28,6.99,1707.86,695.7551,1697.2,566.1278,2795.77,409.6022,5.8,1.46,4.84,6.17,1.49,7.78,4.05,1.5,3.14,39.1,5.9,54.3,60,36.1,649.53,631.88,79.404,1.82,-0.2582,-0.10974,0.0001,6.15816,0.61175,123.13,54.67,1.35,0.70235,2.3435,-0.24552,-0.02109,1.33336,1.406419107,1.406353917,1.554839652,66.6148,61.3157,61.3096,82.5072,-0.41996,-0.20006,-0.20008,251.54,233.53,13.896,1.37,6.1268961,1.9593751,1.4846016,9.2134,-0.1792,-0.02399,90.57,62.11,40.099,1.19,0.75582,4.5178,0.40418,0.371,-0.1898,-0.08443,7.2601,96.57,66.07,40.078,1.22,11,2,1.5,24,70,5.91,78
0.08993,145.3173602,21.68518974,169.2908092,152.0885035,21.62484412,15.34698524,85.89827202,117.9993646,87.53544638,113.5346552,111.7932687,115.2205257,115.8282533,125.5693389,121.1145116,122.5390108,112.0746289,116.2477902,92.49791433,1.968948588,2.529954335,2.01233262,1.340790184,1.23842893,1.120343431,1.544721795,1.099521126,1.382000205,1.538484781,-0.18593,-0.05761,3.0188,0.49634,-0.30519,0.66085,-0.14156,-0.64857,0.93953,-0.7151,-0.68986,0.70059,-0.12628,-0.43219,0.219,-0.6699,0.25838,-0.4458,0.26707,-0.46294,-0.59122,-519.9184,21.7818,15.7427,132.2926,178.1414,38.6567,70.7058,131.2851,18.0267,137.4502,157.9455,32.7562,-60.6213,28.9399,154.0404,28.0349,154.3421,177.8159,4.29,1.58,4.37,6.81,1.35,7.89,1704.19,653.8504,1696.85,555.8962,2784.01,407.0011,5.8,1.46,4.84,6.17,1.49,7.78,4.05,1.5,3.14,38.3,93.6,48.7,41.3,63.3,740.11,722.96,80.057,1.9,-0.2582,-0.10974,0.0001,6.15816,0.61175,123.13,54.67,1.35,0.70235,2.3435,-0.24552,-0.02109,1.33336,1.406419107,1.406353917,1.554839652,66.6148,61.3157,61.3096,82.5072,-0.41996,-0.20006,-0.20008,251.54,233.53,13.896,1.37,6.1268961,1.9593751,1.4846016,9.2134,-0.1792,-0.02399,90.57,62.11,40.099,1.19,0.75582,4.5178,0.40418,0.371,-0.1898,-0.08443,7.2601,96.57,66.07,40.078,1.22,11,2,1.5,24,70,5.91,79
0.11775,154.7581453,25.7128113,172.592197,152.3253797,21.76630585,4.11096731,87.95994159,112.7753799,78.45370145,113.1268991,111.1337427,114.1185415,116.8513662,125.3183447,114.6807706,122.9326433,112.2201773,117.6519876,93.51451989,1.963022094,2.426488536,2.009295921,1.330075447,1.242964354,1.12087729,1.546887592,1.095437416,1.557059154,1.537542417,-0.19137,-0.06218,4.0501,0.49929,-0.30113,0.66141,-0.14954,-0.60308,0.57064,-0.66621,-0.68754,0.70089,-0.1268,-0.42966,0.21711,-0.66851,0.25944,-0.44638,0.27379,-0.46968,1.0686,-514.9804,24.2888,16.7251,132.7008,132.7698,38.5893,-19.0488,132.2499,17.9023,138.2983,157.5864,33.0486,-62.8529,29.1627,154.3002,27.5886,154.0981,69.0574,4.3,1.58,4.34,3.39,1.96,2.62,1690.02,604.5167,1701.03,551.5644,2783.66,461.5289,5.8,1.46,4.84,6.17,1.49,7.78,4.05,1.5,3.14,39.2,6.4,54.1,59.7,36.5,572.86,552.47,74.44,1.76,-0.2582,-0.10974,0.0001,6.15816,0.61175,123.13,54.67,1.35,0.70235,2.3435,-0.24552,-0.02109,1.33336,1.406419107,1.406353917,1.554839652,66.6148,61.3157,61.3096,82.5072,-0.41996,-0.20006,-0.20008,251.54,233.53,13.896,1.37,6.1268961,1.9593751,1.4846016,9.2134,-0.1792,-0.02399,90.57,62.11,40.099,1.19,0.75582,4.5178,0.40418,0.371,-0.1898,-0.08443,7.2601,96.57,66.07,40.078,1.22,11,2,1.5,24,70,5.91,69
0.12799,140.8628573,28.31122147,171.66712,149.8478078,19.31760775,10.89013374,90.27914507,106.4257592,91.16349899,115.9871945,112.3049176,113.8591163,115.6191456,126.5725388,120.0518186,123.8649076,111.907985,119.0014193,91.87242813,1.939079797,2.528749594,2.004979332,1.33683178,1.240973143,1.120711654,1.545615287,1.10141997,1.114643904,1.542108063,-0.18114,-0.05637,2.7395,0.46997,-0.30529,0.66129,-0.14082,-0.62774,0.49293,-0.68804,-0.69747,0.70202,-0.12638,-0.43768,0.2207,-0.67098,0.26002,-0.44616,0.25902,-0.46415,0.14349,-482.0781,33.7832,17.2109,130.6894,136.8068,33.3594,-27.9578,126.9907,18.6834,138.9024,162.6528,31.6975,-58.2803,29.6306,152.3022,28.1794,150.7336,23.1978,4.3,1.58,4.34,2,1,1,1707.3,806.8401,1696.48,611.2824,2809.93,273.6793,5.8,1.46,4.84,6.17,1.49,7.78,4.05,1.5,3.14,39.5,17.6,54.9,47.1,38.4,550.13,521.34,73.712,1.76,-0.2582,-0.10974,0.0001,6.15816,0.61175,123.13,54.67,1.35,0.70235,2.3435,-0.24552,-0.02109,1.33336,1.406419107,1.406353917,1.554839652,66.6148,61.3157,61.3096,82.5072,-0.41996,-0.20006,-0.20008,251.54,233.53,13.896,1.37,6.1268961,1.9593751,1.4846016,9.2134,-0.1792,-0.02399,90.57,62.11,40.099,1.19,0.75582,4.5178,0.40418,0.371,-0.1898,-0.08443,7.2601,96.57,66.07,40.078,1.22,11,2,1.5,24,70,5.91,40
0.14958,151.5315742,17.0855574,171.2222494,149.6350288,17.45561813,8.240428848,84.23161637,109.7374351,86.59200816,118.0688693,109.3123718,115.5781128,112.265517,124.7812576,123.2067794,123.2813615,112.5579685,114.323717,93.55658112,1.885469108,2.461808938,1.988204901,1.345772031,1.239138486,1.127046893,1.534427301,1.097428618,1.372256959,1.539975669,-0.18137,-0.05321,4.1291,0.47738,-0.2999,0.65884,-0.13743,-0.64586,0.94419,-0.72821,-0.66263,0.70333,-0.12795,-0.43136,0.22208,-0.66108,0.26674,-0.44923,0.26125,-0.68743,-0.60586,-457.3295,18.251,18.4931,135.1558,163.4728,39.6085,71.9163,125.6124,18.4141,138.1678,159.0582,33.6462,-65.0864,29.0703,154.0555,28.3138,168.8961,151.8537,2.97,1.51,2.03,5.27,1.05,4.2,1691.44,532.7542,1710.63,678.3539,2694.1,346.9713,4.81,1.45,3.51,6.17,1.49,7.78,4.05,1.5,3.14,28.8,2.6,46.9,37.4,28.2,529.05,494.01,80.427,1.75,-0.2582,-0.10974,0.0001,6.15816,0.61175,123.13,54.67,1.35,0.70235,2.3435,-0.24552,-0.02109,1.33336,1.406419107,1.406353917,1.554839652,66.6148,61.3157,61.3096,82.5072,-0.41996,-0.20006,-0.20008,251.54,233.53,13.896,1.37,6.1268961,1.9593751,1.4846016,9.2134,-0.1792,-0.02399,90.57,62.11,40.099,1.19,0.75582,4.5178,0.40418,0.371,-0.1898,-0.08443,7.2601,96.57,66.07,40.078,1.22,11,2,1.5,24,70,5.91,74
0.1333,134.366505,20.09829826,169.7269463,150.2648692,19.69333309,16.52050276,85.6350056,102.5926796,103.6281237,118.8189646,108.8606754,114.6628769,113.1515853,124.0379962,123.1053056,122.8724903,112.0120608,115.58703,93.50673606,1.97078642,2.497280015,1.990572356,1.349061735,1.239902796,1.120647976,1.554916222,1.094683993,1.368275484,1.540005782,-0.18192,-0.05449,4.2524,0.49091,-0.30245,0.65703,-0.13745,-0.64904,0.94639,-0.72128,-0.67224,0.70282,-0.12781,-0.43675,0.22262,-0.66256,0.26077,-0.44849,0.26781,-0.25174,-0.6021,-493.8882,18.9968,19.3037,127.8156,172.9893,38.1883,62.2395,128.8341,18.1762,138.0685,158.4859,32.6044,-67.0895,29.129,153.8844,28.331,156.2194,147.0775,4.14,1.92,3.18,5.27,1.05,4.2,1681.19,473.7874,1707.26,680.124,2785.04,358.6604,4.81,1.45,3.51,6.17,1.49,7.78,4.05,1.5,3.14,32.8,4.5,48.6,48.9,29,566.36,530.49,80.288,1.79,-0.2582,-0.10974,0.0001,6.15816,0.61175,123.13,54.67,1.35,0.70235,2.3435,-0.24552,-0.02109,1.33336,1.406419107,1.406353917,1.554839652,66.6148,61.3157,61.3096,82.5072,-0.41996,-0.20006,-0.20008,251.54,233.53,13.896,1.37,6.1268961,1.9593751,1.4846016,9.2134,-0.1792,-0.02399,90.57,62.11,40.099,1.19,0.75582,4.5178,0.40418,0.371,-0.1898,-0.08443,7.2601,96.57,66.07,40.078,1.22,11,2,1.5,24,70,5.91,80
0.12464,129.3153176,19.99591933,170.4369893,149.9999479,19.43271439,16.27431107,85.0296688,99.8233477,105.5624483,119.6291906,112.2264087,114.9501135,112.7736376,123.9472405,123.0347799,122.7128216,112.0831002,115.5724502,93.55282345,1.971689445,2.505838603,1.989171948,1.348603868,1.240220362,1.120584578,1.573261689,1.093882654,1.368478284,1.540059071,-0.18133,-0.05405,4.4325,0.48847,-0.29553,0.65591,-0.13444,-0.64627,0.94689,-0.72105,-0.67515,0.70283,-0.1276,-0.43629,0.2222,-0.66395,0.26046,-0.44829,0.27026,-0.04923,-0.60241,-487.6323,18.8745,19.8718,124.6283,168.528,38.4696,61.4843,129.0591,18.1092,137.967,158.274,32.659,-65.5806,29.0601,153.8767,28.4497,153.3614,146.0929,4.12,2.75,3.19,5.27,1.05,4.2,1679.45,447.1821,1705.42,978.4384,2785.38,368.9036,4.81,1.45,3.51,6.17,1.49,7.78,4.05,1.5,3.14,33.6,4.1,49.2,50.6,30.4,581.16,547.89,79.62,1.79,-0.2582,-0.10974,0.0001,6.15816,0.61175,123.13,54.67,1.35,0.70235,2.3435,-0.24552,-0.02109,1.33336,1.406419107,1.406353917,1.554839652,66.6148,61.3157,61.3096,82.5072,-0.41996,-0.20006,-0.20008,251.54,233.53,13.896,1.37,6.1268961,1.9593751,1.4846016,9.2134,-0.1792,-0.02399,90.57,62.11,40.099,1.19,0.75582,4.5178,0.40418,0.371,-0.1898,-0.08443,7.2601,96.57,66.07,40.078,1.22,11,2,1.5,24,70,5.91,68
