harel-coffee/ML-for-Asymmetric-C-sp3-H-Reaction-auto/Data/Unbound-model/UM-LB-Real.csv
Rx-L,Ry-L,DA1-2-3-4-L,DA2-3-4-5-L,DA2-3-4-9-L,DA3-4-5-6-L,DA1-2-3-8-L,DA1-2-3-7-L,DA7-3-4-5-L,BA1-2-3-L,BA2-3-4-L,BA3-4-5-L,BA3-4-9-L,BA8-3-4-L,BA8-3-2-L,BA8-3-7-L,BA4-5-10-L,BA2-1-11-L,BL1-2-L,BL2-3-L,BL3-4-L,BL5-6-L,BL4-9-L,BL5-10-L,BL1-11-L,BL3-8-L,BL3-7-L,HOMO-L,LUMO-L,DM-L,q1-L,q2-L,q3-L,q4-L,q5-L,q6-L,q7-L,q8-L,q9-L,q10-L,q11-L,NMR1-L,NMR2-L,NMR3-L,NMR4-L,NMR5-L,NMR6-L,NMR7-L,NMR8-L,NMR9-L,NMR10-L,NMR11-L,L-R14-L,B1-R14-L,B5-R14-L,L-R15-L,B1-R15-L,B5-R15-L,L-Y-L,B1-Y-L,B5-Y-L,Area-L,Volume-L,PSA-L,Ovality-L,VF(C5=O6)-L,VI(C5=O6)-L,VF(N4-H9)-L,VI(N4-H9)-L,L-X-S,B1-X-S,B5-X-S,L-R16-S,B1-R16-S,B5-R16-S,BL1-2-S,BL4-5-S,BL4-7-S,BL3-8-S,BL1-12-S,BA1-2-3-S,BA3-4-5-S,BA4-3-8-S,BA2-1-12-S,BA3-2-6-S,DA2-3-4-5-S,DA12-1-2-6-S,HOMO-S,LUMO-S,Rx-S,NMR1-S,NMR2-S,NMR3-S,NMR4-S,NMR5-S,NMR6-S,NMR7-S,NMR8-S,NMR12-S,q1-S,q2-S,q3-S,q4-S,q6-S,Volume-S,PSA-S,HOMO-MC,LUMO-MC,DM-MC,Rx-MC,Ry-MC,Volume-MC,PSA-MC,Ovality-MC,q(Pd)-MC,DM-CP,HOMO-CP,LUMO-CP,Rx-CP,BL1-2-CP,BL1-6-CP,BL1-7-CP,NMR1-CP,NMR2-CP,NMR6-CP,NMR7-CP,q1-CP,q2-CP,q6-CP,Area-CP,Volume-CP,PSA-CP,Ovality-CP,Rx-B,Ry-B,Rz-B,DM-B,HOMO-B,LUMO-B,Area-B,Volume-B,PSA-B,Ovality-B,q(Ag)-A,Rx-A,Ry-A,Rz-A,HOMO-A,LUMO-A,DM-A,Area-A,Volume-A,PSA-A,Ovality-A,Eqv(L),Eqv(B),Eqv(A),Time(H)   ,T (?C),DC(Solvent),%ee
0.55451,0.24842,18.91114997,159.0046732,54.42019895,162.3786371,149.7756165,95.14148895,46.58332938,114.3365414,111.2869562,123.7752083,116.5167996,115.1551077,112.4222482,106.8344761,110.8828989,121.7573844,1.364047609,1.540512797,1.463953938,1.222440354,1.012397937,1.34690906,1.014614168,1.543136702,1.095442733,-0.23925,0.02198,3.805,-0.35854,0.66298,-0.15382,-0.71348,0.95366,-0.67627,0.29551,-0.47861,0.44542,-0.59118,0.43699,81.4003,29.3663,134.01,164.2633,43.4476,49.0963,27.5604,158.0814,27.8477,146.0268,23.1155,4.29,1.57,4.35,5.27,1.05,4.2,4.81,1.45,3.51,315.26,282.17,63.054,1.52,1786.69,477.7018,3609.24,70.5249,6.17,1.49,7.78,4.05,1.5,3.14,1.396976908,1.094900208,1.094299205,1.539026355,1.012585477,113.1965161,117.5847791,116.8029174,117.7266037,125.2002051,23.93763976,161.9509754,-0.2516,-0.06758,0.62455,147.7973,23.5646,137.9856,157.8017,29.4881,-85.2536,29.4673,155.0422,24.5435,-0.66143,0.72085,-0.14228,-0.45226,-0.60198,270.42,37.693,-0.2582,-0.10974,0.0001,6.15816,0.61175,123.13,54.67,1.35,0.70235,2.3435,-0.24552,-0.02109,1.33336,1.406419107,1.406353917,1.554839652,66.6148,61.3157,61.3096,82.5072,-0.41996,-0.20006,-0.20008,251.54,233.53,13.896,1.37,6.1268961,1.9593751,1.4846016,9.2134,-0.1792,-0.02399,90.57,62.11,40.099,1.19,0.75582,4.5178,0.40418,0.371,-0.1898,-0.08443,7.2601,96.57,66.07,40.078,1.22,11,2,1.5,24,70,5.91,79
0.43719,0.19052,18.41872187,157.358587,56.04114429,161.8666887,149.1094621,95.65503676,44.90503759,114.257469,111.2736297,124.0507772,116.4461823,114.9920374,112.4963455,106.9210866,110.9357334,122.247221,1.360082854,1.541462202,1.463658327,1.222617381,1.012079881,1.346483623,1.012534656,1.543243045,1.094777388,-0.23757,0.02537,3.7369,-0.35443,0.66154,-0.15309,-0.71409,0.9539,-0.67683,0.29546,-0.47864,0.44416,-0.59075,0.43888,91.0698,30.5658,134.3151,164.1963,43.4636,49.1741,27.4983,158.0937,27.8286,146.488,22.7824,4.29,1.57,4.35,5.27,1.05,4.2,5.82,1.5,4.49,355.11,319.04,61.485,1.57,1785.81,492.4022,3617.08,60.4655,6.17,1.49,7.78,4.05,1.5,3.14,1.396976908,1.094900208,1.094299205,1.539026355,1.012585477,113.1965161,117.5847791,116.8029174,117.7266037,125.2002051,23.93763976,161.9509754,-0.2516,-0.06758,0.62455,147.7973,23.5646,137.9856,157.8017,29.4881,-85.2536,29.4673,155.0422,24.5435,-0.66143,0.72085,-0.14228,-0.45226,-0.60198,270.42,37.693,-0.2582,-0.10974,0.0001,6.15816,0.61175,123.13,54.67,1.35,0.70235,2.3435,-0.24552,-0.02109,1.33336,1.406419107,1.406353917,1.554839652,66.6148,61.3157,61.3096,82.5072,-0.41996,-0.20006,-0.20008,251.54,233.53,13.896,1.37,6.1268961,1.9593751,1.4846016,9.2134,-0.1792,-0.02399,90.57,62.11,40.099,1.19,0.75582,4.5178,0.40418,0.371,-0.1898,-0.08443,7.2601,96.57,66.07,40.078,1.22,11,2,1.5,24,70,5.91,60
0.40817,0.16925,26.33385155,156.4226325,58.10437521,161.0932192,156.7869522,87.77395955,43.69337076,113.8020893,111.1521022,123.9609397,116.3210193,114.8680901,112.5435914,106.9199629,110.9377598,120.8392563,1.364109066,1.543941171,1.464936494,1.222810757,1.012034373,1.346023152,1.012580038,1.543147987,1.094264599,-0.23789,0.02242,3.3144,-0.36381,0.66755,-0.15479,-0.71464,0.9544,-0.67699,0.29593,-0.47899,0.44245,-0.59017,0.43658,94.8018,28.2519,134.8361,162.8388,43.1608,48.4712,27.3878,158.0882,27.8319,146.476,23.0092,4.27,1.57,4.39,5.27,1.05,4.2,5.8,1.46,4.84,371.99,337.07,59.691,1.59,1784.69,428.0081,3620.66,55.4155,6.17,1.49,7.78,4.05,1.5,3.14,1.396976908,1.094900208,1.094299205,1.539026355,1.012585477,113.1965161,117.5847791,116.8029174,117.7266037,125.2002051,23.93763976,161.9509754,-0.2516,-0.06758,0.62455,147.7973,23.5646,137.9856,157.8017,29.4881,-85.2536,29.4673,155.0422,24.5435,-0.66143,0.72085,-0.14228,-0.45226,-0.60198,270.42,37.693,-0.2582,-0.10974,0.0001,6.15816,0.61175,123.13,54.67,1.35,0.70235,2.3435,-0.24552,-0.02109,1.33336,1.406419107,1.406353917,1.554839652,66.6148,61.3157,61.3096,82.5072,-0.41996,-0.20006,-0.20008,251.54,233.53,13.896,1.37,6.1268961,1.9593751,1.4846016,9.2134,-0.1792,-0.02399,90.57,62.11,40.099,1.19,0.75582,4.5178,0.40418,0.371,-0.1898,-0.08443,7.2601,96.57,66.07,40.078,1.22,11,2,1.5,24,70,5.91,43
0.50766,0.11118,29.20647402,159.4258402,54.64962356,161.291972,159.9048723,84.71246021,46.94876854,113.648038,110.7755348,123.5834935,116.5353347,115.1325871,112.7867634,106.8077253,111.4747414,120.9362441,1.364479312,1.54501006,1.467079382,1.22095661,1.012648627,1.354158773,1.01261014,1.543193553,1.094712847,-0.2404,-0.00987,2.6589,-0.36404,0.66771,-0.15443,-0.71243,0.95093,-0.6699,0.29444,-0.48034,0.44582,-0.57411,0.43631,94.9104,28.581,134.9411,164.3366,42.5788,48.4259,27.4255,159.0202,27.8722,160.6995,23.1508,4.3,1.57,4.36,4.88,1.28,6.99,5.8,1.46,4.84,396.94,366.55,61.493,1.6,1797.23,480.1463,3613.83,63.3354,6.17,1.49,7.78,4.05,1.5,3.14,1.396976908,1.094900208,1.094299205,1.539026355,1.012585477,113.1965161,117.5847791,116.8029174,117.7266037,125.2002051,23.93763976,161.9509754,-0.2516,-0.06758,0.62455,147.7973,23.5646,137.9856,157.8017,29.4881,-85.2536,29.4673,155.0422,24.5435,-0.66143,0.72085,-0.14228,-0.45226,-0.60198,270.42,37.693,-0.2582,-0.10974,0.0001,6.15816,0.61175,123.13,54.67,1.35,0.70235,2.3435,-0.24552,-0.02109,1.33336,1.406419107,1.406353917,1.554839652,66.6148,61.3157,61.3096,82.5072,-0.41996,-0.20006,-0.20008,251.54,233.53,13.896,1.37,6.1268961,1.9593751,1.4846016,9.2134,-0.1792,-0.02399,90.57,62.11,40.099,1.19,0.75582,4.5178,0.40418,0.371,-0.1898,-0.08443,7.2601,96.57,66.07,40.078,1.22,11,2,1.5,24,70,5.91,78
0.23818,0.07004,22.22211445,133.3454998,62.44101197,176.0789786,152.8255538,92.07528718,20.45976663,114.0663297,111.6743468,127.2426547,117.9903689,115.1030024,111.8150368,106.9609516,111.8362483,121.2903203,1.362473146,1.548050581,1.461588854,1.222310863,1.010612839,1.355086328,1.011748828,1.543638004,1.093402553,-0.21437,-0.02969,2.4764,-0.3618,0.66517,-0.15455,-0.70513,0.94441,-0.67614,0.30021,-0.47486,0.44888,-0.57504,0.43603,94.378,28.5118,135.3792,165.3794,44.3372,61.88,27.2096,156.5389,27.32,184.1439,22.9785,4.29,1.58,4.37,6.81,1.35,7.89,5.8,1.46,4.84,480.57,457.32,59.907,1.67,1797.15,537.6786,3641.93,80.1793,6.17,1.49,7.78,4.05,1.5,3.14,1.396976908,1.094900208,1.094299205,1.539026355,1.012585477,113.1965161,117.5847791,116.8029174,117.7266037,125.2002051,23.93763976,161.9509754,-0.2516,-0.06758,0.62455,147.7973,23.5646,137.9856,157.8017,29.4881,-85.2536,29.4673,155.0422,24.5435,-0.66143,0.72085,-0.14228,-0.45226,-0.60198,270.42,37.693,-0.2582,-0.10974,0.0001,6.15816,0.61175,123.13,54.67,1.35,0.70235,2.3435,-0.24552,-0.02109,1.33336,1.406419107,1.406353917,1.554839652,66.6148,61.3157,61.3096,82.5072,-0.41996,-0.20006,-0.20008,251.54,233.53,13.896,1.37,6.1268961,1.9593751,1.4846016,9.2134,-0.1792,-0.02399,90.57,62.11,40.099,1.19,0.75582,4.5178,0.40418,0.371,-0.1898,-0.08443,7.2601,96.57,66.07,40.078,1.22,11,2,1.5,24,70,5.91,79
0.35662,0.28116,7.894161522,95.23689145,86.68701568,178.7501123,137.2493808,109.2595368,19.21257639,114.8636767,114.155965,129.9426349,117.0489023,112.6369203,111.834574,105.8756224,116.5003863,121.8918843,1.357726668,1.54781253,1.466257666,1.221121882,1.012939452,1.552673611,1.010949041,1.543568186,1.090969758,-0.24174,-0.01606,1.5469,-0.35555,0.66161,-0.15949,-0.66134,0.59493,-0.60151,0.29212,-0.47257,0.45048,1.05236,0.43481,91.4926,29.3127,133.7728,142.2146,39.4268,-42.4737,27.2415,155.747,25.9128,70.2928,23.3648,4.3,1.58,4.34,3.39,1.96,2.62,5.8,1.46,4.84,318.27,286.82,55.208,1.51,1798.81,483.0703,3605.02,128.5316,6.17,1.49,7.78,4.05,1.5,3.14,1.396976908,1.094900208,1.094299205,1.539026355,1.012585477,113.1965161,117.5847791,116.8029174,117.7266037,125.2002051,23.93763976,161.9509754,-0.2516,-0.06758,0.62455,147.7973,23.5646,137.9856,157.8017,29.4881,-85.2536,29.4673,155.0422,24.5435,-0.66143,0.72085,-0.14228,-0.45226,-0.60198,270.42,37.693,-0.2582,-0.10974,0.0001,6.15816,0.61175,123.13,54.67,1.35,0.70235,2.3435,-0.24552,-0.02109,1.33336,1.406419107,1.406353917,1.554839652,66.6148,61.3157,61.3096,82.5072,-0.41996,-0.20006,-0.20008,251.54,233.53,13.896,1.37,6.1268961,1.9593751,1.4846016,9.2134,-0.1792,-0.02399,90.57,62.11,40.099,1.19,0.75582,4.5178,0.40418,0.371,-0.1898,-0.08443,7.2601,96.57,66.07,40.078,1.22,11,2,1.5,24,70,5.91,69
0.73478,0.30118,15.313995,111.1525167,75.15784914,177.1766708,146.0432362,99.52635788,2.116728529,114.2031828,113.4628809,124.8412752,118.7270312,114.114479,111.7331593,106.6099598,112.3798326,120.7565347,1.363342635,1.548233398,1.457287545,1.222679277,1.012978551,1.107309862,1.012137349,1.543629042,1.097195321,-0.235,0.02124,0.7121,-0.36333,0.66392,-0.15275,-0.68413,0.51518,-0.6391,0.28804,-0.47368,0.43872,0.15723,0.43595,92.616,26.9252,135.4501,137.0396,37.532,-43.7862,27.5968,155.4518,26.4211,23.6327,23.2433,4.3,1.58,4.34,2,1,1,5.8,1.46,4.84,289.36,255.3,56.193,1.49,1795.41,569.2823,3613.75,60.0024,6.17,1.49,7.78,4.05,1.5,3.14,1.396976908,1.094900208,1.094299205,1.539026355,1.012585477,113.1965161,117.5847791,116.8029174,117.7266037,125.2002051,23.93763976,161.9509754,-0.2516,-0.06758,0.62455,147.7973,23.5646,137.9856,157.8017,29.4881,-85.2536,29.4673,155.0422,24.5435,-0.66143,0.72085,-0.14228,-0.45226,-0.60198,270.42,37.693,-0.2582,-0.10974,0.0001,6.15816,0.61175,123.13,54.67,1.35,0.70235,2.3435,-0.24552,-0.02109,1.33336,1.406419107,1.406353917,1.554839652,66.6148,61.3157,61.3096,82.5072,-0.41996,-0.20006,-0.20008,251.54,233.53,13.896,1.37,6.1268961,1.9593751,1.4846016,9.2134,-0.1792,-0.02399,90.57,62.11,40.099,1.19,0.75582,4.5178,0.40418,0.371,-0.1898,-0.08443,7.2601,96.57,66.07,40.078,1.22,11,2,1.5,24,70,5.91,40
0.74152,0.45173,19.16325549,74.64661089,126.8499941,169.8070979,103.5461125,139.3442356,42.45794808,114.8580543,113.7386664,124.4025259,118.2373161,109.6565215,109.0279446,109.511744,109.8926191,123.7145591,1.355208611,1.540047235,1.461435107,1.222496199,1.010945835,1.348255763,1.011509023,1.531498804,1.094542129,-0.23473,0.03142,1.8336,-0.35538,0.66247,-0.14285,-0.71082,0.94842,-0.67799,0.27268,-0.69888,0.45023,-0.59259,0.43941,84.8986,30.5259,136.8611,163.3725,44.6899,59.5544,28.0005,173.4003,27.7677,145.0858,22.7666,2.97,1.51,2.03,5.27,1.05,4.2,4.81,1.45,3.51,264.56,227.9,63.498,1.47,1790.88,456.0393,3633.67,84.6328,6.17,1.49,7.78,4.05,1.5,3.14,1.396976908,1.094900208,1.094299205,1.539026355,1.012585477,113.1965161,117.5847791,116.8029174,117.7266037,125.2002051,23.93763976,161.9509754,-0.2516,-0.06758,0.62455,147.7973,23.5646,137.9856,157.8017,29.4881,-85.2536,29.4673,155.0422,24.5435,-0.66143,0.72085,-0.14228,-0.45226,-0.60198,270.42,37.693,-0.2582,-0.10974,0.0001,6.15816,0.61175,123.13,54.67,1.35,0.70235,2.3435,-0.24552,-0.02109,1.33336,1.406419107,1.406353917,1.554839652,66.6148,61.3157,61.3096,82.5072,-0.41996,-0.20006,-0.20008,251.54,233.53,13.896,1.37,6.1268961,1.9593751,1.4846016,9.2134,-0.1792,-0.02399,90.57,62.11,40.099,1.19,0.75582,4.5178,0.40418,0.371,-0.1898,-0.08443,7.2601,96.57,66.07,40.078,1.22,11,2,1.5,24,70,5.91,74
0.61144,0.27795,17.68227372,137.1547069,67.66944707,166.340576,145.458902,97.74098942,22.60167,114.2315611,111.7736606,126.2091127,117.1537805,113.4448117,111.030924,108.1526508,111.2349351,122.9663393,1.357891992,1.54099832,1.461158329,1.222912704,1.011944407,1.347369694,1.012815484,1.548716156,1.09298849,-0.23446,0.02699,3.6521,-0.35248,0.66037,-0.14868,-0.71278,0.95056,-0.67939,0.29515,-0.263,0.44822,-0.59289,0.44019,80.1218,31.9386,130.4105,174.6969,43.733,55.3151,27.5389,159.3065,27.7469,151.0185,22.7544,4.14,1.92,3.18,5.27,1.05,4.2,4.81,1.45,3.51,301.03,264.32,63.248,1.51,1784.89,517.8818,3617.57,69.4436,6.17,1.49,7.78,4.05,1.5,3.14,1.396976908,1.094900208,1.094299205,1.539026355,1.012585477,113.1965161,117.5847791,116.8029174,117.7266037,125.2002051,23.93763976,161.9509754,-0.2516,-0.06758,0.62455,147.7973,23.5646,137.9856,157.8017,29.4881,-85.2536,29.4673,155.0422,24.5435,-0.66143,0.72085,-0.14228,-0.45226,-0.60198,270.42,37.693,-0.2582,-0.10974,0.0001,6.15816,0.61175,123.13,54.67,1.35,0.70235,2.3435,-0.24552,-0.02109,1.33336,1.406419107,1.406353917,1.554839652,66.6148,61.3157,61.3096,82.5072,-0.41996,-0.20006,-0.20008,251.54,233.53,13.896,1.37,6.1268961,1.9593751,1.4846016,9.2134,-0.1792,-0.02399,90.57,62.11,40.099,1.19,0.75582,4.5178,0.40418,0.371,-0.1898,-0.08443,7.2601,96.57,66.07,40.078,1.22,11,2,1.5,24,70,5.91,80
0.51827,0.26951,4.481096739,134.0482918,73.4638767,166.1867482,131.9546171,110.5017357,19.96849896,114.2637133,110.6769729,125.9877032,116.7989903,112.4346407,113.45511,107.7068565,111.3015925,122.0379096,1.363296906,1.543749222,1.463499628,1.222737718,1.012532674,1.346607194,1.013645537,1.571896371,1.092377281,-0.23309,0.02387,3.4588,-0.35421,0.66472,-0.14575,-0.71317,0.95341,-0.6782,0.29587,-0.05374,0.44743,-0.59253,0.43811,77.5316,29.7419,127.9334,168.114,43.9093,54.9011,27.697,151.2935,27.6504,148.6494,22.7969,4.12,2.75,3.19,5.27,1.05,4.2,4.81,1.45,3.51,315.14,281.51,61.751,1.52,1784.89,525.38,3611.11,68.9095,6.17,1.49,7.78,4.05,1.5,3.14,1.396976908,1.094900208,1.094299205,1.539026355,1.012585477,113.1965161,117.5847791,116.8029174,117.7266037,125.2002051,23.93763976,161.9509754,-0.2516,-0.06758,0.62455,147.7973,23.5646,137.9856,157.8017,29.4881,-85.2536,29.4673,155.0422,24.5435,-0.66143,0.72085,-0.14228,-0.45226,-0.60198,270.42,37.693,-0.2582,-0.10974,0.0001,6.15816,0.61175,123.13,54.67,1.35,0.70235,2.3435,-0.24552,-0.02109,1.33336,1.406419107,1.406353917,1.554839652,66.6148,61.3157,61.3096,82.5072,-0.41996,-0.20006,-0.20008,251.54,233.53,13.896,1.37,6.1268961,1.9593751,1.4846016,9.2134,-0.1792,-0.02399,90.57,62.11,40.099,1.19,0.75582,4.5178,0.40418,0.371,-0.1898,-0.08443,7.2601,96.57,66.07,40.078,1.22,11,2,1.5,24,70,5.91,68
0.34284,0.21652,17.03257325,154.7619548,62.05673882,160.9775863,144.2369672,99.10633742,39.74714301,114.4913838,111.8828419,123.6539059,115.5245535,112.9306351,111.0669568,107.9736409,111.053593,122.9817561,1.357115555,1.539056851,1.461482416,1.221634124,1.013937515,1.346113493,1.013486304,1.54906542,1.093090094,-0.23553,0.00074,3.8982,-0.35003,0.66095,-0.1405,-0.71802,0.95303,-0.67256,0.29699,-0.48917,0.44937,-0.59162,0.44075,79.2342,32.4725,132.9991,168.6766,43.6462,45.6537,27.3928,154.6063,28.1329,146.9606,23.0385,4.86,1.55,5.99,5.27,1.05,4.2,4.81,1.45,3.51,342.71,311.88,62.459,1.54,1788.8,484.4434,3594.4,69.0379,6.17,1.49,7.78,4.05,1.5,3.14,1.396976908,1.094900208,1.094299205,1.539026355,1.012585477,113.1965161,117.5847791,116.8029174,117.7266037,125.2002051,23.93763976,161.9509754,-0.2516,-0.06758,0.62455,147.7973,23.5646,137.9856,157.8017,29.4881,-85.2536,29.4673,155.0422,24.5435,-0.66143,0.72085,-0.14228,-0.45226,-0.60198,270.42,37.693,-0.2582,-0.10974,0.0001,6.15816,0.61175,123.13,54.67,1.35,0.70235,2.3435,-0.24552,-0.02109,1.33336,1.406419107,1.406353917,1.554839652,66.6148,61.3157,61.3096,82.5072,-0.41996,-0.20006,-0.20008,251.54,233.53,13.896,1.37,6.1268961,1.9593751,1.4846016,9.2134,-0.1792,-0.02399,90.57,62.11,40.099,1.19,0.75582,4.5178,0.40418,0.371,-0.1898,-0.08443,7.2601,96.57,66.07,40.078,1.22,11,2,1.5,24,70,5.91,82
0.23433,0.10756,17.2703007,157.5564341,60.76059223,160.5398206,144.232155,98.87658691,42.48115529,114.5167336,111.7884366,123.1881155,115.2805219,112.7941171,111.0842265,108.1206386,110.9719615,122.8513864,1.357760049,1.538173922,1.462564672,1.221803527,1.014194977,1.346435666,1.013694093,1.548731497,1.09331146,-0.20575,0.0027,3.9847,-0.35089,0.66189,-0.14084,-0.71812,0.95305,-0.67295,0.29491,-0.4868,0.44879,-0.59162,0.44017,79.3426,32.386,132.9313,168.3795,43.4583,45.5416,27.4953,155.4916,27.9892,145.9519,23.0643,7.58,1.56,8.78,5.27,1.05,4.2,4.81,1.45,3.51,426.31,393.61,68.206,1.64,1787.84,472.623,3583.88,71.0558,6.17,1.49,7.78,4.05,1.5,3.14,1.396976908,1.094900208,1.094299205,1.539026355,1.012585477,113.1965161,117.5847791,116.8029174,117.7266037,125.2002051,23.93763976,161.9509754,-0.2516,-0.06758,0.62455,147.7973,23.5646,137.9856,157.8017,29.4881,-85.2536,29.4673,155.0422,24.5435,-0.66143,0.72085,-0.14228,-0.45226,-0.60198,270.42,37.693,-0.2582,-0.10974,0.0001,6.15816,0.61175,123.13,54.67,1.35,0.70235,2.3435,-0.24552,-0.02109,1.33336,1.406419107,1.406353917,1.554839652,66.6148,61.3157,61.3096,82.5072,-0.41996,-0.20006,-0.20008,251.54,233.53,13.896,1.37,6.1268961,1.9593751,1.4846016,9.2134,-0.1792,-0.02399,90.57,62.11,40.099,1.19,0.75582,4.5178,0.40418,0.371,-0.1898,-0.08443,7.2601,96.57,66.07,40.078,1.22,11,2,1.5,24,70,5.91,80
0.23194,0.15616,20.28043127,159.0279675,59.0121686,160.9264495,147.5779138,95.82242537,44.02868104,114.3735786,111.6420557,123.1979759,115.3564377,112.975145,111.3482696,107.7692755,110.9453832,122.9612666,1.356999315,1.538911872,1.462023327,1.221368957,1.01406944,1.346368268,1.013503708,1.549377542,1.09354438,-0.21094,-0.03496,4.0363,-0.3497,0.66093,-0.14078,-0.7176,0.95288,-0.67112,0.29645,-0.4897,0.44975,-0.59181,0.44145,79.7033,32.2905,132.8952,168.3706,43.3611,44.5317,27.3388,154.8128,28.1757,145.4496,23.0542,5.56,1.55,8.12,5.27,1.05,4.2,4.81,1.45,3.51,388.69,363.19,62.495,1.58,1789.71,453.1313,3594.23,62.7349,6.17,1.49,7.78,4.05,1.5,3.14,1.396976908,1.094900208,1.094299205,1.539026355,1.012585477,113.1965161,117.5847791,116.8029174,117.7266037,125.2002051,23.93763976,161.9509754,-0.2516,-0.06758,0.62455,147.7973,23.5646,137.9856,157.8017,29.4881,-85.2536,29.4673,155.0422,24.5435,-0.66143,0.72085,-0.14228,-0.45226,-0.60198,270.42,37.693,-0.2582,-0.10974,0.0001,6.15816,0.61175,123.13,54.67,1.35,0.70235,2.3435,-0.24552,-0.02109,1.33336,1.406419107,1.406353917,1.554839652,66.6148,61.3157,61.3096,82.5072,-0.41996,-0.20006,-0.20008,251.54,233.53,13.896,1.37,6.1268961,1.9593751,1.4846016,9.2134,-0.1792,-0.02399,90.57,62.11,40.099,1.19,0.75582,4.5178,0.40418,0.371,-0.1898,-0.08443,7.2601,96.57,66.07,40.078,1.22,11,2,1.5,24,70,5.91,80
0.29233,0.20973,13.20995772,156.333844,57.52920339,165.8324001,142.0498262,102.4617032,42.30984747,114.486831,111.9427039,124.0541636,116.235735,113.8007017,111.5742067,107.1805359,110.8310896,121.6749803,1.363318211,1.540363519,1.459043877,1.220322158,1.013467045,1.345365603,1.0147487,1.552589656,1.093276017,-0.23951,-0.0114,2.6398,-0.35714,0.66073,-0.14145,-0.71991,0.95613,-0.67187,0.2989,-0.49809,0.4483,-0.59215,0.43726,79.8995,31.6197,134.1721,170.4042,43.9168,48.9147,27.4489,166.3601,28.206,147.531,23.268,4.97,1.54,5.94,5.27,1.05,4.2,4.81,1.45,3.51,346.55,320.41,62.96,1.53,1794.84,446.5556,3596.69,60.6422,6.17,1.49,7.78,4.05,1.5,3.14,1.396976908,1.094900208,1.094299205,1.539026355,1.012585477,113.1965161,117.5847791,116.8029174,117.7266037,125.2002051,23.93763976,161.9509754,-0.2516,-0.06758,0.62455,147.7973,23.5646,137.9856,157.8017,29.4881,-85.2536,29.4673,155.0422,24.5435,-0.66143,0.72085,-0.14228,-0.45226,-0.60198,270.42,37.693,-0.2582,-0.10974,0.0001,6.15816,0.61175,123.13,54.67,1.35,0.70235,2.3435,-0.24552,-0.02109,1.33336,1.406419107,1.406353917,1.554839652,66.6148,61.3157,61.3096,82.5072,-0.41996,-0.20006,-0.20008,251.54,233.53,13.896,1.37,6.1268961,1.9593751,1.4846016,9.2134,-0.1792,-0.02399,90.57,62.11,40.099,1.19,0.75582,4.5178,0.40418,0.371,-0.1898,-0.08443,7.2601,96.57,66.07,40.078,1.22,11,2,1.5,24,70,5.91,83
0.17189,0.1141,5.714911243,106.0648657,89.75590568,172.373195,134.1958577,110.7353607,8.237823242,114.6345983,113.6055062,126.9397046,117.8243135,112.7557111,111.1988041,107.2761686,111.1581455,121.5957744,1.362281137,1.542815502,1.455182535,1.225007065,1.011108264,1.345996569,1.011775562,1.56291323,1.090956739,-0.22619,-0.01852,2.1546,-0.36075,0.6624,-0.14217,-0.70664,0.95554,-0.6872,0.2984,-0.48589,0.44932,-0.5906,0.43948,82.7863,29.5048,137.2787,167.9155,44.9899,58.8182,28.1986,162.399,28.5785,149.9476,23.3056,5.23,2,7.31,5.27,1.05,4.2,4.81,1.45,3.51,485.5,476.94,59.589,1.64,1772.34,786.841,3621.24,108.4689,6.17,1.49,7.78,4.05,1.5,3.14,1.396976908,1.094900208,1.094299205,1.539026355,1.012585477,113.1965161,117.5847791,116.8029174,117.7266037,125.2002051,23.93763976,161.9509754,-0.2516,-0.06758,0.62455,147.7973,23.5646,137.9856,157.8017,29.4881,-85.2536,29.4673,155.0422,24.5435,-0.66143,0.72085,-0.14228,-0.45226,-0.60198,270.42,37.693,-0.2582,-0.10974,0.0001,6.15816,0.61175,123.13,54.67,1.35,0.70235,2.3435,-0.24552,-0.02109,1.33336,1.406419107,1.406353917,1.554839652,66.6148,61.3157,61.3096,82.5072,-0.41996,-0.20006,-0.20008,251.54,233.53,13.896,1.37,6.1268961,1.9593751,1.4846016,9.2134,-0.1792,-0.02399,90.57,62.11,40.099,1.19,0.75582,4.5178,0.40418,0.371,-0.1898,-0.08443,7.2601,96.57,66.07,40.078,1.22,11,2,1.5,24,70,5.91,87
0.13739,0.0383,15.96614125,106.009416,93.75525405,168.6342115,145.1453677,99.8161426,7.662604873,114.366644,113.5971427,126.268758,117.5636664,112.9782283,111.6515113,107.2218635,111.0104162,118.9279902,1.368341753,1.545316207,1.456008454,1.224627511,1.011367533,1.345812306,1.012719175,1.563319104,1.091668065,-0.21464,-0.02935,2.4939,-0.36575,0.6695,-0.14551,-0.70611,0.95396,-0.6862,0.29901,-0.48933,0.44956,-0.59061,0.4381,84.5129,27.0004,138.433,166.8247,44.5429,59.0609,28.1834,163.6073,28.4926,150.1239,23.7847,5.46,3.34,11.19,5.27,1.05,4.2,4.81,1.45,3.51,638.56,643.77,57.613,1.77,1773.69,706.8568,3620.5,108.8862,6.17,1.49,7.78,4.05,1.5,3.14,1.396976908,1.094900208,1.094299205,1.539026355,1.012585477,113.1965161,117.5847791,116.8029174,117.7266037,125.2002051,23.93763976,161.9509754,-0.2516,-0.06758,0.62455,147.7973,23.5646,137.9856,157.8017,29.4881,-85.2536,29.4673,155.0422,24.5435,-0.66143,0.72085,-0.14228,-0.45226,-0.60198,270.42,37.693,-0.2582,-0.10974,0.0001,6.15816,0.61175,123.13,54.67,1.35,0.70235,2.3435,-0.24552,-0.02109,1.33336,1.406419107,1.406353917,1.554839652,66.6148,61.3157,61.3096,82.5072,-0.41996,-0.20006,-0.20008,251.54,233.53,13.896,1.37,6.1268961,1.9593751,1.4846016,9.2134,-0.1792,-0.02399,90.57,62.11,40.099,1.19,0.75582,4.5178,0.40418,0.371,-0.1898,-0.08443,7.2601,96.57,66.07,40.078,1.22,11,2,1.5,24,70,5.91,84
0.164,0.06736,10.63237639,116.0393739,82.83025226,172.2959664,117.8451526,127.3411649,1.324875637,114.7631825,113.537735,126.8535649,117.6100648,113.0328762,110.8187102,107.0524315,111.2945944,121.4360817,1.361935209,1.53978929,1.456011145,1.224050922,1.011657618,1.346964205,1.014105462,1.560351464,1.089950248,-0.20229,-0.01449,3.6945,-0.35411,0.65944,-0.13942,-0.70836,0.95687,-0.68412,0.29771,-0.48279,0.44864,-0.59211,0.43398,79.3756,31.0348,135.2444,168.8663,45.7463,55.3528,28.1507,160.7403,28.3779,151.3336,23.6547,4.72,2.53,9.21,5.27,1.05,4.2,4.81,1.45,3.51,540.36,530.53,73.263,1.71,1775.12,767.6383,3610.85,98.1438,6.17,1.49,7.78,4.05,1.5,3.14,1.396976908,1.094900208,1.094299205,1.539026355,1.012585477,113.1965161,117.5847791,116.8029174,117.7266037,125.2002051,23.93763976,161.9509754,-0.2516,-0.06758,0.62455,147.7973,23.5646,137.9856,157.8017,29.4881,-85.2536,29.4673,155.0422,24.5435,-0.66143,0.72085,-0.14228,-0.45226,-0.60198,270.42,37.693,-0.2582,-0.10974,0.0001,6.15816,0.61175,123.13,54.67,1.35,0.70235,2.3435,-0.24552,-0.02109,1.33336,1.406419107,1.406353917,1.554839652,66.6148,61.3157,61.3096,82.5072,-0.41996,-0.20006,-0.20008,251.54,233.53,13.896,1.37,6.1268961,1.9593751,1.4846016,9.2134,-0.1792,-0.02399,90.57,62.11,40.099,1.19,0.75582,4.5178,0.40418,0.371,-0.1898,-0.08443,7.2601,96.57,66.07,40.078,1.22,11,2,1.5,24,70,5.91,81
0.17053,0.08348,5.365423698,115.9485863,80.63282033,173.5376565,123.3250342,121.9200151,1.373314507,114.7533504,113.5721441,127.032633,117.7615019,113.1377699,110.8652738,107.018968,111.3013996,121.4050907,1.361512384,1.540871818,1.455482443,1.22422195,1.011571132,1.345975249,1.014131194,1.560993518,1.090497945,-0.22299,-0.02004,2.8038,-0.3536,0.65864,-0.14005,-0.7089,0.95582,-0.68431,0.29971,-0.4845,0.44958,-0.5919,0.43524,79.6734,30.9369,135.5359,169.1153,45.6046,55.6274,28.1033,161.2097,28.4585,150.9008,23.5529,5.26,2.03,7.85,5.27,1.05,4.2,4.81,1.45,3.51,494.01,485.6,59.939,1.65,1774.12,749.0578,3615.74,94.1399,6.17,1.49,7.78,4.05,1.5,3.14,1.396976908,1.094900208,1.094299205,1.539026355,1.012585477,113.1965161,117.5847791,116.8029174,117.7266037,125.2002051,23.93763976,161.9509754,-0.2516,-0.06758,0.62455,147.7973,23.5646,137.9856,157.8017,29.4881,-85.2536,29.4673,155.0422,24.5435,-0.66143,0.72085,-0.14228,-0.45226,-0.60198,270.42,37.693,-0.2582,-0.10974,0.0001,6.15816,0.61175,123.13,54.67,1.35,0.70235,2.3435,-0.24552,-0.02109,1.33336,1.406419107,1.406353917,1.554839652,66.6148,61.3157,61.3096,82.5072,-0.41996,-0.20006,-0.20008,251.54,233.53,13.896,1.37,6.1268961,1.9593751,1.4846016,9.2134,-0.1792,-0.02399,90.57,62.11,40.099,1.19,0.75582,4.5178,0.40418,0.371,-0.1898,-0.08443,7.2601,96.57,66.07,40.078,1.22,11,2,1.5,24,70,5.91,88
0.17053,0.08348,5.365423698,115.9485863,80.63282033,173.5376565,123.3250342,121.9200151,1.373314507,114.7533504,113.5721441,127.032633,117.7615019,113.1377699,110.8652738,107.018968,111.3013996,121.4050907,1.361512384,1.540871818,1.455482443,1.22422195,1.011571132,1.345975249,1.014131194,1.560993518,1.090497945,-0.22299,-0.02004,2.8038,-0.3536,0.65864,-0.14005,-0.7089,0.95582,-0.68431,0.29971,-0.4845,0.44958,-0.5919,0.43524,79.6734,30.9369,135.5359,169.1153,45.6046,55.6274,28.1033,161.2097,28.4585,150.9008,23.5529,5.26,2.03,7.85,5.27,1.05,4.2,4.81,1.45,3.51,494.01,485.6,59.939,1.65,1774.12,749.0578,3615.74,94.1399,6.17,1.49,7.78,4.05,1.5,3.14,1.396976908,1.094900208,1.094299205,1.539026355,1.012585477,113.1965161,117.5847791,116.8029174,117.7266037,125.2002051,23.93763976,161.9509754,-0.2516,-0.06758,0.62455,147.7973,23.5646,137.9856,157.8017,29.4881,-85.2536,29.4673,155.0422,24.5435,-0.66143,0.72085,-0.14228,-0.45226,-0.60198,270.42,37.693,-0.2582,-0.10974,0.0001,6.15816,0.61175,123.13,54.67,1.35,0.70235,2.3435,-0.24552,-0.02109,1.33336,1.406419107,1.406353917,1.554839652,66.6148,61.3157,61.3096,82.5072,-0.41996,-0.20006,-0.20008,251.54,233.53,13.896,1.37,9.4901587,5.6727247,3.5504524,7.1339,-0.227,-0.00511,77.38,52.94,41.422,1.13,0.75582,4.5178,0.40418,0.371,-0.1898,-0.08443,7.2601,96.57,66.07,40.078,1.22,11,3,1.5,24,70,5.91,80
0.17053,0.08348,5.365423698,115.9485863,80.63282033,173.5376565,123.3250342,121.9200151,1.373314507,114.7533504,113.5721441,127.032633,117.7615019,113.1377699,110.8652738,107.018968,111.3013996,121.4050907,1.361512384,1.540871818,1.455482443,1.22422195,1.011571132,1.345975249,1.014131194,1.560993518,1.090497945,-0.22299,-0.02004,2.8038,-0.3536,0.65864,-0.14005,-0.7089,0.95582,-0.68431,0.29971,-0.4845,0.44958,-0.5919,0.43524,79.6734,30.9369,135.5359,169.1153,45.6046,55.6274,28.1033,161.2097,28.4585,150.9008,23.5529,5.26,2.03,7.85,5.27,1.05,4.2,4.81,1.45,3.51,494.01,485.6,59.939,1.65,1774.12,749.0578,3615.74,94.1399,6.17,1.49,7.78,4.05,1.5,3.14,1.396976908,1.094900208,1.094299205,1.539026355,1.012585477,113.1965161,117.5847791,116.8029174,117.7266037,125.2002051,23.93763976,161.9509754,-0.2516,-0.06758,0.62455,147.7973,23.5646,137.9856,157.8017,29.4881,-85.2536,29.4673,155.0422,24.5435,-0.66143,0.72085,-0.14228,-0.45226,-0.60198,270.42,37.693,-0.2582,-0.10974,0.0001,6.15816,0.61175,123.13,54.67,1.35,0.70235,2.3435,-0.24552,-0.02109,1.33336,1.406419107,1.406353917,1.554839652,66.6148,61.3157,61.3096,82.5072,-0.41996,-0.20006,-0.20008,251.54,233.53,13.896,1.37,11.8094949,6.0852569,4.1187292,3.6404,-0.24634,0.00093,87.07,62.98,28.452,1.14,0.75582,4.5178,0.40418,0.371,-0.1898,-0.08443,7.2601,96.57,66.07,40.078,1.22,11,3,1.5,24,70,5.91,67
0.17053,0.08348,5.365423698,115.9485863,80.63282033,173.5376565,123.3250342,121.9200151,1.373314507,114.7533504,113.5721441,127.032633,117.7615019,113.1377699,110.8652738,107.018968,111.3013996,121.4050907,1.361512384,1.540871818,1.455482443,1.22422195,1.011571132,1.345975249,1.014131194,1.560993518,1.090497945,-0.22299,-0.02004,2.8038,-0.3536,0.65864,-0.14005,-0.7089,0.95582,-0.68431,0.29971,-0.4845,0.44958,-0.5919,0.43524,79.6734,30.9369,135.5359,169.1153,45.6046,55.6274,28.1033,161.2097,28.4585,150.9008,23.5529,5.26,2.03,7.85,5.27,1.05,4.2,4.81,1.45,3.51,494.01,485.6,59.939,1.65,1774.12,749.0578,3615.74,94.1399,6.17,1.49,7.78,4.05,1.5,3.14,1.396976908,1.094900208,1.094299205,1.539026355,1.012585477,113.1965161,117.5847791,116.8029174,117.7266037,125.2002051,23.93763976,161.9509754,-0.2516,-0.06758,0.62455,147.7973,23.5646,137.9856,157.8017,29.4881,-85.2536,29.4673,155.0422,24.5435,-0.66143,0.72085,-0.14228,-0.45226,-0.60198,270.42,37.693,-0.2582,-0.10974,0.0001,6.15816,0.61175,123.13,54.67,1.35,0.70235,2.3435,-0.24552,-0.02109,1.33336,1.406419107,1.406353917,1.554839652,66.6148,61.3157,61.3096,82.5072,-0.41996,-0.20006,-0.20008,251.54,233.53,13.896,1.37,11.6007918,3.0893724,2.477202,5.9639,-0.2245,-0.02223,93.91,67.65,27.89,1.17,0.75582,4.5178,0.40418,0.371,-0.1898,-0.08443,7.2601,96.57,66.07,40.078,1.22,11,3,1.5,24,70,5.91,86
0.17053,0.08348,5.365423698,115.9485863,80.63282033,173.5376565,123.3250342,121.9200151,1.373314507,114.7533504,113.5721441,127.032633,117.7615019,113.1377699,110.8652738,107.018968,111.3013996,121.4050907,1.361512384,1.540871818,1.455482443,1.22422195,1.011571132,1.345975249,1.014131194,1.560993518,1.090497945,-0.22299,-0.02004,2.8038,-0.3536,0.65864,-0.14005,-0.7089,0.95582,-0.68431,0.29971,-0.4845,0.44958,-0.5919,0.43524,79.6734,30.9369,135.5359,169.1153,45.6046,55.6274,28.1033,161.2097,28.4585,150.9008,23.5529,5.26,2.03,7.85,5.27,1.05,4.2,4.81,1.45,3.51,494.01,485.6,59.939,1.65,1774.12,749.0578,3615.74,94.1399,6.17,1.49,7.78,4.05,1.5,3.14,1.396976908,1.094900208,1.094299205,1.539026355,1.012585477,113.1965161,117.5847791,116.8029174,117.7266037,125.2002051,23.93763976,161.9509754,-0.2516,-0.06758,0.62455,147.7973,23.5646,137.9856,157.8017,29.4881,-85.2536,29.4673,155.0422,24.5435,-0.66143,0.72085,-0.14228,-0.45226,-0.60198,270.42,37.693,-0.2582,-0.10974,0.0001,6.15816,0.61175,123.13,54.67,1.35,0.70235,2.3435,-0.24552,-0.02109,1.33336,1.406419107,1.406353917,1.554839652,66.6148,61.3157,61.3096,82.5072,-0.41996,-0.20006,-0.20008,251.54,233.53,13.896,1.37,11.5234403,1.9156834,1.6594806,8.1907,-0.20765,-0.02233,106.36,78.35,26.913,1.2,0.75582,4.5178,0.40418,0.371,-0.1898,-0.08443,7.2601,96.57,66.07,40.078,1.22,11,3,1.5,24,70,5.91,69
0.17053,0.08348,5.365423698,115.9485863,80.63282033,173.5376565,123.3250342,121.9200151,1.373314507,114.7533504,113.5721441,127.032633,117.7615019,113.1377699,110.8652738,107.018968,111.3013996,121.4050907,1.361512384,1.540871818,1.455482443,1.22422195,1.011571132,1.345975249,1.014131194,1.560993518,1.090497945,-0.22299,-0.02004,2.8038,-0.3536,0.65864,-0.14005,-0.7089,0.95582,-0.68431,0.29971,-0.4845,0.44958,-0.5919,0.43524,79.6734,30.9369,135.5359,169.1153,45.6046,55.6274,28.1033,161.2097,28.4585,150.9008,23.5529,5.26,2.03,7.85,5.27,1.05,4.2,4.81,1.45,3.51,494.01,485.6,59.939,1.65,1774.12,749.0578,3615.74,94.1399,6.17,1.49,7.78,4.05,1.5,3.14,1.396976908,1.094900208,1.094299205,1.539026355,1.012585477,113.1965161,117.5847791,116.8029174,117.7266037,125.2002051,23.93763976,161.9509754,-0.2516,-0.06758,0.62455,147.7973,23.5646,137.9856,157.8017,29.4881,-85.2536,29.4673,155.0422,24.5435,-0.66143,0.72085,-0.14228,-0.45226,-0.60198,270.42,37.693,-0.2582,-0.10974,0.0001,6.15816,0.61175,123.13,54.67,1.35,0.70235,2.3435,-0.24552,-0.02109,1.33336,1.406419107,1.406353917,1.554839652,66.6148,61.3157,61.3096,82.5072,-0.41996,-0.20006,-0.20008,251.54,233.53,13.896,1.37,12.1510087,3.2802025,2.5829347,7.0648,-0.23403,-0.02445,82,56.12,48.065,1.16,0.75582,4.5178,0.40418,0.371,-0.1898,-0.08443,7.2601,96.57,66.07,40.078,1.22,11,3,1.5,24,70,5.91,87
0.17053,0.08348,5.365423698,115.9485863,80.63282033,173.5376565,123.3250342,121.9200151,1.373314507,114.7533504,113.5721441,127.032633,117.7615019,113.1377699,110.8652738,107.018968,111.3013996,121.4050907,1.361512384,1.540871818,1.455482443,1.22422195,1.011571132,1.345975249,1.014131194,1.560993518,1.090497945,-0.22299,-0.02004,2.8038,-0.3536,0.65864,-0.14005,-0.7089,0.95582,-0.68431,0.29971,-0.4845,0.44958,-0.5919,0.43524,79.6734,30.9369,135.5359,169.1153,45.6046,55.6274,28.1033,161.2097,28.4585,150.9008,23.5529,5.26,2.03,7.85,5.27,1.05,4.2,4.81,1.45,3.51,494.01,485.6,59.939,1.65,1774.12,749.0578,3615.74,94.1399,6.17,1.49,7.78,4.05,1.5,3.14,1.396976908,1.094900208,1.094299205,1.539026355,1.012585477,113.1965161,117.5847791,116.8029174,117.7266037,125.2002051,23.93763976,161.9509754,-0.2516,-0.06758,0.62455,147.7973,23.5646,137.9856,157.8017,29.4881,-85.2536,29.4673,155.0422,24.5435,-0.66143,0.72085,-0.14228,-0.45226,-0.60198,270.42,37.693,-0.2582,-0.10974,0.0001,6.15816,0.61175,123.13,54.67,1.35,0.70235,2.3435,-0.24552,-0.02109,1.33336,1.406419107,1.406353917,1.554839652,66.6148,61.3157,61.3096,82.5072,-0.41996,-0.20006,-0.20008,251.54,233.53,13.896,1.37,12.0723481,1.9815776,1.7021876,9.2522,-0.21725,-0.02406,94.41,66.8,47.176,1.19,0.75582,4.5178,0.40418,0.371,-0.1898,-0.08443,7.2601,96.57,66.07,40.078,1.22,11,3,1.5,24,70,5.91,88
0.17053,0.08348,5.365423698,115.9485863,80.63282033,173.5376565,123.3250342,121.9200151,1.373314507,114.7533504,113.5721441,127.032633,117.7615019,113.1377699,110.8652738,107.018968,111.3013996,121.4050907,1.361512384,1.540871818,1.455482443,1.22422195,1.011571132,1.345975249,1.014131194,1.560993518,1.090497945,-0.22299,-0.02004,2.8038,-0.3536,0.65864,-0.14005,-0.7089,0.95582,-0.68431,0.29971,-0.4845,0.44958,-0.5919,0.43524,79.6734,30.9369,135.5359,169.1153,45.6046,55.6274,28.1033,161.2097,28.4585,150.9008,23.5529,5.26,2.03,7.85,5.27,1.05,4.2,4.81,1.45,3.51,494.01,485.6,59.939,1.65,1774.12,749.0578,3615.74,94.1399,6.17,1.49,7.78,4.05,1.5,3.14,1.396976908,1.094900208,1.094299205,1.539026355,1.012585477,113.1965161,117.5847791,116.8029174,117.7266037,125.2002051,23.93763976,161.9509754,-0.2516,-0.06758,0.62455,147.7973,23.5646,137.9856,157.8017,29.4881,-85.2536,29.4673,155.0422,24.5435,-0.66143,0.72085,-0.14228,-0.45226,-0.60198,270.42,37.693,-0.2582,-0.10974,0.0001,6.15816,0.61175,123.13,54.67,1.35,0.70235,2.3435,-0.24552,-0.02109,1.33336,1.406419107,1.406353917,1.554839652,66.6148,61.3157,61.3096,82.5072,-0.41996,-0.20006,-0.20008,251.54,233.53,13.896,1.37,2.3412478,1.6808921,1.2202094,12.5824,-0.20078,-0.03014,112.65,77.76,68.639,1.28,0.75582,4.5178,0.40418,0.371,-0.1898,-0.08443,7.2601,96.57,66.07,40.078,1.22,11,3,1.5,24,70,5.91,88
0.17053,0.08348,5.365423698,115.9485863,80.63282033,173.5376565,123.3250342,121.9200151,1.373314507,114.7533504,113.5721441,127.032633,117.7615019,113.1377699,110.8652738,107.018968,111.3013996,121.4050907,1.361512384,1.540871818,1.455482443,1.22422195,1.011571132,1.345975249,1.014131194,1.560993518,1.090497945,-0.22299,-0.02004,2.8038,-0.3536,0.65864,-0.14005,-0.7089,0.95582,-0.68431,0.29971,-0.4845,0.44958,-0.5919,0.43524,79.6734,30.9369,135.5359,169.1153,45.6046,55.6274,28.1033,161.2097,28.4585,150.9008,23.5529,5.26,2.03,7.85,5.27,1.05,4.2,4.81,1.45,3.51,494.01,485.6,59.939,1.65,1774.12,749.0578,3615.74,94.1399,6.17,1.49,7.78,4.05,1.5,3.14,1.396976908,1.094900208,1.094299205,1.539026355,1.012585477,113.1965161,117.5847791,116.8029174,117.7266037,125.2002051,23.93763976,161.9509754,-0.2516,-0.06758,0.62455,147.7973,23.5646,137.9856,157.8017,29.4881,-85.2536,29.4673,155.0422,24.5435,-0.66143,0.72085,-0.14228,-0.45226,-0.60198,270.42,37.693,-0.2582,-0.10974,0.0001,6.15816,0.61175,123.13,54.67,1.35,0.70235,2.3435,-0.24552,-0.02109,1.33336,1.406419107,1.406353917,1.554839652,66.6148,61.3157,61.3096,82.5072,-0.41996,-0.20006,-0.20008,251.54,233.53,13.896,1.37,6.1268961,1.9593751,1.4846016,9.2134,-0.1792,-0.02399,90.57,62.11,40.099,1.19,0.75582,4.5178,0.40418,0.371,-0.1898,-0.08443,7.2601,96.57,66.07,40.078,1.22,11,1,1.5,24,70,5.91,87
0.17053,0.08348,5.365423698,115.9485863,80.63282033,173.5376565,123.3250342,121.9200151,1.373314507,114.7533504,113.5721441,127.032633,117.7615019,113.1377699,110.8652738,107.018968,111.3013996,121.4050907,1.361512384,1.540871818,1.455482443,1.22422195,1.011571132,1.345975249,1.014131194,1.560993518,1.090497945,-0.22299,-0.02004,2.8038,-0.3536,0.65864,-0.14005,-0.7089,0.95582,-0.68431,0.29971,-0.4845,0.44958,-0.5919,0.43524,79.6734,30.9369,135.5359,169.1153,45.6046,55.6274,28.1033,161.2097,28.4585,150.9008,23.5529,5.26,2.03,7.85,5.27,1.05,4.2,4.81,1.45,3.51,494.01,485.6,59.939,1.65,1774.12,749.0578,3615.74,94.1399,6.17,1.49,7.78,4.05,1.5,3.14,1.396976908,1.094900208,1.094299205,1.539026355,1.012585477,113.1965161,117.5847791,116.8029174,117.7266037,125.2002051,23.93763976,161.9509754,-0.2516,-0.06758,0.62455,147.7973,23.5646,137.9856,157.8017,29.4881,-85.2536,29.4673,155.0422,24.5435,-0.66143,0.72085,-0.14228,-0.45226,-0.60198,270.42,37.693,-0.2582,-0.10974,0.0001,6.15816,0.61175,123.13,54.67,1.35,0.70235,2.3435,-0.24552,-0.02109,1.33336,1.406419107,1.406353917,1.554839652,66.6148,61.3157,61.3096,82.5072,-0.41996,-0.20006,-0.20008,251.54,233.53,13.896,1.37,6.1268961,1.9593751,1.4846016,9.2134,-0.1792,-0.02399,90.57,62.11,40.099,1.19,0.75582,4.5178,0.40418,0.371,-0.1898,-0.08443,7.2601,96.57,66.07,40.078,1.22,11,3,1.5,24,70,5.91,88
0.17053,0.08348,5.365423698,115.9485863,80.63282033,173.5376565,123.3250342,121.9200151,1.373314507,114.7533504,113.5721441,127.032633,117.7615019,113.1377699,110.8652738,107.018968,111.3013996,121.4050907,1.361512384,1.540871818,1.455482443,1.22422195,1.011571132,1.345975249,1.014131194,1.560993518,1.090497945,-0.22299,-0.02004,2.8038,-0.3536,0.65864,-0.14005,-0.7089,0.95582,-0.68431,0.29971,-0.4845,0.44958,-0.5919,0.43524,79.6734,30.9369,135.5359,169.1153,45.6046,55.6274,28.1033,161.2097,28.4585,150.9008,23.5529,5.26,2.03,7.85,5.27,1.05,4.2,4.81,1.45,3.51,494.01,485.6,59.939,1.65,1774.12,749.0578,3615.74,94.1399,6.17,1.49,7.78,4.05,1.5,3.14,1.396976908,1.094900208,1.094299205,1.539026355,1.012585477,113.1965161,117.5847791,116.8029174,117.7266037,125.2002051,23.93763976,161.9509754,-0.2516,-0.06758,0.62455,147.7973,23.5646,137.9856,157.8017,29.4881,-85.2536,29.4673,155.0422,24.5435,-0.66143,0.72085,-0.14228,-0.45226,-0.60198,270.42,37.693,-0.2582,-0.10974,0.0001,6.15816,0.61175,123.13,54.67,1.35,0.70235,2.3435,-0.24552,-0.02109,1.33336,1.406419107,1.406353917,1.554839652,66.6148,61.3157,61.3096,82.5072,-0.41996,-0.20006,-0.20008,251.54,233.53,13.896,1.37,6.1268961,1.9593751,1.4846016,9.2134,-0.1792,-0.02399,90.57,62.11,40.099,1.19,0.75582,4.5178,0.40418,0.371,-0.1898,-0.08443,7.2601,96.57,66.07,40.078,1.22,11,2,2,24,70,5.91,91
0.17053,0.08348,5.365423698,115.9485863,80.63282033,173.5376565,123.3250342,121.9200151,1.373314507,114.7533504,113.5721441,127.032633,117.7615019,113.1377699,110.8652738,107.018968,111.3013996,121.4050907,1.361512384,1.540871818,1.455482443,1.22422195,1.011571132,1.345975249,1.014131194,1.560993518,1.090497945,-0.22299,-0.02004,2.8038,-0.3536,0.65864,-0.14005,-0.7089,0.95582,-0.68431,0.29971,-0.4845,0.44958,-0.5919,0.43524,79.6734,30.9369,135.5359,169.1153,45.6046,55.6274,28.1033,161.2097,28.4585,150.9008,23.5529,5.26,2.03,7.85,5.27,1.05,4.2,4.81,1.45,3.51,494.01,485.6,59.939,1.65,1774.12,749.0578,3615.74,94.1399,6.17,1.49,7.78,4.05,1.5,3.14,1.396976908,1.094900208,1.094299205,1.539026355,1.012585477,113.1965161,117.5847791,116.8029174,117.7266037,125.2002051,23.93763976,161.9509754,-0.2516,-0.06758,0.62455,147.7973,23.5646,137.9856,157.8017,29.4881,-85.2536,29.4673,155.0422,24.5435,-0.66143,0.72085,-0.14228,-0.45226,-0.60198,270.42,37.693,-0.2582,-0.10974,0.0001,6.15816,0.61175,123.13,54.67,1.35,0.70235,2.3435,-0.24552,-0.02109,1.33336,1.406419107,1.406353917,1.554839652,66.6148,61.3157,61.3096,82.5072,-0.41996,-0.20006,-0.20008,251.54,233.53,13.896,1.37,6.1268961,1.9593751,1.4846016,9.2134,-0.1792,-0.02399,90.57,62.11,40.099,1.19,0.75582,4.5178,0.40418,0.371,-0.1898,-0.08443,7.2601,96.57,66.07,40.078,1.22,11,2,3,24,70,5.91,91
0.17174,0.0852,0.542439799,114.0221922,81.39046659,174.5106778,129.3603457,115.8441711,0.09293805,115.0879711,113.3111837,127.0913641,117.820675,112.9381064,111.5840554,106.9281476,111.6989451,123.411804,1.352232813,1.539218978,1.454740581,1.227957968,1.011976936,1.343211847,1.012884237,1.559341747,1.091201618,-0.22582,-0.02106,2.9348,-0.34233,0.66469,-0.1395,-0.70331,0.96341,-0.71071,0.30439,-0.48532,0.45436,-0.59277,0.44601,80.1662,30.6568,136.2673,168.155,44.5515,68.182,28.0284,162.677,28.2732,150.0976,23.1639,5.25,2.08,7.72,5.27,1.05,4.2,4.81,1.45,3.51,492.72,485.58,59.743,1.65,1747.8,380.3927,3616.97,103.971,6.17,1.49,7.78,4.05,1.5,3.14,1.390884635,1.09475738,1.09434375,1.538561014,1.012866003,113.5823861,117.6565914,116.9223685,117.7731474,124.9571965,24.40420461,162.8956514,-0.25387,-0.0686,0.62394,146.7236,21.393,137.6901,157.5441,29.4621,-66.6731,29.4335,155.1331,24.3986,-0.65648,0.7283,-0.14183,-0.45128,-0.63219,270.36,37.719,-0.25816,-0.10977,0,6.15707,0.61171,123.13,54.675,1.35,0.70145,2.408,-0.24711,-0.02286,1.33383,1.406432464,1.406317826,1.553534443,67.0192,61.3224,61.3176,82.5207,-0.42252,-0.20032,-0.20036,251.54,233.53,13.896,1.37,6.0613836,1.9246289,1.4617137,9.8938,-0.20254,-0.02589,91.14,62.31,40.269,1.2,0.78947,4.4813483,0.3935912,0.3618136,-0.20209,-0.08394,7.9939,96.67,66.1,40.111,1.22,11,2,2,24,70,7.54,88
0.17203,0.08469,1.707023368,113.6918045,79.63108315,175.566433,127.284489,118.0714188,0.364614443,115.2475586,113.4322947,127.057188,118.004316,113.0031079,111.560891,106.849989,111.6700919,123.1717805,1.352508361,1.538101036,1.453887992,1.228447836,1.012032737,1.343627741,1.01368719,1.55952918,1.091036901,-0.22593,-0.02119,3.1708,-0.342,0.66665,-0.13957,-0.70208,0.96334,-0.71283,0.30521,-0.48455,0.45694,-0.59311,0.44857,78.4667,29.6823,136.0815,168.33,44.6196,69.5921,27.9917,162.4556,28.1819,150.2357,23.1733,5.26,2.1,7.75,5.27,1.05,4.2,4.81,1.45,3.51,494.55,485.84,60.615,1.65,1744.24,397.3921,3619.77,115.621,6.17,1.49,7.78,4.05,1.5,3.14,1.389175452,1.094538398,1.09427222,1.538895827,1.013379862,113.6038698,117.57333,116.7940962,117.8563629,124.8901246,24.1460583,163.7631529,-0.25228,-0.06757,0.62383,146.0171,20.9178,137.5366,157.5033,29.4015,-62.5738,29.3982,155.2531,24.2205,-0.65532,0.7288,-0.14106,-0.4508,-0.63863,270.38,37.746,-0.25142,-0.10894,0,6.15622,0.6088,123.19,54.719,1.35,0.74198,2.5161,-0.24837,-0.02391,1.33396,1.406728243,1.40661246,1.554466949,66.9916,61.4462,61.4408,82.5485,-0.42364,-0.20273,-0.20279,251.54,233.53,13.896,1.37,6.0485758,1.9136106,1.4536996,10.069,-0.20468,-0.02361,91.3,62.37,40.317,1.2,0.79558,4.4456008,0.390774,0.3591999,-0.20082,-0.07915,8.2938,97.6,66.42,40.401,1.23,11,2,2,24,70,19.36,77
0.17109,0.08332,5.618619161,115.3427498,78.71578994,174.9531678,123.1567615,122.175313,0.805940388,114.832986,113.6494014,127.1762924,117.9472467,113.1126206,110.9283475,106.9511028,111.3568363,121.4429207,1.360859253,1.540743965,1.454540981,1.224855151,1.011649568,1.346460411,1.014636364,1.560781356,1.090410485,-0.2234,-0.01974,2.9926,-0.35314,0.66018,-0.13989,-0.70729,0.95586,-0.68776,0.30044,-0.48427,0.45269,-0.59234,0.43915,78.7524,30.3782,135.5385,169.0818,45.6508,57.6972,28.0763,161.2661,28.361,151.2674,23.4807,5.27,2.06,7.86,5.27,1.05,4.2,4.81,1.45,3.51,494.52,485.71,60.321,1.65,1774.28,63.2699,3617.55,108.0691,6.17,1.49,7.78,4.05,1.5,3.14,1.395274559,1.094638432,1.09426932,1.538819501,1.013205295,113.2233452,117.5090664,116.6999007,117.8069468,125.1506156,24.01698294,162.384295,-0.24933,-0.06614,0.62452,146.9647,22.9432,137.8256,157.7755,29.4294,-80.7893,29.4303,155.2868,24.3307,-0.66036,0.72193,-0.14132,-0.45141,-0.60929,270.43,37.712,-0.25802,-0.10975,0,6.1584,0.61159,123.14,54.678,1.35,0.69933,2.4764,-0.2471,-0.02241,1.33402,1.406673044,1.406618023,1.555768304,66.5713,61.4323,61.4274,82.5261,-0.42147,-0.20314,-0.20319,251.54,233.53,13.896,1.37,6.0863326,1.9498707,1.4767706,9.4772,-0.18155,-0.02074,90.77,62.18,40.157,1.2,0.76602,4.5001774,0.4001288,0.3674773,-0.18766,-0.07783,7.5956,96.87,66.17,40.173,1.22,11,2,2,24,70,16.88,83
0.17053,0.08348,5.365423698,115.9485863,80.63282033,173.5376565,123.3250342,121.9200151,1.373314507,114.7533504,113.5721441,127.032633,117.7615019,113.1377699,110.8652738,107.018968,111.3013996,121.4050907,1.361512384,1.540871818,1.455482443,1.22422195,1.011571132,1.345975249,1.014131194,1.560993518,1.090497945,-0.22299,-0.02004,2.8038,-0.3536,0.65864,-0.14005,-0.7089,0.95582,-0.68431,0.29971,-0.4845,0.44958,-0.5919,0.43524,79.6734,30.9369,135.5359,169.1153,45.6046,55.6274,28.1033,161.2097,28.4585,150.9008,23.5529,5.26,2.03,7.85,5.692915751,1.017589744,4.6803663,4.81,1.45,3.51,494.01,485.6,59.939,1.65,1774.12,749.0578,3615.74,94.1399,6.17,1.49,7.78,4.05,1.5,3.14,1.396976908,1.094900208,1.094299205,1.539026355,1.012585477,113.1965161,117.5847791,116.8029174,117.7266037,125.2002051,23.93763976,161.9509754,-0.2516,-0.06758,0.62455,147.7973,23.5646,137.9856,157.8017,29.4881,-85.2536,29.4673,155.0422,24.5435,-0.66143,0.72085,-0.14228,-0.45226,-0.60198,270.42,37.693,-0.25612,-0.10781,0.0787,1.68435,0.19147,231.77,52.545,1.5,0.70254,2.3435,-0.24552,-0.02109,1.33336,1.406419107,1.406353917,1.554839652,66.6148,61.3157,61.3096,82.5072,-0.41996,-0.20006,-0.20008,251.54,233.53,13.896,1.37,6.1268961,1.9593751,1.4846016,9.2134,-0.1792,-0.02399,90.57,62.11,40.099,1.19,0.75582,4.5178,0.40418,0.371,-0.1898,-0.08443,7.2601,96.57,66.07,40.078,1.22,11,2,2.5,24,70,5.91,81
0.17053,0.08348,5.365423698,115.9485863,80.63282033,173.5376565,123.3250342,121.9200151,1.373314507,114.7533504,113.5721441,127.032633,117.7615019,113.1377699,110.8652738,107.018968,111.3013996,121.4050907,1.361512384,1.540871818,1.455482443,1.22422195,1.011571132,1.345975249,1.014131194,1.560993518,1.090497945,-0.22299,-0.02004,2.8038,-0.3536,0.65864,-0.14005,-0.7089,0.95582,-0.68431,0.29971,-0.4845,0.44958,-0.5919,0.43524,79.6734,30.9369,135.5359,169.1153,45.6046,55.6274,28.1033,161.2097,28.4585,150.9008,23.5529,5.26,2.03,7.85,5.27,1.05,4.2,4.81,1.45,3.51,494.01,485.6,59.939,1.65,1774.12,749.0578,3615.74,94.1399,6.17,1.49,7.78,4.05,1.5,3.14,1.393180667,1.095052634,1.094415183,1.53950272,1.012140445,113.3625648,117.5844294,116.715815,118.0210873,124.933083,23.54006617,163.7253486,-0.25111,-0.04652,0.55995,150.7652,23.9123,137.987,157.5418,29.4459,-79.1032,29.4641,154.9597,24.6201,-0.66432,0.71955,-0.14138,-0.45313,-0.6078,283,22.559,-0.2582,-0.10974,0.0001,6.15816,0.61175,123.13,54.67,1.35,0.70235,2.3435,-0.24552,-0.02109,1.33336,1.406419107,1.406353917,1.554839652,66.6148,61.3157,61.3096,82.5072,-0.41996,-0.20006,-0.20008,251.54,233.53,13.896,1.37,6.1268961,1.9593751,1.4846016,9.2134,-0.1792,-0.02399,90.57,62.11,40.099,1.19,0.75582,4.5178,0.40418,0.371,-0.1898,-0.08443,7.2601,96.57,66.07,40.078,1.22,11,2,2.5,24,70,5.91,85
0.49904,0.20332,17.48808415,158.8582105,54.60272311,162.4686547,148.4012685,96.59543315,46.43547181,114.4815997,111.4557101,123.7661864,116.5479486,115.10628,112.3850115,106.8123714,110.8850908,121.5755303,1.364395996,1.540410432,1.463961376,1.222474725,1.012392318,1.346983253,1.014659965,1.54332471,1.09530697,-0.23837,0.023,3.6975,-0.35672,0.66348,-0.1541,-0.71342,0.95366,-0.67645,0.29551,-0.47837,0.44519,-0.59118,0.43567,81.761,29.1444,133.9285,164.3422,43.4653,49.2772,27.5655,157.924,27.8236,146.1517,23.097,4.29,1.57,4.35,5.27,1.05,4.2,5.51,1.45,4.5,336.15,300.67,62.793,1.55,1786.37,477.4313,3607.3,69.8542,6.17,1.49,7.78,4.05,1.5,3.14,1.396976908,1.094900208,1.094299205,1.539026355,1.012585477,113.1965161,117.5847791,116.8029174,117.7266037,125.2002051,23.93763976,161.9509754,-0.2516,-0.06758,0.62455,147.7973,23.5646,137.9856,157.8017,29.4881,-85.2536,29.4673,155.0422,24.5435,-0.66143,0.72085,-0.14228,-0.45226,-0.60198,270.42,37.693,-0.2582,-0.10974,0.0001,6.15816,0.61175,123.13,54.67,1.35,0.70235,2.3435,-0.24552,-0.02109,1.33336,1.406419107,1.406353917,1.554839652,66.6148,61.3157,61.3096,82.5072,-0.41996,-0.20006,-0.20008,251.54,233.53,13.896,1.37,6.1268961,1.9593751,1.4846016,9.2134,-0.1792,-0.02399,90.57,62.11,40.099,1.19,0.75582,4.5178,0.40418,0.371,-0.1898,-0.08443,7.2601,96.57,66.07,40.078,1.22,11,2,1.5,24,70,5.91,79
0.44315,0.0948,16.70754088,157.5844276,55.70973797,162.4997344,147.4009361,97.4676914,44.97633686,114.683607,111.2413275,123.9630244,116.5715106,115.12291,112.3229496,106.8406163,110.9452761,122.5533695,1.361825497,1.53915938,1.463279289,1.222553651,1.012181671,1.346380968,1.013929976,1.543867933,1.09477716,-0.23868,-0.00778,3.6037,-0.35143,0.66379,-0.15297,-0.71386,0.95397,-0.67649,0.29683,-0.47836,0.44486,-0.59076,0.43948,80.6839,28.8441,134.0856,164.5786,43.4219,49.0734,27.4321,157.6777,27.7665,146.1723,22.6197,4.29,1.57,4.36,5.27,1.05,4.2,6.54,1.5,7.31,397.98,366.61,61.988,1.61,1785.62,524.4343,3615.31,63.78,6.17,1.49,7.78,4.05,1.5,3.14,1.396976908,1.094900208,1.094299205,1.539026355,1.012585477,113.1965161,117.5847791,116.8029174,117.7266037,125.2002051,23.93763976,161.9509754,-0.2516,-0.06758,0.62455,147.7973,23.5646,137.9856,157.8017,29.4881,-85.2536,29.4673,155.0422,24.5435,-0.66143,0.72085,-0.14228,-0.45226,-0.60198,270.42,37.693,-0.2582,-0.10974,0.0001,6.15816,0.61175,123.13,54.67,1.35,0.70235,2.3435,-0.24552,-0.02109,1.33336,1.406419107,1.406353917,1.554839652,66.6148,61.3157,61.3096,82.5072,-0.41996,-0.20006,-0.20008,251.54,233.53,13.896,1.37,6.1268961,1.9593751,1.4846016,9.2134,-0.1792,-0.02399,90.57,62.11,40.099,1.19,0.75582,4.5178,0.40418,0.371,-0.1898,-0.08443,7.2601,96.57,66.07,40.078,1.22,11,2,1.5,24,70,5.91,78
0.32242,0.24788,16.58735165,156.6945462,65.67234483,157.670431,140.9952908,101.3651825,40.2850389,114.3350725,111.9826528,123.1244399,112.9711722,110.8869251,110.8423828,108.6580124,111.1029166,122.6782803,1.357952465,1.538503389,1.462710206,1.221995943,1.014379639,1.345886596,1.013581388,1.532761909,1.092867071,-0.23771,0.02666,4.5254,-0.35333,0.66113,-0.16802,-0.71759,0.95472,-0.67317,0.2966,-0.11945,0.44655,-0.59107,0.44036,80.1896,32.6234,133.8032,170.8886,42.9141,42.873,27.8778,130.7179,27.1916,144.9093,22.7779,6.09,1.54,4.82,5.27,1.05,4.2,4.81,1.45,3.51,349.73,310.13,69.724,1.58,1784.77,406.1726,3581.19,75.5228,6.17,1.49,7.78,4.05,1.5,3.14,1.396976908,1.094900208,1.094299205,1.539026355,1.012585477,113.1965161,117.5847791,116.8029174,117.7266037,125.2002051,23.93763976,161.9509754,-0.2516,-0.06758,0.62455,147.7973,23.5646,137.9856,157.8017,29.4881,-85.2536,29.4673,155.0422,24.5435,-0.66143,0.72085,-0.14228,-0.45226,-0.60198,270.42,37.693,-0.2582,-0.10974,0.0001,6.15816,0.61175,123.13,54.67,1.35,0.70235,2.3435,-0.24552,-0.02109,1.33336,1.406419107,1.406353917,1.554839652,66.6148,61.3157,61.3096,82.5072,-0.41996,-0.20006,-0.20008,251.54,233.53,13.896,1.37,6.1268961,1.9593751,1.4846016,9.2134,-0.1792,-0.02399,90.57,62.11,40.099,1.19,0.75582,4.5178,0.40418,0.371,-0.1898,-0.08443,7.2601,96.57,66.07,40.078,1.22,11,2,1.5,24,70,5.91,76
0.30489,0.14544,7.843452554,140.7683546,73.46564885,161.9895659,136.6483741,107.9302103,26.88894393,114.865646,112.7360769,124.7650961,115.6869429,112.913487,112.1760337,107.1025987,111.2467374,122.5896383,1.355175073,1.537404933,1.458409039,1.221768595,1.013598108,1.345870103,1.013710865,1.557612584,1.091897416,-0.20946,-0.03591,3.735,-0.34588,0.66179,-0.14205,-0.71652,0.95314,-0.67391,0.30097,-0.49118,0.45022,-0.59198,0.44145,79.2829,30.9494,134.6259,168.1017,44.2399,47.8482,27.2756,156.5356,28.3452,149.4508,23.0165,5.01,1.56,7.16,5.27,1.05,4.2,4.81,1.45,3.51,384.57,362.6,61.064,1.56,1788.61,484.9549,3596.9,83.4879,6.17,1.49,7.78,4.05,1.5,3.14,1.396976908,1.094900208,1.094299205,1.539026355,1.012585477,113.1965161,117.5847791,116.8029174,117.7266037,125.2002051,23.93763976,161.9509754,-0.2516,-0.06758,0.62455,147.7973,23.5646,137.9856,157.8017,29.4881,-85.2536,29.4673,155.0422,24.5435,-0.66143,0.72085,-0.14228,-0.45226,-0.60198,270.42,37.693,-0.2582,-0.10974,0.0001,6.15816,0.61175,123.13,54.67,1.35,0.70235,2.3435,-0.24552,-0.02109,1.33336,1.406419107,1.406353917,1.554839652,66.6148,61.3157,61.3096,82.5072,-0.41996,-0.20006,-0.20008,251.54,233.53,13.896,1.37,6.1268961,1.9593751,1.4846016,9.2134,-0.1792,-0.02399,90.57,62.11,40.099,1.19,0.75582,4.5178,0.40418,0.371,-0.1898,-0.08443,7.2601,96.57,66.07,40.078,1.22,11,2,1.5,24,70,5.91,82
0.21716,0.16193,13.83949975,156.9775039,55.18080598,166.1739745,142.641577,102.166309,42.53766746,114.5269785,112.1120216,124.2200177,116.5789224,113.8344607,111.3057967,106.9310867,110.7383491,121.8089877,1.362651583,1.541041177,1.457749114,1.219984673,1.013185708,1.344850242,1.014690309,1.55296965,1.093243558,-0.244,-0.02126,5.2937,-0.35606,0.65941,-0.14208,-0.7201,0.95487,-0.66958,0.3016,-0.49933,0.4482,-0.59236,0.43789,79.8785,31.9756,134.2572,170.7913,44.2438,48.3264,27.3857,166.1364,28.1759,147.1891,23.2779,4.62,1.54,6.72,5.27,1.05,4.2,4.81,1.45,3.51,364.03,334.33,62.941,1.56,1795.96,454.6327,3602.03,59.6746,6.17,1.49,7.78,4.05,1.5,3.14,1.396976908,1.094900208,1.094299205,1.539026355,1.012585477,113.1965161,117.5847791,116.8029174,117.7266037,125.2002051,23.93763976,161.9509754,-0.2516,-0.06758,0.62455,147.7973,23.5646,137.9856,157.8017,29.4881,-85.2536,29.4673,155.0422,24.5435,-0.66143,0.72085,-0.14228,-0.45226,-0.60198,270.42,37.693,-0.2582,-0.10974,0.0001,6.15816,0.61175,123.13,54.67,1.35,0.70235,2.3435,-0.24552,-0.02109,1.33336,1.406419107,1.406353917,1.554839652,66.6148,61.3157,61.3096,82.5072,-0.41996,-0.20006,-0.20008,251.54,233.53,13.896,1.37,6.1268961,1.9593751,1.4846016,9.2134,-0.1792,-0.02399,90.57,62.11,40.099,1.19,0.75582,4.5178,0.40418,0.371,-0.1898,-0.08443,7.2601,96.57,66.07,40.078,1.22,11,2,1.5,24,70,5.91,75
0.19808,0.1686,13.75631038,118.3151644,84.79298539,163.5538791,141.266176,103.0933271,2.861320334,114.3034556,112.7954313,125.9696795,117.1602941,113.3282488,109.8943459,107.6854462,111.1124534,122.3995773,1.355755724,1.544475615,1.455823389,1.222931475,1.012972352,1.344645629,1.012007665,1.563169843,1.091689483,-0.23288,-0.01051,2.839,-0.35064,0.66322,-0.1353,-0.71458,0.94823,-0.67637,0.3032,-0.28643,0.45131,-0.5902,0.44436,79.2236,29.9184,128.199,169.7052,43.2755,52.0709,27.2274,139.5051,27.6891,149.7372,22.6632,5.11,2.26,6,5.27,1.05,4.2,4.81,1.45,3.51,414.45,394.19,61.006,1.59,1784.04,482.9362,3598.99,126.2195,6.17,1.49,7.78,4.05,1.5,3.14,1.396976908,1.094900208,1.094299205,1.539026355,1.012585477,113.1965161,117.5847791,116.8029174,117.7266037,125.2002051,23.93763976,161.9509754,-0.2516,-0.06758,0.62455,147.7973,23.5646,137.9856,157.8017,29.4881,-85.2536,29.4673,155.0422,24.5435,-0.66143,0.72085,-0.14228,-0.45226,-0.60198,270.42,37.693,-0.2582,-0.10974,0.0001,6.15816,0.61175,123.13,54.67,1.35,0.70235,2.3435,-0.24552,-0.02109,1.33336,1.406419107,1.406353917,1.554839652,66.6148,61.3157,61.3096,82.5072,-0.41996,-0.20006,-0.20008,251.54,233.53,13.896,1.37,6.1268961,1.9593751,1.4846016,9.2134,-0.1792,-0.02399,90.57,62.11,40.099,1.19,0.75582,4.5178,0.40418,0.371,-0.1898,-0.08443,7.2601,96.57,66.07,40.078,1.22,11,2,1.5,24,70,5.91,78
0.27912,0.13067,1.115168593,148.958619,67.662028,162.3796136,130.4200955,114.4507872,35.30521293,114.9947919,112.8781801,123.9298801,115.6992457,113.6337422,111.4634072,107.2200866,111.1075157,120.4715677,1.365838612,1.537581733,1.460191238,1.22158686,1.013606403,1.346366391,1.015612212,1.559669914,1.091618101,-0.22435,-0.01643,3.3578,-0.35841,0.66396,-0.14356,-0.7169,0.95344,-0.67307,0.29879,-0.4887,0.44892,-0.59173,0.43386,79.488,30.7925,134.1084,168.6405,43.9915,47.0858,27.7433,156.476,28.577,147.2751,23.6885,5.07,1.56,7.26,5.27,1.05,4.2,4.81,1.45,3.51,416.34,394.75,62.854,1.6,1788.3,334.9308,3596.43,62.7168,6.17,1.49,7.78,4.05,1.5,3.14,1.396976908,1.094900208,1.094299205,1.539026355,1.012585477,113.1965161,117.5847791,116.8029174,117.7266037,125.2002051,23.93763976,161.9509754,-0.2516,-0.06758,0.62455,147.7973,23.5646,137.9856,157.8017,29.4881,-85.2536,29.4673,155.0422,24.5435,-0.66143,0.72085,-0.14228,-0.45226,-0.60198,270.42,37.693,-0.2582,-0.10974,0.0001,6.15816,0.61175,123.13,54.67,1.35,0.70235,2.3435,-0.24552,-0.02109,1.33336,1.406419107,1.406353917,1.554839652,66.6148,61.3157,61.3096,82.5072,-0.41996,-0.20006,-0.20008,251.54,233.53,13.896,1.37,6.1268961,1.9593751,1.4846016,9.2134,-0.1792,-0.02399,90.57,62.11,40.099,1.19,0.75582,4.5178,0.40418,0.371,-0.1898,-0.08443,7.2601,96.57,66.07,40.078,1.22,11,2,1.5,24,70,5.91,80
0.2717,0.10919,8.138104154,144.9794876,71.71111549,160.5492949,119.8328938,124.7991108,30.00823635,115.0503821,113.360024,124.0306231,115.6653966,112.9096027,110.5928295,107.4476882,111.2204158,120.577039,1.364993622,1.536050081,1.460232988,1.222011411,1.013874637,1.345793262,1.015336497,1.559369131,1.090402064,-0.22237,-0.01569,4.0865,-0.35699,0.66259,-0.14191,-0.71718,0.95347,-0.67421,0.29902,-0.4858,0.44723,-0.59132,0.43391,79.2092,30.527,133.9545,169.3645,44.2335,47.388,27.7659,154.938,28.3191,147.9293,23.8359,5.06,1.56,7.84,5.27,1.05,4.2,4.81,1.45,3.51,420.66,399,61.878,1.6,1787.25,361.286,3589.97,75.7224,6.17,1.49,7.78,4.05,1.5,3.14,1.396976908,1.094900208,1.094299205,1.539026355,1.012585477,113.1965161,117.5847791,116.8029174,117.7266037,125.2002051,23.93763976,161.9509754,-0.2516,-0.06758,0.62455,147.7973,23.5646,137.9856,157.8017,29.4881,-85.2536,29.4673,155.0422,24.5435,-0.66143,0.72085,-0.14228,-0.45226,-0.60198,270.42,37.693,-0.2582,-0.10974,0.0001,6.15816,0.61175,123.13,54.67,1.35,0.70235,2.3435,-0.24552,-0.02109,1.33336,1.406419107,1.406353917,1.554839652,66.6148,61.3157,61.3096,82.5072,-0.41996,-0.20006,-0.20008,251.54,233.53,13.896,1.37,6.1268961,1.9593751,1.4846016,9.2134,-0.1792,-0.02399,90.57,62.11,40.099,1.19,0.75582,4.5178,0.40418,0.371,-0.1898,-0.08443,7.2601,96.57,66.07,40.078,1.22,11,2,1.5,24,70,5.91,81
0.12117,0.08848,21.59381131,160.8560523,56.9214529,161.5361697,148.8664014,94.38882766,45.93260186,114.3316558,111.3824902,123.2448311,115.5138704,113.1912271,111.2117316,107.9202536,110.9352152,123.2627583,1.356502528,1.539551803,1.46248313,1.22107823,1.014042001,1.346794395,1.013235907,1.548467921,1.093670763,-0.21884,-0.02761,3.9109,-0.34972,0.66115,-0.14042,-0.71797,0.95228,-0.6697,0.2952,-0.4887,0.45006,-0.59202,0.44175,79.7749,32.697,132.9866,168.5411,43.537,44.122,27.4624,155.9271,28.2307,145.0308,23.0351,7.23,1.56,9.48,5.27,1.05,4.2,4.81,1.45,3.51,526.39,505.97,67.267,1.71,1790.1,468.8307,3592.76,61.2149,6.17,1.49,7.78,4.05,1.5,3.14,1.396976908,1.094900208,1.094299205,1.539026355,1.012585477,113.1965161,117.5847791,116.8029174,117.7266037,125.2002051,23.93763976,161.9509754,-0.2516,-0.06758,0.62455,147.7973,23.5646,137.9856,157.8017,29.4881,-85.2536,29.4673,155.0422,24.5435,-0.66143,0.72085,-0.14228,-0.45226,-0.60198,270.42,37.693,-0.2582,-0.10974,0.0001,6.15816,0.61175,123.13,54.67,1.35,0.70235,2.3435,-0.24552,-0.02109,1.33336,1.406419107,1.406353917,1.554839652,66.6148,61.3157,61.3096,82.5072,-0.41996,-0.20006,-0.20008,251.54,233.53,13.896,1.37,6.1268961,1.9593751,1.4846016,9.2134,-0.1792,-0.02399,90.57,62.11,40.099,1.19,0.75582,4.5178,0.40418,0.371,-0.1898,-0.08443,7.2601,96.57,66.07,40.078,1.22,11,2,1.5,24,70,5.91,76
0.68175,0.29834,17.75237306,157.1055774,56.07270491,162.2706122,148.4435212,96.3647276,44.67889538,114.3930542,111.2716752,123.9618551,116.3529653,115.0250652,112.4460501,106.9283619,111.7447272,121.8956769,1.363038421,1.540976409,1.464269744,1.220195295,1.012229055,1.352714877,1.014363049,1.543342488,1.095275833,-0.23974,0.02296,3.2969,-0.35552,0.6627,-0.15394,-0.71355,0.94675,-0.66786,0.2958,-0.47879,0.44699,-0.57088,0.4365,82.0756,29.7572,134.1749,166.3266,42.9447,52.848,27.6018,157.723,27.7367,197.7393,23.0577,4.29,1.57,4.35,4.04,1.28,3.07,5.51,1.45,4.5,280.71,246.13,64.793,1.48,1807.05,547.3365,3622.17,65.378,6.17,1.49,7.78,4.05,1.5,3.14,1.396976908,1.094900208,1.094299205,1.539026355,1.012585477,113.1965161,117.5847791,116.8029174,117.7266037,125.2002051,23.93763976,161.9509754,-0.2516,-0.06758,0.62455,147.7973,23.5646,137.9856,157.8017,29.4881,-85.2536,29.4673,155.0422,24.5435,-0.66143,0.72085,-0.14228,-0.45226,-0.60198,270.42,37.693,-0.2582,-0.10974,0.0001,6.15816,0.61175,123.13,54.67,1.35,0.70235,2.3435,-0.24552,-0.02109,1.33336,1.406419107,1.406353917,1.554839652,66.6148,61.3157,61.3096,82.5072,-0.41996,-0.20006,-0.20008,251.54,233.53,13.896,1.37,6.1268961,1.9593751,1.4846016,9.2134,-0.1792,-0.02399,90.57,62.11,40.099,1.19,0.75582,4.5178,0.40418,0.371,-0.1898,-0.08443,7.2601,96.57,66.07,40.078,1.22,11,2,1.5,24,70,5.91,75
0.17053,0.08348,5.365423698,115.9485863,80.63282033,173.5376565,123.3250342,121.9200151,1.373314507,114.7533504,113.5721441,127.032633,117.7615019,113.1377699,110.8652738,107.018968,111.3013996,121.4050907,1.361512384,1.540871818,1.455482443,1.22422195,1.011571132,1.345975249,1.014131194,1.560993518,1.090497945,-0.22299,-0.02004,2.8038,-0.3536,0.65864,-0.14005,-0.7089,0.95582,-0.68431,0.29971,-0.4845,0.44958,-0.5919,0.43524,79.6734,30.9369,135.5359,169.1153,45.6046,55.6274,28.1033,161.2097,28.4585,150.9008,23.5529,5.26,2.03,7.85,5.27,1.05,4.2,4.81,1.45,3.51,494.01,485.6,59.939,1.65,1774.12,749.0578,3615.74,94.1399,6.17,1.49,7.78,4.05,1.5,3.14,1.396976908,1.094900208,1.094299205,1.539026355,1.012585477,113.1965161,117.5847791,116.8029174,117.7266037,125.2002051,23.93763976,161.9509754,-0.2516,-0.06758,0.62455,147.7973,23.5646,137.9856,157.8017,29.4881,-85.2536,29.4673,155.0422,24.5435,-0.66143,0.72085,-0.14228,-0.45226,-0.60198,270.42,37.693,-0.2582,-0.10974,0.0001,6.15816,0.61175,123.13,54.67,1.35,0.70235,4.1608,-0.2533,-0.0535,1.15182,1.405997319,1.406414685,1.558334299,60.9872,61.1296,61.1732,82.73,-0.38951,-0.20077,-0.20098,304.57,281.76,33.976,1.47,6.1268961,1.9593751,1.4846016,9.2134,-0.1792,-0.02399,90.57,62.11,40.099,1.19,0.75582,4.5178,0.40418,0.371,-0.1898,-0.08443,7.2601,96.57,66.07,40.078,1.22,11,2,2.5,24,70,5.91,89
0.17053,0.08348,5.365423698,115.9485863,80.63282033,173.5376565,123.3250342,121.9200151,1.373314507,114.7533504,113.5721441,127.032633,117.7615019,113.1377699,110.8652738,107.018968,111.3013996,121.4050907,1.361512384,1.540871818,1.455482443,1.22422195,1.011571132,1.345975249,1.014131194,1.560993518,1.090497945,-0.22299,-0.02004,2.8038,-0.3536,0.65864,-0.14005,-0.7089,0.95582,-0.68431,0.29971,-0.4845,0.44958,-0.5919,0.43524,79.6734,30.9369,135.5359,169.1153,45.6046,55.6274,28.1033,161.2097,28.4585,150.9008,23.5529,5.26,2.03,7.85,5.27,1.05,4.2,4.81,1.45,3.51,494.01,485.6,59.939,1.65,1774.12,749.0578,3615.74,94.1399,6.17,1.49,7.78,4.05,1.5,3.14,1.396976908,1.094900208,1.094299205,1.539026355,1.012585477,113.1965161,117.5847791,116.8029174,117.7266037,125.2002051,23.93763976,161.9509754,-0.2516,-0.06758,0.62455,147.7973,23.5646,137.9856,157.8017,29.4881,-85.2536,29.4673,155.0422,24.5435,-0.66143,0.72085,-0.14228,-0.45226,-0.60198,270.42,37.693,-0.2582,-0.10974,0.0001,6.15816,0.61175,123.13,54.67,1.35,0.70235,1.31825,-0.23487,-0.01817,1.7217,1.405306337,1.40799005,1.555714194,69.5252,61.2087,61.5723,82.7658,-0.42911,-0.19351,-0.19483,271.95,252.03,13.795,1.41,6.1268961,1.9593751,1.4846016,9.2134,-0.1792,-0.02399,90.57,62.11,40.099,1.19,0.75582,4.5178,0.40418,0.371,-0.1898,-0.08443,7.2601,96.57,66.07,40.078,1.22,11,2,2.5,24,70,5.91,92
0.17053,0.08348,5.365423698,115.9485863,80.63282033,173.5376565,123.3250342,121.9200151,1.373314507,114.7533504,113.5721441,127.032633,117.7615019,113.1377699,110.8652738,107.018968,111.3013996,121.4050907,1.361512384,1.540871818,1.455482443,1.22422195,1.011571132,1.345975249,1.014131194,1.560993518,1.090497945,-0.22299,-0.02004,2.8038,-0.3536,0.65864,-0.14005,-0.7089,0.95582,-0.68431,0.29971,-0.4845,0.44958,-0.5919,0.43524,79.6734,30.9369,135.5359,169.1153,45.6046,55.6274,28.1033,161.2097,28.4585,150.9008,23.5529,5.26,2.03,7.85,5.27,1.05,4.2,4.81,1.45,3.51,494.01,485.6,59.939,1.65,1774.12,749.0578,3615.74,94.1399,6.17,1.49,7.78,4.05,1.5,3.14,1.396976908,1.094900208,1.094299205,1.539026355,1.012585477,113.1965161,117.5847791,116.8029174,117.7266037,125.2002051,23.93763976,161.9509754,-0.2516,-0.06758,0.62455,147.7973,23.5646,137.9856,157.8017,29.4881,-85.2536,29.4673,155.0422,24.5435,-0.66143,0.72085,-0.14228,-0.45226,-0.60198,270.42,37.693,-0.2582,-0.10974,0.0001,6.15816,0.61175,123.13,54.67,1.35,0.70235,1.07662,-0.22223,-0.03762,2.2188,1.40635006,1.406390024,1.556875082,67.4294,60.6682,60.6302,82.7859,-0.41728,-0.19435,-0.1943,331.97,317.4,13.754,1.48,6.1268961,1.9593751,1.4846016,9.2134,-0.1792,-0.02399,90.57,62.11,40.099,1.19,0.75582,4.5178,0.40418,0.371,-0.1898,-0.08443,7.2601,96.57,66.07,40.078,1.22,11,2,2.5,24,70,5.91,91
0.17053,0.08348,5.365423698,115.9485863,80.63282033,173.5376565,123.3250342,121.9200151,1.373314507,114.7533504,113.5721441,127.032633,117.7615019,113.1377699,110.8652738,107.018968,111.3013996,121.4050907,1.361512384,1.540871818,1.455482443,1.22422195,1.011571132,1.345975249,1.014131194,1.560993518,1.090497945,-0.22299,-0.02004,2.8038,-0.3536,0.65864,-0.14005,-0.7089,0.95582,-0.68431,0.29971,-0.4845,0.44958,-0.5919,0.43524,79.6734,30.9369,135.5359,169.1153,45.6046,55.6274,28.1033,161.2097,28.4585,150.9008,23.5529,5.26,2.03,7.85,5.27,1.05,4.2,4.81,1.45,3.51,494.01,485.6,59.939,1.65,1774.12,749.0578,3615.74,94.1399,6.17,1.49,7.78,4.05,1.5,3.14,1.396976908,1.094900208,1.094299205,1.539026355,1.012585477,113.1965161,117.5847791,116.8029174,117.7266037,125.2002051,23.93763976,161.9509754,-0.2516,-0.06758,0.62455,147.7973,23.5646,137.9856,157.8017,29.4881,-85.2536,29.4673,155.0422,24.5435,-0.66143,0.72085,-0.14228,-0.45226,-0.60198,270.42,37.693,-0.2582,-0.10974,0.0001,6.15816,0.61175,123.13,54.67,1.35,0.70235,1.07271,-0.25789,-0.03979,5.8181,1.405612013,1.40618199,1.561791296,61.9608,60.9081,60.9481,83.0668,-0.39318,-0.1927,-0.19294,287.73,265.85,13.773,1.44,6.1268961,1.9593751,1.4846016,9.2134,-0.1792,-0.02399,90.57,62.11,40.099,1.19,0.75582,4.5178,0.40418,0.371,-0.1898,-0.08443,7.2601,96.57,66.07,40.078,1.22,11,2,2.5,24,70,5.91,89
0.17053,0.08348,5.365423698,115.9485863,80.63282033,173.5376565,123.3250342,121.9200151,1.373314507,114.7533504,113.5721441,127.032633,117.7615019,113.1377699,110.8652738,107.018968,111.3013996,121.4050907,1.361512384,1.540871818,1.455482443,1.22422195,1.011571132,1.345975249,1.014131194,1.560993518,1.090497945,-0.22299,-0.02004,2.8038,-0.3536,0.65864,-0.14005,-0.7089,0.95582,-0.68431,0.29971,-0.4845,0.44958,-0.5919,0.43524,79.6734,30.9369,135.5359,169.1153,45.6046,55.6274,28.1033,161.2097,28.4585,150.9008,23.5529,5.26,2.03,7.85,5.27,1.05,4.2,4.81,1.45,3.51,494.01,485.6,59.939,1.65,1774.12,749.0578,3615.74,94.1399,6.17,1.49,7.78,4.05,1.5,3.14,1.396976908,1.094900208,1.094299205,1.539026355,1.012585477,113.1965161,117.5847791,116.8029174,117.7266037,125.2002051,23.93763976,161.9509754,-0.2516,-0.06758,0.62455,147.7973,23.5646,137.9856,157.8017,29.4881,-85.2536,29.4673,155.0422,24.5435,-0.66143,0.72085,-0.14228,-0.45226,-0.60198,270.42,37.693,-0.2582,-0.10974,0.0001,6.15816,0.61175,123.13,54.67,1.35,0.70235,1.32478,-0.24126,-0.01945,4.0375,1.407264988,1.407300163,1.556584302,70.4088,58.7388,58.8249,83.0792,-0.43232,-0.18383,-0.18392,257.69,238.34,13.782,1.39,6.1268961,1.9593751,1.4846016,9.2134,-0.1792,-0.02399,90.57,62.11,40.099,1.19,0.75582,4.5178,0.40418,0.371,-0.1898,-0.08443,7.2601,96.57,66.07,40.078,1.22,11,2,2.5,24,70,5.91,90
0.17053,0.08348,5.365423698,115.9485863,80.63282033,173.5376565,123.3250342,121.9200151,1.373314507,114.7533504,113.5721441,127.032633,117.7615019,113.1377699,110.8652738,107.018968,111.3013996,121.4050907,1.361512384,1.540871818,1.455482443,1.22422195,1.011571132,1.345975249,1.014131194,1.560993518,1.090497945,-0.22299,-0.02004,2.8038,-0.3536,0.65864,-0.14005,-0.7089,0.95582,-0.68431,0.29971,-0.4845,0.44958,-0.5919,0.43524,79.6734,30.9369,135.5359,169.1153,45.6046,55.6274,28.1033,161.2097,28.4585,150.9008,23.5529,5.26,2.03,7.85,5.27,1.05,4.2,4.81,1.45,3.51,494.01,485.6,59.939,1.65,1774.12,749.0578,3615.74,94.1399,6.17,1.49,7.78,4.05,1.5,3.14,1.396976908,1.094900208,1.094299205,1.539026355,1.012585477,113.1965161,117.5847791,116.8029174,117.7266037,125.2002051,23.93763976,161.9509754,-0.2516,-0.06758,0.62455,147.7973,23.5646,137.9856,157.8017,29.4881,-85.2536,29.4673,155.0422,24.5435,-0.66143,0.72085,-0.14228,-0.45226,-0.60198,270.42,37.693,-0.2582,-0.10974,0.0001,6.15816,0.61175,123.13,54.67,1.35,0.70235,1.11749,-0.24102,-0.02746,3.7112,1.405880376,1.406642956,1.560197718,63.4675,74.1571,65.8936,83.111,-0.39741,-0.26997,-0.21742,257.7,238.36,13.767,1.39,6.1268961,1.9593751,1.4846016,9.2134,-0.1792,-0.02399,90.57,62.11,40.099,1.19,0.75582,4.5178,0.40418,0.371,-0.1898,-0.08443,7.2601,96.57,66.07,40.078,1.22,11,2,2.5,24,70,5.91,87
0.17053,0.08348,5.365423698,115.9485863,80.63282033,173.5376565,123.3250342,121.9200151,1.373314507,114.7533504,113.5721441,127.032633,117.7615019,113.1377699,110.8652738,107.018968,111.3013996,121.4050907,1.361512384,1.540871818,1.455482443,1.22422195,1.011571132,1.345975249,1.014131194,1.560993518,1.090497945,-0.22299,-0.02004,2.8038,-0.3536,0.65864,-0.14005,-0.7089,0.95582,-0.68431,0.29971,-0.4845,0.44958,-0.5919,0.43524,79.6734,30.9369,135.5359,169.1153,45.6046,55.6274,28.1033,161.2097,28.4585,150.9008,23.5529,5.26,2.03,7.85,5.27,1.05,4.2,4.81,1.45,3.51,494.01,485.6,59.939,1.65,1774.12,749.0578,3615.74,94.1399,6.17,1.49,7.78,4.05,1.5,3.14,1.396976908,1.094900208,1.094299205,1.539026355,1.012585477,113.1965161,117.5847791,116.8029174,117.7266037,125.2002051,23.93763976,161.9509754,-0.2516,-0.06758,0.62455,147.7973,23.5646,137.9856,157.8017,29.4881,-85.2536,29.4673,155.0422,24.5435,-0.66143,0.72085,-0.14228,-0.45226,-0.60198,270.42,37.693,-0.2582,-0.10974,0.0001,6.15816,0.61175,123.13,54.67,1.35,0.70235,1.32488,-0.24413,-0.02983,4.965,1.405753327,1.405794913,1.558908092,67.3271,59.7291,59.8399,83.1045,-0.41387,-0.18444,-0.18455,267.75,247.48,13.78,1.4,6.1268961,1.9593751,1.4846016,9.2134,-0.1792,-0.02399,90.57,62.11,40.099,1.19,0.75582,4.5178,0.40418,0.371,-0.1898,-0.08443,7.2601,96.57,66.07,40.078,1.22,11,2,2.5,24,70,5.91,89
0.17053,0.08348,5.365423698,115.9485863,80.63282033,173.5376565,123.3250342,121.9200151,1.373314507,114.7533504,113.5721441,127.032633,117.7615019,113.1377699,110.8652738,107.018968,111.3013996,121.4050907,1.361512384,1.540871818,1.455482443,1.22422195,1.011571132,1.345975249,1.014131194,1.560993518,1.090497945,-0.22299,-0.02004,2.8038,-0.3536,0.65864,-0.14005,-0.7089,0.95582,-0.68431,0.29971,-0.4845,0.44958,-0.5919,0.43524,79.6734,30.9369,135.5359,169.1153,45.6046,55.6274,28.1033,161.2097,28.4585,150.9008,23.5529,5.26,2.03,7.85,5.27,1.05,4.2,4.81,1.45,3.51,494.01,485.6,59.939,1.65,1774.12,749.0578,3615.74,94.1399,6.17,1.49,7.78,4.05,1.5,3.14,1.396976908,1.094900208,1.094299205,1.539026355,1.012585477,113.1965161,117.5847791,116.8029174,117.7266037,125.2002051,23.93763976,161.9509754,-0.2516,-0.06758,0.62455,147.7973,23.5646,137.9856,157.8017,29.4881,-85.2536,29.4673,155.0422,24.5435,-0.66143,0.72085,-0.14228,-0.45226,-0.60198,270.42,37.693,-0.2582,-0.10974,0.0001,6.15816,0.61175,123.13,54.67,1.35,0.70235,1.32494,-0.23985,-0.03028,4.8115,1.405723214,1.405771886,1.558967957,66.7075,177.3261,178.7225,90.5958,-0.41292,-0.18427,-0.18438,272.27,251.92,13.778,1.41,6.1268961,1.9593751,1.4846016,9.2134,-0.1792,-0.02399,90.57,62.11,40.099,1.19,0.75582,4.5178,0.40418,0.371,-0.1898,-0.08443,7.2601,96.57,66.07,40.078,1.22,11,2,2.5,24,70,5.91,86
0.17053,0.08348,5.365423698,115.9485863,80.63282033,173.5376565,123.3250342,121.9200151,1.373314507,114.7533504,113.5721441,127.032633,117.7615019,113.1377699,110.8652738,107.018968,111.3013996,121.4050907,1.361512384,1.540871818,1.455482443,1.22422195,1.011571132,1.345975249,1.014131194,1.560993518,1.090497945,-0.22299,-0.02004,2.8038,-0.3536,0.65864,-0.14005,-0.7089,0.95582,-0.68431,0.29971,-0.4845,0.44958,-0.5919,0.43524,79.6734,30.9369,135.5359,169.1153,45.6046,55.6274,28.1033,161.2097,28.4585,150.9008,23.5529,5.26,2.03,7.85,5.27,1.05,4.2,4.81,1.45,3.51,494.01,485.6,59.939,1.65,1774.12,749.0578,3615.74,94.1399,6.17,1.49,7.78,4.05,1.5,3.14,1.396976908,1.094900208,1.094299205,1.539026355,1.012585477,113.1965161,117.5847791,116.8029174,117.7266037,125.2002051,23.93763976,161.9509754,-0.2516,-0.06758,0.62455,147.7973,23.5646,137.9856,157.8017,29.4881,-85.2536,29.4673,155.0422,24.5435,-0.66143,0.72085,-0.14228,-0.45226,-0.60198,270.42,37.693,-0.2582,-0.10974,0.0001,6.15816,0.61175,123.13,54.67,1.35,0.70235,1.26871,-0.21607,-0.01037,1.997,1.404375678,1.410706259,1.551738261,75.2782,59.1214,60.1811,82.7472,-0.45294,-0.17923,-0.18772,281.69,260.84,20.744,1.43,6.1268961,1.9593751,1.4846016,9.2134,-0.1792,-0.02399,90.57,62.11,40.099,1.19,0.75582,4.5178,0.40418,0.371,-0.1898,-0.08443,7.2601,96.57,66.07,40.078,1.22,11,2,2.5,24,70,5.91,90
0.17053,0.08348,5.365423698,115.9485863,80.63282033,173.5376565,123.3250342,121.9200151,1.373314507,114.7533504,113.5721441,127.032633,117.7615019,113.1377699,110.8652738,107.018968,111.3013996,121.4050907,1.361512384,1.540871818,1.455482443,1.22422195,1.011571132,1.345975249,1.014131194,1.560993518,1.090497945,-0.22299,-0.02004,2.8038,-0.3536,0.65864,-0.14005,-0.7089,0.95582,-0.68431,0.29971,-0.4845,0.44958,-0.5919,0.43524,79.6734,30.9369,135.5359,169.1153,45.6046,55.6274,28.1033,161.2097,28.4585,150.9008,23.5529,5.26,2.03,7.85,5.27,1.05,4.2,4.81,1.45,3.51,494.01,485.6,59.939,1.65,1774.12,749.0578,3615.74,94.1399,6.17,1.49,7.78,4.05,1.5,3.14,1.396976908,1.094900208,1.094299205,1.539026355,1.012585477,113.1965161,117.5847791,116.8029174,117.7266037,125.2002051,23.93763976,161.9509754,-0.2516,-0.06758,0.62455,147.7973,23.5646,137.9856,157.8017,29.4881,-85.2536,29.4673,155.0422,24.5435,-0.66143,0.72085,-0.14228,-0.45226,-0.60198,270.42,37.693,-0.2582,-0.10974,0.0001,6.15816,0.61175,123.13,54.67,1.35,0.70235,1.12542,-0.21869,-0.02668,5.7521,1.407562341,1.405324489,1.554567117,71.6851,59.9604,60.1242,82.9887,-0.4342,-0.18651,-0.18403,306.89,284.85,39.036,1.47,6.1268961,1.9593751,1.4846016,9.2134,-0.1792,-0.02399,90.57,62.11,40.099,1.19,0.75582,4.5178,0.40418,0.371,-0.1898,-0.08443,7.2601,96.57,66.07,40.078,1.22,11,2,2.5,24,70,5.91,93
0.17053,0.08348,5.365423698,115.9485863,80.63282033,173.5376565,123.3250342,121.9200151,1.373314507,114.7533504,113.5721441,127.032633,117.7615019,113.1377699,110.8652738,107.018968,111.3013996,121.4050907,1.361512384,1.540871818,1.455482443,1.22422195,1.011571132,1.345975249,1.014131194,1.560993518,1.090497945,-0.22299,-0.02004,2.8038,-0.3536,0.65864,-0.14005,-0.7089,0.95582,-0.68431,0.29971,-0.4845,0.44958,-0.5919,0.43524,79.6734,30.9369,135.5359,169.1153,45.6046,55.6274,28.1033,161.2097,28.4585,150.9008,23.5529,5.26,2.03,7.85,5.27,1.05,4.2,4.81,1.45,3.51,494.01,485.6,59.939,1.65,1774.12,749.0578,3615.74,94.1399,6.17,1.49,7.78,4.05,1.5,3.14,1.396976908,1.094900208,1.094299205,1.539026355,1.012585477,113.1965161,117.5847791,116.8029174,117.7266037,125.2002051,23.93763976,161.9509754,-0.2516,-0.06758,0.62455,147.7973,23.5646,137.9856,157.8017,29.4881,-85.2536,29.4673,155.0422,24.5435,-0.66143,0.72085,-0.14228,-0.45226,-0.60198,270.42,37.693,-0.2582,-0.10974,0.0001,6.15816,0.61175,123.13,54.67,1.35,0.70235,0.75526,-0.21207,-0.04375,2.5912,1.440768666,1.390108494,1.564349381,68.174,58.611,58.9213,81.943,-0.3934,-0.02743,-0.19112,295.34,284.69,12.014,1.41,6.1268961,1.9593751,1.4846016,9.2134,-0.1792,-0.02399,90.57,62.11,40.099,1.19,0.75582,4.5178,0.40418,0.371,-0.1898,-0.08443,7.2601,96.57,66.07,40.078,1.22,11,2,2.5,24,70,5.91,90
0.17053,0.08348,5.365423698,115.9485863,80.63282033,173.5376565,123.3250342,121.9200151,1.373314507,114.7533504,113.5721441,127.032633,117.7615019,113.1377699,110.8652738,107.018968,111.3013996,121.4050907,1.361512384,1.540871818,1.455482443,1.22422195,1.011571132,1.345975249,1.014131194,1.560993518,1.090497945,-0.22299,-0.02004,2.8038,-0.3536,0.65864,-0.14005,-0.7089,0.95582,-0.68431,0.29971,-0.4845,0.44958,-0.5919,0.43524,79.6734,30.9369,135.5359,169.1153,45.6046,55.6274,28.1033,161.2097,28.4585,150.9008,23.5529,5.26,2.03,7.85,5.27,1.05,4.2,4.81,1.45,3.51,494.01,485.6,59.939,1.65,1774.12,749.0578,3615.74,94.1399,6.17,1.49,7.78,4.05,1.5,3.14,1.396976908,1.094900208,1.094299205,1.539026355,1.012585477,113.1965161,117.5847791,116.8029174,117.7266037,125.2002051,23.93763976,161.9509754,-0.2516,-0.06758,0.62455,147.7973,23.5646,137.9856,157.8017,29.4881,-85.2536,29.4673,155.0422,24.5435,-0.66143,0.72085,-0.14228,-0.45226,-0.60198,270.42,37.693,-0.2582,-0.10974,0.0001,6.15816,0.61175,123.13,54.67,1.35,0.70235,1.32551,-0.24552,-0.021,2.3619,1.407019912,1.406973138,1.557973802,66.4045,61.4074,61.3299,82.8078,-0.41806,-0.20062,-0.20058,251.49,233.49,13.863,1.37,6.1268961,1.9593751,1.4846016,9.2134,-0.1792,-0.02399,90.57,62.11,40.099,1.19,0.75582,4.5178,0.40418,0.371,-0.1898,-0.08443,7.2601,96.57,66.07,40.078,1.22,11,2,2.5,24,70,5.91,92
