harel-coffee/ML-for-Asymmetric-C-sp3-H-Reaction-auto/Data/MLS-model/LC/MLS-LC-Real-Synthetic.csv
Rx-MLS,DA3-4-5-6-MLS,DA4-5-1-2-MLS,DA4-5-6-7-MLS,DA9-10-11-14-MLS,DA9-10-11-12-MLS,DA1-5-6-7-MLS,DA1-12-11-14-MLS,DA1-5-4-20-MLS,DA6-5-4-20-MLS,BA1-2-3-MLS,BA3-4-20-MLS,BA1-5-4-MLS,BA5-4-20-MLS,BA5-6-7-MLS,BA7-6-22-MLS,BA10-11-12-MLS,BA10-11-14-MLS,BA1-12-11-MLS,BA5-1-12-MLS,NB1-12-MLS,NB7-12-MLS,BL1-2-MLS,BL5-6-MLS,BL6-7-MLS,BL11-12-MLS,BL4-20-MLS,BL4-19-MLS,BL6-22-MLS,BL10-15-MLS,HOMO-MLS,LUMO-MLS,DM-MLS,q1-MLS,q2-MLS,q3-MLS,q4-MLS,q5-MLS,q6-MLS,q7-MLS,q8-MLS,q9-MLS,q10-MLS,q11-MLS,q12-MLS,q13-MLS,q14-MLS,q15-MLS,q19-MLS,q20-MLS,q22-MLS,NMR1-MLS,NMR2-MLS,NMR3-MLS,NMR4-MLS,NMR5-MLS,NMR6-MLS,NMR7-MLS,NMR8-MLS,NMR9-MLS,NMR10-MLS,NMR11-MLS,NMR12-MLS,NMR13-MLS,NMR14-MLS,NMR15-MLS,NMR19-MLS,NMR20-MLS,NMR22-MLS,L-R14-MLS,B1-R14-MLS,B5-R14-MLS,L-R15-MLS,B1-R15-MLS,B5-R15-MLS,VF(C6=O7)-MLS,VI(C6=O7)-MLS,VF(C9=O13)-MLS,VI(C9=O13)-MLS,VF(C11-H12)-MLS,VI(C11-H12)-MLS,L-Y-MLS,B1-Y-MLS,B5-Y-MLS,L-X-MLS,B1-X-MLS,B5-X-MLS,L-R16-MLS,B1-R16-MLS,B5-R16-MLS,BV-MLS,BV-SW-MLS,BV-NW-MLS,BV-NE-MLS,BV-SE-MLS,Area-MLS,Volume-MLS,PSA-MLS,Ovality-MLS,HOMO-MC,LUMO-MC,DM-MC,Rx-MC,Ry-MC,Volume-MC,PSA-MC,Ovality-MC,q(Pd)-MC,DM-CP,HOMO-CP,LUMO-CP,Rx-CP,BL1-2-CP,BL1-6-CP,BL1-7-CP,NMR1-CP,NMR2-CP,NMR6-CP,NMR7-CP,q1-CP,q2-CP,q6-CP,Area-CP,Volume-CP,PSA-CP,Ovality-CP,Rx-B,Ry-B,Rz-B,DM-B,HOMO-B,LUMO-B,Area-B,Volume-B,PSA-B,Ovality-B,q(Ag)-A,Rx-A,Ry-A,Rz-A,HOMO-A,LUMO-A,DM-A,Area-A,Volume-A,PSA-A,Ovality-A,Eqv(L),Eqv(B),Eqv(A),Time(H)   ,Temp.,DC(Solvent),%ee
0.26271,148.4489033,34.39977267,172.6750702,143.5451868,14.49173851,8.965591998,95.66278698,105.6779011,89.63019781,102.5260328,109.8376037,113.6091171,113.2299344,121.8166368,118.9551055,125.1622925,117.5078199,98.09189206,92.31543903,1.976234264,2.411543117,2.079591692,1.341133927,1.256536567,1.110922351,1.55891302,1.095018245,1.522868036,1.086485424,-0.2129,-0.07666,12.1919,0.60232,-0.41835,-0.26572,-0.0719,-0.60507,0.69139,-0.74874,-0.72097,0.8376,-0.35999,-0.5323,0.27186,-0.70714,0.2816,0.29258,0.26156,-0.48285,-0.77779,-545.5873,193.6197,126.454,130.6457,123.7355,22.2422,-15.2893,135.2172,20.1585,170.2262,214.0925,31.4401,-45.0505,32.5826,30.1026,27.6702,153.7865,168.2746,4.83,1.56,6.01,2.97,1.5,2.03,1606.25,878.5407,1701.05,1012.5983,2889.39,28.4015,4.06,1.85,3.12,2.71,1.03,1.9,2,1,1,39.4,14.6,61.8,53.4,27.9,366.94,345.66,41.45,1.54,-0.25089,-0.10865,0,6.15737,0.60887,123.19,54.714,1.35,0.74907,2.9017,-0.23066,-0.03108,5.49795,1.39245,1.394990094,2.163257702,61.5662,61.5965,61.6134,46.1174,-0.20895,-0.25249,-0.25274,195.67,172.91,20.079,1.3,6.0219779,1.9126339,1.4522648,10.1662,-0.20732,-0.02413,91.37,62.39,40.332,1.2,0.79875,4.46774,0.38892,0.35777,-0.203,-0.07991,8.3156,97.67,66.44,40.427,1.23,20,1.5,1.5,16,80,16.777,94
0.24215,148.2321227,32.77508655,173.1765045,143.5996858,14.03242408,9.793310366,96.84402683,105.9037891,89.88341115,103.7683118,109.9041903,114.3484486,112.7747903,121.8593925,118.7851088,125.3467702,117.5520016,100.2239723,91.8586151,1.953833477,2.374716818,2.083625567,1.341516782,1.25700012,1.112601946,1.558622333,1.094870126,1.522900219,1.086286037,-0.2128,-0.07721,12.0443,0.59852,-0.42174,-0.26498,-0.06988,-0.6075,0.68756,-0.7443,-0.72404,0.8381,-0.36061,-0.52351,0.2663,-0.70813,0.2812,0.29109,0.26174,-0.4823,-0.77738,-541.5873,179.1591,132.9684,130.8277,122.5267,22.2241,-15.0774,137.7589,19.7186,169.2751,210.6541,31.5096,-46.7643,32.1432,29.9461,27.6627,152.8531,168.0339,4.8,1.56,6.02,2.97,1.5,2.03,1604.38,888.6943,1700.31,1010.606,2842.03,33.8706,4.09,1.86,4.42,2.71,1.03,1.9,2,1,1,42.5,15.8,60.9,62.6,30.6,383.48,363.7,40.748,1.56,-0.25089,-0.10865,0,6.15737,0.60887,123.19,54.714,1.35,0.74907,2.9017,-0.23066,-0.03108,5.49795,1.39245,1.394990094,2.163257702,61.5662,61.5965,61.6134,46.1174,-0.20895,-0.25249,-0.25274,195.67,172.91,20.079,1.3,6.0219779,1.9126339,1.4522648,10.1662,-0.20732,-0.02413,91.37,62.39,40.332,1.2,0.79875,4.46774,0.38892,0.35777,-0.203,-0.07991,8.3156,97.67,66.44,40.427,1.23,20,1.5,1.5,16,80,16.777,90
0.22943,138.663545,34.59411817,173.0456976,142.4871088,15.23240868,3.348435274,98.11212729,92.97854119,96.57046302,107.6710289,111.8458954,113.4365184,112.3348506,121.9665012,118.7880129,125.6519005,117.6089585,103.3463085,90.47714942,1.926008264,2.334456745,2.093633954,1.339695875,1.257044656,1.11401872,1.557264129,1.094106367,1.523888989,1.085781824,-0.21015,-0.07607,12.2951,0.60481,-0.43495,-0.26721,-0.06756,-0.60421,0.69176,-0.74949,-0.72889,0.83916,-0.35961,-0.51463,0.25885,-0.71128,0.28049,0.28956,0.26454,-0.48207,-0.77837,-537.5867,170.6532,128.9915,124.6839,118.2707,23.5239,-11.1491,126.7349,19.2776,169.3951,207.5228,31.5074,-46.1123,32.0431,29.7888,27.5749,149.4884,168.558,4.87,1.56,5.99,2.97,1.5,2.03,1606.08,943.8021,1697.36,1016.2708,2824.42,41.7472,4.89,1.85,4.44,2.71,1.03,1.9,2,1,1,45.9,29,60.1,64.4,30.3,395.99,381.73,40.803,1.56,-0.25089,-0.10865,0,6.15737,0.60887,123.19,54.714,1.35,0.74907,2.9017,-0.23066,-0.03108,5.49795,1.39245,1.394990094,2.163257702,61.5662,61.5965,61.6134,46.1174,-0.20895,-0.25249,-0.25274,195.67,172.91,20.079,1.3,6.0219779,1.9126339,1.4522648,10.1662,-0.20732,-0.02413,91.37,62.39,40.332,1.2,0.79875,4.46774,0.38892,0.35777,-0.203,-0.07991,8.3156,97.67,66.44,40.427,1.23,20,1.5,1.5,16,80,16.777,74
0.19929,150.3294995,31.20501917,170.4826705,144.0500892,11.0112701,7.123508868,94.35318903,107.1419651,88.5509162,99.46467602,108.9457421,113.9423069,113.0748559,121.8067996,118.8367346,124.3573165,117.3259834,99.05645943,91.95451034,2.076705974,2.413438672,2.15061626,1.341279995,1.256534461,1.10461928,1.561659093,1.095308167,1.521982077,1.086573667,-0.21179,-0.08678,12.7156,0.62879,-0.43857,-0.27036,-0.0674,-0.60481,0.69187,-0.74401,-0.73609,0.83723,-0.36256,-0.52432,0.26649,-0.71239,0.27646,0.2894,0.25739,-0.48178,-0.77559,-659.1309,155.6917,134.4314,126.7353,132.8864,20.9658,-19.1327,145.8644,20.2487,170.0558,210.1335,31.0795,-44.8575,32.2458,30.0523,27.7442,153.0892,167.5664,4.85,1.56,6,2.97,1.5,2.03,1606.11,868.3913,1695.01,999.3125,2950.09,24.8465,5.05,1.95,4.49,2.71,1.03,1.9,2,1,1,46.8,19.7,61.4,64,42.1,424.62,416.36,40.064,1.57,-0.25089,-0.10865,0,6.15737,0.60887,123.19,54.714,1.35,0.74907,2.9017,-0.23066,-0.03108,5.49795,1.39245,1.394990094,2.163257702,61.5662,61.5965,61.6134,46.1174,-0.20895,-0.25249,-0.25274,195.67,172.91,20.079,1.3,6.0219779,1.9126339,1.4522648,10.1662,-0.20732,-0.02413,91.37,62.39,40.332,1.2,0.79875,4.46774,0.38892,0.35777,-0.203,-0.07991,8.3156,97.67,66.44,40.427,1.23,20,1.5,1.5,16,80,16.777,12
0.2422,134.858638,22.80487768,174.2339305,142.1672417,15.58669692,0.326045418,99.59627231,89.73387687,95.22925152,108.4546949,116.9423232,112.9242825,114.0819171,122.1464261,118.7472513,125.9915479,117.983835,104.1903043,91.76868578,1.904869463,2.353216095,2.073389598,1.342572271,1.255361069,1.116654799,1.554182227,1.095421146,1.525063643,1.08568155,-0.21111,-0.07831,11.4967,0.5906,-0.44661,-0.26193,-0.0704,-0.61113,0.69104,-0.75084,-0.72418,0.8389,-0.36187,-0.50421,0.25681,-0.70854,0.28411,0.28857,0.27081,-0.4862,-0.77968,-535.4253,173.9068,119.5284,123.9403,115.4002,24.1085,-9.1621,149.2128,18.3571,167.7211,205.0619,32.4768,-47.4878,31.4639,29.3098,27.8835,150.0709,169.0695,5.17,1.58,5.82,2.97,1.5,2.03,1609.16,983.4611,1698.75,976.9442,2795.66,48.3829,4.33,1.69,3.8,2.71,1.03,1.9,2,1,1,41.5,7.7,50.3,72.3,35.6,369.81,354.84,41.079,1.53,-0.25089,-0.10865,0,6.15737,0.60887,123.19,54.714,1.35,0.74907,2.9017,-0.23066,-0.03108,5.49795,1.39245,1.394990094,2.163257702,61.5662,61.5965,61.6134,46.1174,-0.20895,-0.25249,-0.25274,195.67,172.91,20.079,1.3,6.0219779,1.9126339,1.4522648,10.1662,-0.20732,-0.02413,91.37,62.39,40.332,1.2,0.79875,4.46774,0.38892,0.35777,-0.203,-0.07991,8.3156,97.67,66.44,40.427,1.23,20,1.5,1.5,16,80,16.777,66
0.23208,139.7796611,37.68698159,177.8766041,141.3656322,16.05618326,0.313838293,99.95670405,87.17848611,94.46391225,109.2901843,112.8938071,112.3497642,112.8129765,121.9209579,119.0782868,126.1523588,117.5435083,105.1272543,91.1853476,1.9080905,2.357820133,2.069640556,1.3408226,1.25584474,1.114957394,1.556963842,1.094213407,1.52417517,1.085325482,-0.21068,-0.07535,12.0467,0.60791,-0.43788,-0.26581,-0.06717,-0.60637,0.69079,-0.74951,-0.72593,0.83996,-0.36019,-0.50774,0.25577,-0.71097,0.28115,0.28893,0.26709,-0.48284,-0.77939,-528.1221,166.167,126.7168,124.9787,119.7306,23.5992,-7.9693,126.437,18.7318,169.3816,206.2037,31.9561,-47.4614,32.0522,29.8688,27.5902,148.9003,169.0925,4.92,1.57,5.96,2.97,1.5,2.03,1608.87,961.583,1696.55,999.4772,2817.29,37.8666,5.12,1.82,3.48,2.71,1.03,1.9,2,1,1,44.1,18.8,60.6,64.7,32.3,387.06,371.02,42.109,1.55,-0.25089,-0.10865,0,6.15737,0.60887,123.19,54.714,1.35,0.74907,2.9017,-0.23066,-0.03108,5.49795,1.39245,1.394990094,2.163257702,61.5662,61.5965,61.6134,46.1174,-0.20895,-0.25249,-0.25274,195.67,172.91,20.079,1.3,6.0219779,1.9126339,1.4522648,10.1662,-0.20732,-0.02413,91.37,62.39,40.332,1.2,0.79875,4.46774,0.38892,0.35777,-0.203,-0.07991,8.3156,97.67,66.44,40.427,1.23,20,1.5,1.5,16,80,16.777,76
0.45977,146.1147438,32.73990774,172.0980601,142.9198513,16.45567396,12.84782452,96.25690065,109.3610472,90.48425881,102.8241397,111.5894265,114.1845488,112.3310657,121.7961055,118.7077925,125.1250657,118.0514656,99.12792604,89.39910968,1.961128891,2.343301413,2.077859363,1.342530873,1.257462247,1.112914501,1.553676315,1.096085766,1.522810277,1.086631047,-0.21322,-0.077,12.4569,0.60004,-0.4154,-0.27,-0.07891,-0.6015,0.69057,-0.74808,-0.71959,0.83707,-0.36138,-0.53512,0.27055,-0.70778,0.28352,0.29325,0.25619,-0.25585,-0.77728,-536.8311,193.2219,128.1921,126.9994,121.6272,21.2461,-19.1086,126.8451,19.2545,168.4635,213.4711,31.2347,-44.5297,32.2033,29.4264,27.9546,157.6679,168.4232,4.17,1.92,3.19,2.97,1.5,2.03,1600.67,854.6812,1700.53,1050.7814,2850.95,41.8963,3.38,1.82,3.12,2.71,1.03,1.9,2,1,1,33.2,16.8,49.4,39,27.8,330.46,298.48,42.12,1.53,-0.25089,-0.10865,0,6.15737,0.60887,123.19,54.714,1.35,0.74907,2.9017,-0.23066,-0.03108,5.49795,1.39245,1.394990094,2.163257702,61.5662,61.5965,61.6134,46.1174,-0.20895,-0.25249,-0.25274,195.67,172.91,20.079,1.3,6.0219779,1.9126339,1.4522648,10.1662,-0.20732,-0.02413,91.37,62.39,40.332,1.2,0.79875,4.46774,0.38892,0.35777,-0.203,-0.07991,8.3156,97.67,66.44,40.427,1.23,20,1.5,1.5,16,80,16.777,92
0.41395,143.3107321,34.65985662,173.5403709,142.8787052,16.41961469,14.28577336,99.12187393,104.827059,95.17311893,102.688819,108.7553801,113.4138776,114.9565734,121.1959125,142.1776847,126.0450431,117.6275912,101.922656,90.38042493,1.933576507,2.303778238,2.077348547,1.340767366,1.259732477,1.114849484,1.557737393,1.094708693,2.219864132,1.086557577,-0.21286,-0.07803,12.0378,0.59796,-0.41708,-0.26533,-0.07379,-0.60101,0.68716,-0.75326,-0.72052,0.83744,-0.36218,-0.52538,0.2658,-0.70808,0.28259,0.29189,0.25497,-0.25909,0.24243,-538.8229,192.8863,123.8997,124.7499,115.7213,20.9891,-9.1882,129.7564,18.8507,169.0245,211.8258,31.22,-45.5205,32.0314,29.5315,27.7634,154.082,29.4356,4.15,1.89,4.35,2.97,1.5,2.03,1586.16,900.6877,1700.18,1043.1873,2833.18,47.261,3.38,1.82,3.12,2.71,1.03,1.9,2,1,1,35.8,20.2,58.8,36.4,27.5,342.6,316.46,41.187,1.53,-0.25089,-0.10865,0,6.15737,0.60887,123.19,54.714,1.35,0.74907,2.9017,-0.23066,-0.03108,5.49795,1.39245,1.394990094,2.163257702,61.5662,61.5965,61.6134,46.1174,-0.20895,-0.25249,-0.25274,195.67,172.91,20.079,1.3,6.0219779,1.9126339,1.4522648,10.1662,-0.20732,-0.02413,91.37,62.39,40.332,1.2,0.79875,4.46774,0.38892,0.35777,-0.203,-0.07991,8.3156,97.67,66.44,40.427,1.23,20,1.5,1.5,16,80,16.777,92
0.41678,130.0117404,38.82900412,171.9682798,143.1884201,15.68964695,18.97483223,96.4107516,99.43498927,106.5309462,103.5504217,111.254191,112.6982173,112.8785275,121.271361,121.6764411,125.1232697,117.7810877,98.10047261,90.05314112,1.971597746,2.396241472,2.080431915,1.344789705,1.257630721,1.111284461,1.569299153,1.0950445,2.152821657,1.086582252,-0.21419,-0.07599,12.1391,0.59472,-0.42035,-0.2672,-0.07412,-0.59983,0.69031,-0.744,-0.71932,0.83694,-0.36022,-0.53978,0.27383,-0.70735,0.28365,0.29364,0.25837,-0.05445,0.26013,-540.5943,194.1666,126.8098,122.4795,122.3282,18.6353,-25.3433,132.2476,19.5781,168.5167,214.6311,30.6606,-45.2825,32.2622,29.4339,28.1204,152.1951,29.6708,4.14,2.76,3.2,2.97,1.5,2.03,1594.84,820.4922,1701.08,1046.3165,2877.04,31.155,3.38,1.82,3.12,2.71,1.03,1.9,2,1,1,34.9,19.3,50.9,42,27.3,343.41,315.73,42.335,1.53,-0.25089,-0.10865,0,6.15737,0.60887,123.19,54.714,1.35,0.74907,2.9017,-0.23066,-0.03108,5.49795,1.39245,1.394990094,2.163257702,61.5662,61.5965,61.6134,46.1174,-0.20895,-0.25249,-0.25274,195.67,172.91,20.079,1.3,6.0219779,1.9126339,1.4522648,10.1662,-0.20732,-0.02413,91.37,62.39,40.332,1.2,0.79875,4.46774,0.38892,0.35777,-0.203,-0.07991,8.3156,97.67,66.44,40.427,1.23,20,1.5,1.5,16,80,16.777,88
0.36043,132.9893096,25.95399411,175.5759385,142.2592057,17.03596416,1.913438461,98.47325367,84.58646636,97.66113804,107.451003,116.5099494,111.6361606,115.0833496,122.2244966,119.110796,125.9923501,118.0183664,101.7070831,90.84928176,1.914183219,2.358691864,2.085984942,1.339935267,1.255696348,1.117111043,1.558347107,1.095162786,1.525165531,1.08637936,-0.21178,-0.07832,11.3975,0.58841,-0.42603,-0.26018,-0.07757,-0.60565,0.68852,-0.75236,-0.71873,0.8387,-0.36229,-0.51658,0.26409,-0.70653,0.28573,0.2923,0.27028,-0.48028,-0.77877,-518.5316,185.21,117.5944,128.3534,115.837,23.8702,-6.0411,125.7858,18.7507,169.0112,209.655,32.108,-46.6658,31.8278,29.5051,27.9387,151.5287,169.0456,5.2,1.58,4.23,2.97,1.5,2.03,1612.47,990.7351,1700.78,1023.5444,2801.92,49.7174,3.38,1.82,3.12,2.71,1.03,1.9,2,1,1,37,9.4,58.4,52.5,27.7,346.74,317.08,41.191,1.54,-0.25089,-0.10865,0,6.15737,0.60887,123.19,54.714,1.35,0.74907,2.9017,-0.23066,-0.03108,5.49795,1.39245,1.394990094,2.163257702,61.5662,61.5965,61.6134,46.1174,-0.20895,-0.25249,-0.25274,195.67,172.91,20.079,1.3,6.0219779,1.9126339,1.4522648,10.1662,-0.20732,-0.02413,91.37,62.39,40.332,1.2,0.79875,4.46774,0.38892,0.35777,-0.203,-0.07991,8.3156,97.67,66.44,40.427,1.23,20,1.5,1.5,16,80,16.777,92
0.34185,139.5867195,21.75369134,176.7663487,142.8006469,16.5328446,5.799348548,98.26603022,83.61349888,94.09909667,107.5455803,114.460617,111.9734089,114.0353546,122.1661957,125.013706,125.6732335,118.3212755,102.0281446,92.17420322,1.911677083,2.392070599,2.080594456,1.344055833,1.252779736,1.116995004,1.530007079,1.096191373,2.171833983,1.086318782,-0.21568,-0.08052,11.1188,0.59974,-0.42064,-0.25568,-0.09047,-0.61376,0.69525,-0.74695,-0.71687,0.83855,-0.36307,-0.51511,0.26221,-0.70476,0.28632,0.29256,0.2836,-0.05865,0.2608,-521.9766,185.8687,120.0945,124.5242,119.887,23.0074,-10.754,126.563,18.849,169.1026,208.7318,32.4178,-47.1843,31.619,29.4542,26.8477,52.9314,29.4719,6.37,1.71,3.22,2.97,1.5,2.03,1621.18,912.3417,1702.93,1017.1939,2802.72,48.5203,3.38,1.82,3.12,2.71,1.03,1.9,2,1,1,34.2,7.5,51.8,49.9,27.8,351.55,327.51,41.044,1.53,-0.25089,-0.10865,0,6.15737,0.60887,123.19,54.714,1.35,0.74907,2.9017,-0.23066,-0.03108,5.49795,1.39245,1.394990094,2.163257702,61.5662,61.5965,61.6134,46.1174,-0.20895,-0.25249,-0.25274,195.67,172.91,20.079,1.3,6.0219779,1.9126339,1.4522648,10.1662,-0.20732,-0.02413,91.37,62.39,40.332,1.2,0.79875,4.46774,0.38892,0.35777,-0.203,-0.07991,8.3156,97.67,66.44,40.427,1.23,20,1.5,1.5,16,80,16.777,56
0.25841,136.5614847,25.30977763,174.0418225,139.8643796,18.48099642,2.472058203,100.7843981,95.55907221,92.28976302,109.7201453,115.7397098,114.2800433,115.4400826,122.20341,118.4634833,126.7468077,117.6453347,106.0727581,90.34551067,1.896136964,2.257002273,2.080548519,1.342490913,1.256235313,1.116662791,1.544394219,1.09575757,1.525311963,1.084809807,-0.20914,-0.07734,12.2609,0.60542,-0.4282,-0.26123,-0.07965,-0.61049,0.6891,-0.7515,-0.72614,0.84021,-0.36112,-0.50182,0.25343,-0.71124,0.28199,0.28833,0.26667,-0.46731,-0.77881,-535.7704,189.2365,121.4595,124.2827,117.1502,24.0385,-12.6259,124.7592,18.0083,168.4448,208.4288,32.5264,-47.7593,32.9635,30.058,27.6821,158.17,169.3819,4.3,1.58,7.26,2.97,1.5,2.03,1608.16,901.4884,1695.72,1034.323,2786.09,58.0507,3.38,1.82,3.12,2.71,1.03,1.9,2,1,1,43.8,19.9,68.8,59.2,27.3,379.85,363.9,41.206,1.54,-0.25089,-0.10865,0,6.15737,0.60887,123.19,54.714,1.35,0.74907,2.9017,-0.23066,-0.03108,5.49795,1.39245,1.394990094,2.163257702,61.5662,61.5965,61.6134,46.1174,-0.20895,-0.25249,-0.25274,195.67,172.91,20.079,1.3,6.0219779,1.9126339,1.4522648,10.1662,-0.20732,-0.02413,91.37,62.39,40.332,1.2,0.79875,4.46774,0.38892,0.35777,-0.203,-0.07991,8.3156,97.67,66.44,40.427,1.23,20,1.5,1.5,16,80,16.777,82
0.25143,150.5254822,36.1530189,175.0300243,143.4770415,14.08198716,5.90759627,97.59812025,102.3366319,87.76592297,103.0021335,109.8492132,113.3878458,112.9176516,121.9150743,119.0243891,125.6068229,117.306592,100.9433786,93.67012525,1.939930788,2.432701253,2.080200272,1.339933441,1.256600504,1.11256627,1.562301517,1.095198477,1.523171565,1.086194651,-0.20996,-0.07705,10.9908,0.602,-0.41914,-0.26476,-0.07207,-0.60449,0.69094,-0.75112,-0.72547,0.83767,-0.35874,-0.52215,0.26598,-0.70788,0.28202,0.28889,0.26127,-0.48067,-0.77751,-543.816,192.6059,125.932,130.0959,121.3741,23.2077,-11.0112,140.3839,19.8314,170.6007,212.4168,31.7542,-46.4082,32.4949,30.0972,27.7192,154.0567,168.4723,5.35,1.56,8.18,2.97,1.5,2.03,1607.65,926.5445,1700.54,985.7126,2857.43,23.5083,3.38,1.82,3.12,2.71,1.03,1.9,2,1,1,41,15.5,65.4,55.4,27.6,392.04,372.41,48.327,1.57,-0.25089,-0.10865,0,6.15737,0.60887,123.19,54.714,1.35,0.74907,2.9017,-0.23066,-0.03108,5.49795,1.39245,1.394990094,2.163257702,61.5662,61.5965,61.6134,46.1174,-0.20895,-0.25249,-0.25274,195.67,172.91,20.079,1.3,6.0219779,1.9126339,1.4522648,10.1662,-0.20732,-0.02413,91.37,62.39,40.332,1.2,0.79875,4.46774,0.38892,0.35777,-0.203,-0.07991,8.3156,97.67,66.44,40.427,1.23,20,1.5,1.5,16,80,16.777,86
0.23497,142.5002762,39.2859371,179.0607082,141.1658234,17.28833803,2.445751345,100.4566629,86.30577406,92.33045837,108.6765152,112.5432991,112.1430975,112.6166948,121.8580721,119.1174437,126.3976648,117.7577566,104.7055198,90.6628025,1.897382901,2.333682879,2.08389605,1.341295628,1.254938412,1.116268671,1.556672947,1.094174895,1.523789237,1.08522203,-0.21213,-0.07766,10.5603,0.59613,-0.42681,-0.26548,-0.06837,-0.60952,0.69485,-0.74733,-0.7245,0.83931,-0.35992,-0.51142,0.25917,-0.71015,0.28048,0.28922,0.27029,-0.49035,-0.77887,-526.8088,189.5798,123.1873,125.9647,119.8974,23.9921,-11.8643,128,18.599,168.7377,208.883,31.8052,-47.9294,32.0559,29.8541,27.5377,160.3423,169.2761,5.01,1.55,5.93,2.97,1.5,2.03,1613.09,946.5943,1698.12,1000.8912,2804.86,40.0873,3.38,1.82,3.12,2.71,1.03,1.9,2,1,1,44.7,20.2,67.6,64.3,26.5,370.07,354.4,41.53,1.53,-0.25089,-0.10865,0,6.15737,0.60887,123.19,54.714,1.35,0.74907,2.9017,-0.23066,-0.03108,5.49795,1.39245,1.394990094,2.163257702,61.5662,61.5965,61.6134,46.1174,-0.20895,-0.25249,-0.25274,195.67,172.91,20.079,1.3,6.0219779,1.9126339,1.4522648,10.1662,-0.20732,-0.02413,91.37,62.39,40.332,1.2,0.79875,4.46774,0.38892,0.35777,-0.203,-0.07991,8.3156,97.67,66.44,40.427,1.23,20,1.5,1.5,16,80,16.777,92
0.1508,137.402903,39.72904714,172.5729492,142.3675268,15.52197377,13.54302067,96.28962544,101.3882562,97.97120265,101.9025612,111.8225528,111.9414341,113.1934661,121.6690895,119.2501193,125.1842202,117.1484385,98.03871067,92.5232897,1.957542875,2.512530035,2.084210374,1.341121439,1.256608551,1.11164836,1.564915573,1.093443153,1.522533828,1.085254605,-0.21211,-0.07565,11.6418,0.58992,-0.42411,-0.26219,-0.06922,-0.60228,0.69411,-0.74837,-0.72769,0.83588,-0.35643,-0.53064,0.27141,-0.70737,0.28194,0.29124,0.26131,-0.48451,-0.77539,-536.0036,193.2794,127.1999,129.4115,123.4839,20.9452,-9.943,139.8071,19.6095,167.8623,217.1745,31.5764,-50.1887,33.038,29.668,28.2162,162.0725,168.8194,4.99,2.17,7.2,2.97,1.5,2.03,1604,880.142,1698.32,994.4671,2857.6,21.9218,3.38,1.82,3.12,2.71,1.03,1.9,2,1,1,46.3,15,69.5,73.3,27.6,493.66,508.86,42.192,1.6,-0.25089,-0.10865,0,6.15737,0.60887,123.19,54.714,1.35,0.74907,2.9017,-0.23066,-0.03108,5.49795,1.39245,1.394990094,2.163257702,61.5662,61.5965,61.6134,46.1174,-0.20895,-0.25249,-0.25274,195.67,172.91,20.079,1.3,6.0219779,1.9126339,1.4522648,10.1662,-0.20732,-0.02413,91.37,62.39,40.332,1.2,0.79875,4.46774,0.38892,0.35777,-0.203,-0.07991,8.3156,97.67,66.44,40.427,1.23,20,1.5,1.5,16,80,16.777,90
0.23857,150.3623506,35.7511564,173.9910943,143.1991076,15.49346974,6.296119894,95.30076366,103.5161812,87.95455263,102.4989225,109.7487237,113.4433727,113.2456143,121.8572186,119.0565892,125.0378018,117.7792972,98.15281525,92.5126921,1.961554584,2.414743755,2.081627308,1.34025751,1.256500686,1.111963555,1.563936276,1.094656637,1.523216111,1.086135104,-0.20832,-0.07602,12.1589,0.59725,-0.42053,-0.26475,-0.07103,-0.60598,0.69188,-0.74969,-0.72153,0.83837,-0.35655,-0.53198,0.27154,-0.70797,0.2817,0.29158,0.26208,-0.48333,-0.77743,-544.1064,192.9454,124.969,130.2381,122.2455,23.0063,-13.0285,134.6692,20.1604,170.2477,216.7639,32.0625,-46.1262,33.5951,32.2979,27.5999,153.4105,168.3706,5.05,1.55,8.33,2.97,1.5,2.03,1606.72,880.2276,1702.01,978.3651,2860.29,27.0251,3.38,1.82,3.12,2.71,1.03,1.9,2,1,1,41.8,14.8,65.7,58.9,27.7,405.46,396.42,41.393,1.55,-0.25089,-0.10865,0,6.15737,0.60887,123.19,54.714,1.35,0.74907,2.9017,-0.23066,-0.03108,5.49795,1.39245,1.394990094,2.163257702,61.5662,61.5965,61.6134,46.1174,-0.20895,-0.25249,-0.25274,195.67,172.91,20.079,1.3,6.0219779,1.9126339,1.4522648,10.1662,-0.20732,-0.02413,91.37,62.39,40.332,1.2,0.79875,4.46774,0.38892,0.35777,-0.203,-0.07991,8.3156,97.67,66.44,40.427,1.23,20,1.5,1.5,16,80,16.777,82
0.21185,147.6938428,34.91603272,172.3613899,144.0050037,13.9763405,9.192546464,96.10811835,106.288165,89.51134942,102.2016125,110.7037454,113.5455512,113.1156867,121.7696591,118.924322,125.2015253,117.4771464,98.05513466,92.37786867,1.977424694,2.404497458,2.079886604,1.341755399,1.256572555,1.110469468,1.559900367,1.095120848,1.523496612,1.086407906,-0.20911,-0.07653,12.0426,0.60411,-0.41798,-0.2647,-0.07071,-0.60484,0.69114,-0.74814,-0.72076,0.83767,-0.3596,-0.53297,0.27296,-0.70732,0.28088,0.29246,0.26128,-0.48466,-0.77771,-547.3557,193.163,126.3162,129.1806,123.0396,21.9676,-17.7662,136.3527,20.3615,170.115,213.3619,31.0269,-44.8394,32.3666,29.9705,27.4983,158.3668,168.2396,5.09,1.57,6.96,2.97,1.5,2.03,1605.03,907.8975,1702.45,999.2169,2887.07,27.3991,3.38,1.82,3.12,2.71,1.03,1.9,2,1,1,40.1,15.2,61.5,56.3,27.6,409.01,396.35,41.361,1.57,-0.25089,-0.10865,0,6.15737,0.60887,123.19,54.714,1.35,0.74907,2.9017,-0.23066,-0.03108,5.49795,1.39245,1.394990094,2.163257702,61.5662,61.5965,61.6134,46.1174,-0.20895,-0.25249,-0.25274,195.67,172.91,20.079,1.3,6.0219779,1.9126339,1.4522648,10.1662,-0.20732,-0.02413,91.37,62.39,40.332,1.2,0.79875,4.46774,0.38892,0.35777,-0.203,-0.07991,8.3156,97.67,66.44,40.427,1.23,20,1.5,1.5,16,80,16.777,90
0.26271,148.4489033,34.39977267,172.6750702,143.5451868,14.49173851,8.965591998,95.66278698,105.6779011,89.63019781,102.5260328,109.8376037,113.6091171,113.2299344,121.8166368,118.9551055,125.1622925,117.5078199,98.09189206,92.31543903,1.976234264,2.411543117,2.079591692,1.341133927,1.256536567,1.110922351,1.55891302,1.095018245,1.522868036,1.086485424,-0.2129,-0.07666,12.1919,0.60232,-0.41835,-0.26572,-0.0719,-0.60507,0.69139,-0.74874,-0.72097,0.8376,-0.35999,-0.5323,0.27186,-0.70714,0.2816,0.29258,0.26156,-0.48285,-0.77779,-545.5873,193.6197,126.454,130.6457,123.7355,22.2422,-15.2893,135.2172,20.1585,170.2262,214.0925,31.4401,-45.0505,32.5826,30.1026,27.6702,153.7865,168.2746,4.83,1.56,6.01,2.97,1.5,2.03,1606.25,878.5407,1701.05,1012.5983,2889.39,28.4015,4.06,1.85,3.12,2.71,1.03,1.9,2,1,1,39.4,14.6,61.8,53.4,27.9,366.94,345.66,41.45,1.54,-0.25089,-0.10865,0,6.15737,0.60887,123.19,54.714,1.35,0.74907,2.9017,-0.23066,-0.03108,5.49795,1.39245,1.394990094,2.163257702,61.5662,61.5965,61.6134,46.1174,-0.20895,-0.25249,-0.25274,195.67,172.91,20.079,1.3,12.1830876,3.2104004,2.5409117,7.2247,-0.2532,-0.02158,82.46,56.3,48.175,1.16,0.77483,11.70261,1.45024,1.30077,-0.23556,-0.07349,4.7036,97.19,69.71,27.931,1.19,20,1.5,3,24,80,16.777,88
0.26271,148.4489033,34.39977267,172.6750702,143.5451868,14.49173851,8.965591998,95.66278698,105.6779011,89.63019781,102.5260328,109.8376037,113.6091171,113.2299344,121.8166368,118.9551055,125.1622925,117.5078199,98.09189206,92.31543903,1.976234264,2.411543117,2.079591692,1.341133927,1.256536567,1.110922351,1.55891302,1.095018245,1.522868036,1.086485424,-0.2129,-0.07666,12.1919,0.60232,-0.41835,-0.26572,-0.0719,-0.60507,0.69139,-0.74874,-0.72097,0.8376,-0.35999,-0.5323,0.27186,-0.70714,0.2816,0.29258,0.26156,-0.48285,-0.77779,-545.5873,193.6197,126.454,130.6457,123.7355,22.2422,-15.2893,135.2172,20.1585,170.2262,214.0925,31.4401,-45.0505,32.5826,30.1026,27.6702,153.7865,168.2746,4.83,1.56,6.01,2.97,1.5,2.03,1606.25,878.5407,1701.05,1012.5983,2889.39,28.4015,4.06,1.85,3.12,2.71,1.03,1.9,2,1,1,39.4,14.6,61.8,53.4,27.9,366.94,345.66,41.45,1.54,-0.25089,-0.10865,0,6.15737,0.60887,123.19,54.714,1.35,0.74907,2.9017,-0.23066,-0.03108,5.49795,1.39245,1.394990094,2.163257702,61.5662,61.5965,61.6134,46.1174,-0.20895,-0.25249,-0.25274,195.67,172.91,20.079,1.3,6.0219779,1.9126339,1.4522648,10.1662,-0.20732,-0.02413,91.37,62.39,40.332,1.2,0.77483,11.70261,1.45024,1.30077,-0.23556,-0.07349,4.7036,97.19,69.71,27.931,1.19,20,1.5,3,24,80,16.777,86
0.26271,148.4489033,34.39977267,172.6750702,143.5451868,14.49173851,8.965591998,95.66278698,105.6779011,89.63019781,102.5260328,109.8376037,113.6091171,113.2299344,121.8166368,118.9551055,125.1622925,117.5078199,98.09189206,92.31543903,1.976234264,2.411543117,2.079591692,1.341133927,1.256536567,1.110922351,1.55891302,1.095018245,1.522868036,1.086485424,-0.2129,-0.07666,12.1919,0.60232,-0.41835,-0.26572,-0.0719,-0.60507,0.69139,-0.74874,-0.72097,0.8376,-0.35999,-0.5323,0.27186,-0.70714,0.2816,0.29258,0.26156,-0.48285,-0.77779,-545.5873,193.6197,126.454,130.6457,123.7355,22.2422,-15.2893,135.2172,20.1585,170.2262,214.0925,31.4401,-45.0505,32.5826,30.1026,27.6702,153.7865,168.2746,4.83,1.56,6.01,2.97,1.5,2.03,1606.25,878.5407,1701.05,1012.5983,2889.39,28.4015,4.06,1.85,3.12,2.71,1.03,1.9,2,1,1,39.4,14.6,61.8,53.4,27.9,366.94,345.66,41.45,1.54,-0.25089,-0.10865,0,6.15737,0.60887,123.19,54.714,1.35,0.74907,2.9017,-0.23066,-0.03108,5.49795,1.39245,1.394990094,2.163257702,61.5662,61.5965,61.6134,46.1174,-0.20895,-0.25249,-0.25274,195.67,172.91,20.079,1.3,11.5553756,1.86672,1.6234251,8.368,-0.22895,-0.0205,106.98,78.57,27.094,1.21,0.77483,11.70261,1.45024,1.30077,-0.23556,-0.07349,4.7036,97.19,69.71,27.931,1.19,20,1.5,3,24,80,16.777,92
0.26271,148.4489033,34.39977267,172.6750702,143.5451868,14.49173851,8.965591998,95.66278698,105.6779011,89.63019781,102.5260328,109.8376037,113.6091171,113.2299344,121.8166368,118.9551055,125.1622925,117.5078199,98.09189206,92.31543903,1.976234264,2.411543117,2.079591692,1.341133927,1.256536567,1.110922351,1.55891302,1.095018245,1.522868036,1.086485424,-0.2129,-0.07666,12.1919,0.60232,-0.41835,-0.26572,-0.0719,-0.60507,0.69139,-0.74874,-0.72097,0.8376,-0.35999,-0.5323,0.27186,-0.70714,0.2816,0.29258,0.26156,-0.48285,-0.77779,-545.5873,193.6197,126.454,130.6457,123.7355,22.2422,-15.2893,135.2172,20.1585,170.2262,214.0925,31.4401,-45.0505,32.5826,30.1026,27.6702,153.7865,168.2746,4.83,1.56,6.01,2.97,1.5,2.03,1606.25,878.5407,1701.05,1012.5983,2889.39,28.4015,4.06,1.85,3.12,2.71,1.03,1.9,2,1,1,39.4,14.6,61.8,53.4,27.9,366.94,345.66,41.45,1.54,-0.25089,-0.10865,0,6.15737,0.60887,123.19,54.714,1.35,0.74907,2.9017,-0.23066,-0.03108,5.49795,1.39245,1.394990094,2.163257702,61.5662,61.5965,61.6134,46.1174,-0.20895,-0.25249,-0.25274,195.67,172.91,20.079,1.3,12.1015104,1.9250928,1.6609123,9.5729,-0.23984,-0.02241,95.19,67.09,47.432,1.19,0.77483,11.70261,1.45024,1.30077,-0.23556,-0.07349,4.7036,97.19,69.71,27.931,1.19,20,1.5,3,24,80,16.777,90
0.26271,148.4489033,34.39977267,172.6750702,143.5451868,14.49173851,8.965591998,95.66278698,105.6779011,89.63019781,102.5260328,109.8376037,113.6091171,113.2299344,121.8166368,118.9551055,125.1622925,117.5078199,98.09189206,92.31543903,1.976234264,2.411543117,2.079591692,1.341133927,1.256536567,1.110922351,1.55891302,1.095018245,1.522868036,1.086485424,-0.2129,-0.07666,12.1919,0.60232,-0.41835,-0.26572,-0.0719,-0.60507,0.69139,-0.74874,-0.72097,0.8376,-0.35999,-0.5323,0.27186,-0.70714,0.2816,0.29258,0.26156,-0.48285,-0.77779,-545.5873,193.6197,126.454,130.6457,123.7355,22.2422,-15.2893,135.2172,20.1585,170.2262,214.0925,31.4401,-45.0505,32.5826,30.1026,27.6702,153.7865,168.2746,4.83,1.56,6.01,2.97,1.5,2.03,1606.25,878.5407,1701.05,1012.5983,2889.39,28.4015,4.06,1.85,3.12,2.71,1.03,1.9,2,1,1,39.4,14.6,61.8,53.4,27.9,366.94,345.66,41.45,1.54,-0.25089,-0.10865,0,6.15737,0.60887,123.19,54.714,1.35,0.74907,2.9017,-0.23066,-0.03108,5.49795,1.39245,1.394990094,2.163257702,61.5662,61.5965,61.6134,46.1174,-0.20895,-0.25249,-0.25274,195.67,172.91,20.079,1.3,4.4100711,0.9139866,0.7577829,12.1289,-0.1771,-0.02264,116.05,83.65,38.284,1.25,0.77483,11.70261,1.45024,1.30077,-0.23556,-0.07349,4.7036,97.19,69.71,27.931,1.19,20,1.5,3,24,80,16.777,86
0.26271,148.4489033,34.39977267,172.6750702,143.5451868,14.49173851,8.965591998,95.66278698,105.6779011,89.63019781,102.5260328,109.8376037,113.6091171,113.2299344,121.8166368,118.9551055,125.1622925,117.5078199,98.09189206,92.31543903,1.976234264,2.411543117,2.079591692,1.341133927,1.256536567,1.110922351,1.55891302,1.095018245,1.522868036,1.086485424,-0.2129,-0.07666,12.1919,0.60232,-0.41835,-0.26572,-0.0719,-0.60507,0.69139,-0.74874,-0.72097,0.8376,-0.35999,-0.5323,0.27186,-0.70714,0.2816,0.29258,0.26156,-0.48285,-0.77779,-545.5873,193.6197,126.454,130.6457,123.7355,22.2422,-15.2893,135.2172,20.1585,170.2262,214.0925,31.4401,-45.0505,32.5826,30.1026,27.6702,153.7865,168.2746,4.83,1.56,6.01,2.97,1.5,2.03,1606.25,878.5407,1701.05,1012.5983,2889.39,28.4015,4.06,1.85,3.12,2.71,1.03,1.9,2,1,1,39.4,14.6,61.8,53.4,27.9,366.94,345.66,41.45,1.54,-0.25089,-0.10865,0,6.15737,0.60887,123.19,54.714,1.35,0.74907,2.9017,-0.23066,-0.03108,5.49795,1.39245,1.394990094,2.163257702,61.5662,61.5965,61.6134,46.1174,-0.20895,-0.25249,-0.25274,195.67,172.91,20.079,1.3,0.8601877,0.8336347,0.5197132,12.9123,-0.18416,-0.0256,157.89,116.29,62.173,1.37,0.77483,11.70261,1.45024,1.30077,-0.23556,-0.07349,4.7036,97.19,69.71,27.931,1.19,20,1.5,3,24,80,16.777,82
0.26271,148.4489033,34.39977267,172.6750702,143.5451868,14.49173851,8.965591998,95.66278698,105.6779011,89.63019781,102.5260328,109.8376037,113.6091171,113.2299344,121.8166368,118.9551055,125.1622925,117.5078199,98.09189206,92.31543903,1.976234264,2.411543117,2.079591692,1.341133927,1.256536567,1.110922351,1.55891302,1.095018245,1.522868036,1.086485424,-0.2129,-0.07666,12.1919,0.60232,-0.41835,-0.26572,-0.0719,-0.60507,0.69139,-0.74874,-0.72097,0.8376,-0.35999,-0.5323,0.27186,-0.70714,0.2816,0.29258,0.26156,-0.48285,-0.77779,-545.5873,193.6197,126.454,130.6457,123.7355,22.2422,-15.2893,135.2172,20.1585,170.2262,214.0925,31.4401,-45.0505,32.5826,30.1026,27.6702,153.7865,168.2746,4.83,1.56,6.01,2.97,1.5,2.03,1606.25,878.5407,1701.05,1012.5983,2889.39,28.4015,4.06,1.85,3.12,2.71,1.03,1.9,2,1,1,39.4,14.6,61.8,53.4,27.9,366.94,345.66,41.45,1.54,-0.25089,-0.10865,0,6.15737,0.60887,123.19,54.714,1.35,0.74907,2.4711,-0.24419,-0.0529,3.40459,1.395758783,1.395902444,2.154640103,49.4615,60.7543,60.6024,45.0972,-0.18637,-0.25297,-0.25298,162.71,143.04,0,1.23,12.1830876,3.2104004,2.5409117,7.2247,-0.2532,-0.02158,82.46,56.3,48.175,1.16,0.79875,4.46774,0.38892,0.35777,-0.203,-0.07991,8.3156,97.67,66.44,40.427,1.23,20,1.5,2,24,80,16.777,92
0.26271,148.4489033,34.39977267,172.6750702,143.5451868,14.49173851,8.965591998,95.66278698,105.6779011,89.63019781,102.5260328,109.8376037,113.6091171,113.2299344,121.8166368,118.9551055,125.1622925,117.5078199,98.09189206,92.31543903,1.976234264,2.411543117,2.079591692,1.341133927,1.256536567,1.110922351,1.55891302,1.095018245,1.522868036,1.086485424,-0.2129,-0.07666,12.1919,0.60232,-0.41835,-0.26572,-0.0719,-0.60507,0.69139,-0.74874,-0.72097,0.8376,-0.35999,-0.5323,0.27186,-0.70714,0.2816,0.29258,0.26156,-0.48285,-0.77779,-545.5873,193.6197,126.454,130.6457,123.7355,22.2422,-15.2893,135.2172,20.1585,170.2262,214.0925,31.4401,-45.0505,32.5826,30.1026,27.6702,153.7865,168.2746,4.83,1.56,6.01,2.97,1.5,2.03,1606.25,878.5407,1701.05,1012.5983,2889.39,28.4015,4.06,1.85,3.12,2.71,1.03,1.9,2,1,1,39.4,14.6,61.8,53.4,27.9,366.94,345.66,41.45,1.54,-0.25089,-0.10865,0,6.15737,0.60887,123.19,54.714,1.35,0.74907,2.4711,-0.24419,-0.0529,3.40459,1.395758783,1.395902444,2.154640103,49.4615,60.7543,60.6024,45.0972,-0.18637,-0.25297,-0.25298,162.71,143.04,0,1.23,6.0219779,1.9126339,1.4522648,10.1662,-0.20732,-0.02413,91.37,62.39,40.332,1.2,0.79875,4.46774,0.38892,0.35777,-0.203,-0.07991,8.3156,97.67,66.44,40.427,1.23,20,1.5,2,24,80,16.777,94
0.26271,148.4489033,34.39977267,172.6750702,143.5451868,14.49173851,8.965591998,95.66278698,105.6779011,89.63019781,102.5260328,109.8376037,113.6091171,113.2299344,121.8166368,118.9551055,125.1622925,117.5078199,98.09189206,92.31543903,1.976234264,2.411543117,2.079591692,1.341133927,1.256536567,1.110922351,1.55891302,1.095018245,1.522868036,1.086485424,-0.2129,-0.07666,12.1919,0.60232,-0.41835,-0.26572,-0.0719,-0.60507,0.69139,-0.74874,-0.72097,0.8376,-0.35999,-0.5323,0.27186,-0.70714,0.2816,0.29258,0.26156,-0.48285,-0.77779,-545.5873,193.6197,126.454,130.6457,123.7355,22.2422,-15.2893,135.2172,20.1585,170.2262,214.0925,31.4401,-45.0505,32.5826,30.1026,27.6702,153.7865,168.2746,4.83,1.56,6.01,2.97,1.5,2.03,1606.25,878.5407,1701.05,1012.5983,2889.39,28.4015,4.06,1.85,3.12,2.71,1.03,1.9,2,1,1,39.4,14.6,61.8,53.4,27.9,366.94,345.66,41.45,1.54,-0.25089,-0.10865,0,6.15737,0.60887,123.19,54.714,1.35,0.74907,2.4711,-0.24419,-0.0529,3.40459,1.395758783,1.395902444,2.154640103,49.4615,60.7543,60.6024,45.0972,-0.18637,-0.25297,-0.25298,162.71,143.04,0,1.23,4.4100711,0.9139866,0.7577829,12.1289,-0.1771,-0.02264,116.05,83.65,38.284,1.25,0.79875,4.46774,0.38892,0.35777,-0.203,-0.07991,8.3156,97.67,66.44,40.427,1.23,20,1.5,2,24,80,16.777,92
0.25938,147.713381,32.69353112,172.3946236,143.4056134,15.37037616,11.16824753,97.63720231,107.6124465,90.23526834,102.8344539,109.9435373,114.0021694,113.0115729,122.049716,119.1511878,126.5957431,117.1550872,97.52846083,89.8016277,1.971891743,2.31333847,2.081936852,1.349047279,1.248562212,1.112880166,1.559109367,1.09553847,1.526265963,1.086511411,-0.20412,-0.07034,11.1279,0.58261,-0.42155,-0.26544,-0.07094,-0.62045,0.68593,-0.70304,-0.70483,0.82651,-0.35657,-0.53904,0.27708,-0.66556,0.27793,0.28699,0.25703,-0.48211,-0.777,-522.158,195.0986,126.6283,131.218,127.7937,24.479,-46.4523,129.4329,23.8814,169.4159,214.1659,30.5047,-69.504,32.5132,30.08,27.7292,153.1788,168.3314,4.84,1.56,6.01,2.97,1.5,2.03,1649.46,605.9405,1753.37,837.6724,2849.16,46.3741,4.06,1.85,3.12,2.71,1.03,1.9,2,1,1,39,16.8,61.2,50.4,27.6,366.89,345.62,40.961,1.54,-0.25805,-0.10973,0,6.15825,0.61168,123.13,54.677,1.35,0.69974,4.3093,-0.25443,-0.05436,1.15223,1.406029791,1.406432386,1.559021459,60.8212,61.115,61.2353,82.7487,-0.38986,-0.20234,-0.20275,304.51,281.72,33.948,1.47,1.78781,0.89525,0.69034,14.8576,-0.19038,-0.02356,136.53,98.77,66.378,1.32,0.76466,4.5053,0.40063,0.36793,-0.18794,-0.07871,7.5468,96.82,66.16,40.159,1.22,20,1.5,1.5,12,80,13.63,92
0.10223,144.0255259,30.11995311,168.0889871,147.1996545,14.82800972,15.08476203,87.21219506,113.5288223,92.90586503,101.7364238,110.2973737,114.3821633,114.6480311,121.2774364,119.4317963,123.7873338,112.3356949,114.3114014,92.93838149,1.860295323,2.559536118,2.076287382,1.346205705,1.254557625,1.13304401,1.561173654,1.095532306,1.52017302,1.539407652,-0.20934,-0.0804,13.3975,0.59896,-0.42009,-0.26086,-0.06898,-0.61503,0.69578,-0.72618,-0.73411,0.85048,-0.15469,-0.43514,0.21261,-0.70189,0.26912,-0.44539,0.25718,-0.48445,-0.77425,-542.8208,193.0481,126.5825,128.7707,126.6385,18.5933,-27.6157,128.1831,15.15,138.6321,163.9272,34.8406,-42.9522,29.1773,153.4627,28.303,163.5445,169.4531,4.77,2.2,7.15,2.97,1.5,2.03,1610.88,632.7654,1697.35,910.3935,2625.98,415.5527,3.38,1.82,3.12,2.71,1.03,1.9,4.05,1.5,3.14,42.1,14.9,66.6,57.1,29.8,554.86,561.94,42.569,1.68,-0.25204,-0.10901,0,6.15532,0.60903,123.19,54.715,1.35,0.7371,4.5744,-0.25596,-0.05724,1.15225,1.406019492,1.406253972,1.558287756,60.7506,61.0436,61.1724,82.7828,-0.38931,-0.20144,-0.20169,304.55,281.75,33.973,1.47,1.78781,0.89525,0.69034,14.8576,-0.19038,-0.02356,137.9,99.07,67.269,1.33,0.79003,4.44556,0.39348,0.36148,-0.19953,-0.08061,8.1307,97.42,66.37,40.344,1.23,20,1.5,2,12,60,12.58,88
0.10277,144.483022,29.27803275,168.8619631,148.1537419,15.08842687,15.80830739,89.56541418,113.7559852,92.68847156,102.0153063,109.9222238,114.4189721,114.7020951,121.3554861,119.7561384,125.1814505,112.1890837,112.883559,91.66125562,1.842380829,2.442946443,2.077670595,1.3529423,1.247011714,1.135912058,1.563993748,1.096243664,1.52294548,1.538256654,-0.20281,-0.07464,11.6435,0.58532,-0.42422,-0.26044,-0.06702,-0.62802,0.69158,-0.68767,-0.71867,0.84254,-0.15378,-0.44517,0.22164,-0.66648,0.26612,-0.44467,0.25043,-0.48402,-0.77181,-516.1027,195.2448,126.7295,129.0688,128.5167,21.3111,-55.7697,123.6259,18.6495,139.2024,165.6976,34.1932,-62.9136,29.4963,152.7405,28.3655,162.9537,169.5535,4.76,2.19,7.16,2.97,1.5,2.03,1651.34,397.7301,1737.74,733.1572,2589.57,266.2794,3.38,1.82,3.12,2.71,1.03,1.9,4.05,1.5,3.14,42.1,14.9,66.6,57.1,29.8,555.61,561.83,41.885,1.69,-0.2582,-0.10974,0.0001,6.15816,0.61175,123.13,54.67,1.35,0.70235,4.1608,-0.2533,-0.0535,1.15182,1.405997319,1.406414685,1.558334299,60.9872,61.1296,61.1732,82.73,-0.38951,-0.20077,-0.20098,304.47,281.7,33.924,1.47,1.84831,0.88232,0.69091,14.1865,-0.18759,-0.026,136.17,98.62,66.294,1.32,0.75582,4.5178,0.40418,0.371,-0.1898,-0.08443,7.2601,96.57,66.07,40.078,1.22,20,1.5,2,12,60,5.84,70
0.10275,144.2065713,29.3201941,168.3480013,148.1572282,15.11335238,15.62329426,89.20108107,113.8147124,92.97108162,101.9341151,109.9535336,114.4140058,114.685066,121.3775699,119.7477353,125.0200411,112.2135926,112.8550307,91.56014673,1.843856008,2.45645868,2.077548541,1.352618445,1.247447521,1.135710162,1.563514184,1.096101386,1.522702364,1.538158601,-0.20276,-0.07452,11.9332,0.58394,-0.42373,-0.26046,-0.0674,-0.62677,0.692,-0.68923,-0.71973,0.84247,-0.15365,-0.44472,0.22086,-0.66865,0.26683,-0.44487,0.25174,-0.48421,-0.7723,-516.9038,194.8917,126.646,129.0841,128.5521,21.0308,-54.14,123.7257,18.4748,139.1316,165.6572,34.2912,-61.796,29.4521,152.8278,28.3508,163.0823,169.5525,4.76,2.19,7.16,2.97,1.5,2.03,1649.26,435.7903,1735.44,751.3226,2592.31,282.6879,3.38,1.82,3.12,2.71,1.03,1.9,4.05,1.5,3.14,42.1,14.9,66.6,57.1,29.8,554.85,561.79,42.034,1.69,-0.25816,-0.10977,0,6.15707,0.61171,123.13,54.675,1.35,0.70145,4.2105,-0.25368,-0.05379,1.15207,1.405954408,1.406363902,1.558582824,60.9294,61.125,61.1934,82.7365,-0.38961,-0.2013,-0.20156,304.49,281.71,33.938,1.47,1.82004,0.88843,0.69089,14.4655,-0.18847,-0.02521,136.3,98.68,66.305,1.32,0.75889,4.51239,0.4029,0.3699,-0.18914,-0.08245,7.3605,96.67,66.1,40.111,1.22,20,1.5,2,12,60,7.489,72
0.10223,144.0255259,30.11995311,168.0889871,147.1996545,14.82800972,15.08476203,87.21219506,113.5288223,92.90586503,101.7364238,110.2973737,114.3821633,114.6480311,121.2774364,119.4317963,123.7873338,112.3356949,114.3114014,92.93838149,1.860295323,2.559536118,2.076287382,1.346205705,1.254557625,1.13304401,1.561173654,1.095532306,1.52017302,1.539407652,-0.20934,-0.0804,13.3975,0.59896,-0.42009,-0.26086,-0.06898,-0.61503,0.69578,-0.72618,-0.73411,0.85048,-0.15469,-0.43514,0.21261,-0.70189,0.26912,-0.44539,0.25718,-0.48445,-0.77425,-542.8208,193.0481,126.5825,128.7707,126.6385,18.5933,-27.6157,128.1831,15.15,138.6321,163.9272,34.8406,-42.9522,29.1773,153.4627,28.303,163.5445,169.4531,4.77,2.2,7.15,2.97,1.5,2.03,1610.88,632.7654,1697.35,910.3935,2625.98,415.5527,3.38,1.82,3.12,2.71,1.03,1.9,4.05,1.5,3.14,42.1,14.9,66.6,57.1,29.8,554.86,561.94,42.569,1.68,-0.25204,-0.10901,0,6.15532,0.60903,123.19,54.715,1.35,0.7371,4.5744,-0.25596,-0.05724,1.15225,1.406019492,1.406253972,1.558287756,60.7506,61.0436,61.1724,82.7828,-0.38931,-0.20144,-0.20169,304.55,281.75,33.973,1.47,1.7090757,0.9048213,0.6739296,14.5776,-0.20935,-0.02613,137.9,99.07,67.269,1.33,0.79003,4.44556,0.39348,0.36148,-0.19953,-0.08061,8.1307,97.42,66.37,40.344,1.23,20,1.5,2,12,80,12.58,80
0.10223,144.0255259,30.11995311,168.0889871,147.1996545,14.82800972,15.08476203,87.21219506,113.5288223,92.90586503,101.7364238,110.2973737,114.3821633,114.6480311,121.2774364,119.4317963,123.7873338,112.3356949,114.3114014,92.93838149,1.860295323,2.559536118,2.076287382,1.346205705,1.254557625,1.13304401,1.561173654,1.095532306,1.52017302,1.539407652,-0.20934,-0.0804,13.3975,0.59896,-0.42009,-0.26086,-0.06898,-0.61503,0.69578,-0.72618,-0.73411,0.85048,-0.15469,-0.43514,0.21261,-0.70189,0.26912,-0.44539,0.25718,-0.48445,-0.77425,-542.8208,193.0481,126.5825,128.7707,126.6385,18.5933,-27.6157,128.1831,15.15,138.6321,163.9272,34.8406,-42.9522,29.1773,153.4627,28.303,163.5445,169.4531,4.77,2.2,7.15,2.97,1.5,2.03,1610.88,632.7654,1697.35,910.3935,2625.98,415.5527,3.38,1.82,3.12,2.71,1.03,1.9,4.05,1.5,3.14,42.1,14.9,66.6,57.1,29.8,554.86,561.94,42.569,1.68,-0.25204,-0.10901,0,6.15532,0.60903,123.19,54.715,1.35,0.7371,4.5744,-0.25596,-0.05724,1.15225,1.406019492,1.406253972,1.558287756,60.7506,61.0436,61.1724,82.7828,-0.38931,-0.20144,-0.20169,304.55,281.75,33.973,1.47,1.7090757,0.9048213,0.6739296,14.5776,-0.20935,-0.02613,137.9,99.07,67.269,1.33,0.79003,4.44556,0.39348,0.36148,-0.19953,-0.08061,8.1307,97.42,66.37,40.344,1.23,20,1.5,2,12,50,12.58,88
0.22964,140.4217917,21.4430543,179.8705882,146.4714469,14.35714699,2.02536115,89.30265517,94.02930859,87.97097578,108.1749317,117.4388534,113.6830696,114.7791313,121.8681349,119.1337824,124.6095728,112.5297206,116.0534394,93.1738671,1.845244193,2.382274474,2.075148206,1.343362668,1.25367561,1.134000981,1.560892754,1.09624683,1.52463448,1.53918261,-0.20953,-0.08148,12.7103,0.60641,-0.42424,-0.26116,-0.07258,-0.61948,0.68868,-0.73501,-0.72926,0.85213,-0.15615,-0.42447,0.20932,-0.69997,0.2705,-0.44652,0.26982,-0.48907,-0.7786,-528.2047,187.1636,117.9682,125.5394,115.4028,23.6237,-15.8573,119.4688,14.5599,138.2483,158.8842,34.8028,-45.3803,28.9957,154.2128,27.7234,152.2638,169.2951,5.49,1.58,5.59,2.97,1.5,2.03,1619.08,786.4958,1697.33,893.0839,2608.18,503.0538,4.06,1.85,3.12,2.71,1.03,1.9,4.05,1.5,3.14,39.1,9.2,59.4,59.6,28.5,414.46,397.99,40.643,1.58,-0.25204,-0.10901,0,6.15532,0.60903,123.19,54.715,1.35,0.7371,4.5744,-0.25596,-0.05724,1.15225,1.406019492,1.406253972,1.558287756,60.7506,61.0436,61.1724,82.7828,-0.38931,-0.20144,-0.20169,304.55,281.75,33.973,1.47,1.7090757,0.9048213,0.6739296,14.5776,-0.20935,-0.02613,137.9,99.07,67.269,1.33,0.79003,4.44556,0.39348,0.36148,-0.19953,-0.08061,8.1307,97.42,66.37,40.344,1.23,20,1.5,2,12,60,12.58,72
0.1971,135.9496632,21.14612609,177.7989791,147.8881956,17.97368164,2.439914498,90.5983833,92.09057497,92.23742927,106.4906957,118.3812101,113.7080591,114.0612047,121.8595584,119.2764615,123.1661597,112.3294329,119.868736,94.05493763,1.928134431,2.390810591,2.112898573,1.341976492,1.254189515,1.125715753,1.564686257,1.095918238,1.524416482,1.537456983,-0.20942,-0.08838,13.0432,0.62918,-0.44398,-0.26105,-0.072,-0.62637,0.68656,-0.7316,-0.73817,0.85135,-0.15541,-0.42228,0.20244,-0.7043,0.26479,-0.44465,0.27082,-0.49135,-0.77849,-603.6647,159.8774,123.1716,126.7596,120.9789,23.6363,-10.1587,139.7818,14.6493,139.1475,156.3253,33.3113,-50.6067,29.0088,155.23,27.8333,152.9516,168.8134,5.49,1.58,5.64,2.97,1.5,2.03,1614.98,756.6228,1690.23,838.5034,2755.39,647.8763,4.89,1.85,4.44,2.71,1.03,1.9,4.05,1.5,3.14,46.2,17.3,60.7,66.3,40.3,452.23,434.69,40.19,1.63,-0.25204,-0.10901,0,6.15532,0.60903,123.19,54.715,1.35,0.7371,4.5744,-0.25596,-0.05724,1.15225,1.406019492,1.406253972,1.558287756,60.7506,61.0436,61.1724,82.7828,-0.38931,-0.20144,-0.20169,304.55,281.75,33.973,1.47,1.7090757,0.9048213,0.6739296,14.5776,-0.20935,-0.02613,137.9,99.07,67.269,1.33,0.79003,4.44556,0.39348,0.36148,-0.19953,-0.08061,8.1307,97.42,66.37,40.344,1.23,20,1.5,2,12,60,12.58,48
0.36105,150.0101451,30.34734606,173.7051759,148.2586726,14.95109028,13.46193572,87.94007155,112.1352719,87.01424568,102.8180639,111.2594401,114.7151128,112.5092104,121.4397869,119.0188016,124.2958595,112.6281004,113.0014266,92.68580723,1.847613473,2.458766637,2.075301771,1.344193193,1.255398243,1.134127904,1.555085807,1.096993925,1.522880718,1.540239836,-0.21126,-0.08003,12.9311,0.59636,-0.41711,-0.26911,-0.07862,-0.61058,0.68953,-0.73185,-0.72749,0.84925,-0.1564,-0.44196,0.21966,-0.70094,0.27169,-0.44831,0.25441,-0.25565,-0.77626,-528.0664,192.958,127.8246,127.0629,120.8219,21.6848,-27.305,126.4688,14.9909,138.1965,163.5928,34.2313,-43.1594,29.2785,154.4765,27.9961,157.8154,168.5539,4.17,1.92,3.19,2.97,1.5,2.03,1608.76,730.0633,1697.23,897.0741,2610.94,374.3588,3.38,1.82,3.12,2.71,1.03,1.9,4.05,1.5,3.14,33.1,12.4,47.8,42.5,29.7,385.24,351.09,42.321,1.6,-0.25204,-0.10901,0,6.15532,0.60903,123.19,54.715,1.35,0.7371,4.5744,-0.25596,-0.05724,1.15225,1.406019492,1.406253972,1.558287756,60.7506,61.0436,61.1724,82.7828,-0.38931,-0.20144,-0.20169,304.55,281.75,33.973,1.47,1.7090757,0.9048213,0.6739296,14.5776,-0.20935,-0.02613,137.9,99.07,67.269,1.33,0.79003,4.44556,0.39348,0.36148,-0.19953,-0.08061,8.1307,97.42,66.37,40.344,1.23,20,1.5,2,12,60,12.58,64
0.34165,151.5816515,25.26870117,171.9312582,148.3840216,15.73384756,17.00377412,89.1342591,121.0309453,83.67631222,102.7418993,111.8226721,115.1565147,114.3479248,121.3471631,118.7137322,124.4094867,112.5309133,114.4408594,92.66139795,1.853074488,2.417906727,2.075237529,1.345274345,1.256203067,1.132555564,1.559358149,1.097503417,1.522951816,1.540295732,-0.21032,-0.08088,13.0167,0.59455,-0.41871,-0.26483,-0.08177,-0.61023,0.68868,-0.731,-0.72722,0.85002,-0.15623,-0.43702,0.21578,-0.70082,0.27155,-0.44793,0.251,-0.25415,-0.77572,-542.7769,194.118,127.488,126.2389,118.582,20.8815,-32.9554,128.7902,14.8396,138.2876,161.8905,34.2234,-43.7786,29.3277,154.3701,28.0425,152.3797,168.2854,4.24,1.93,4.41,2.97,1.5,2.03,1605.92,692.6381,1696.57,901.5687,2624.53,414.9463,3.38,1.82,3.12,2.71,1.03,1.9,4.05,1.5,3.14,35,13.6,52.2,44.4,29.7,403.78,369.4,41.849,1.62,-0.25204,-0.10901,0,6.15532,0.60903,123.19,54.715,1.35,0.7371,4.5744,-0.25596,-0.05724,1.15225,1.406019492,1.406253972,1.558287756,60.7506,61.0436,61.1724,82.7828,-0.38931,-0.20144,-0.20169,304.55,281.75,33.973,1.47,1.7090757,0.9048213,0.6739296,14.5776,-0.20935,-0.02613,137.9,99.07,67.269,1.33,0.79003,4.44556,0.39348,0.36148,-0.19953,-0.08061,8.1307,97.42,66.37,40.344,1.23,20,1.5,2,12,60,12.58,68
0.33316,130.9333603,37.57830284,173.5839348,148.402031,15.36928356,20.64760783,88.56343563,100.8069792,105.5964669,103.9035124,111.359172,113.3051815,112.7178952,120.9482446,125.5095462,124.1407931,112.5878719,113.8886976,92.77492521,1.850555496,2.567640913,2.078521614,1.346442681,1.25539546,1.133173785,1.569891711,1.095310285,2.161214286,1.540310555,-0.21238,-0.08016,12.8451,0.59545,-0.42226,-0.2662,-0.07403,-0.60886,0.68882,-0.72602,-0.72978,0.84957,-0.15564,-0.4405,0.21661,-0.70115,0.27083,-0.44794,0.25683,-0.05432,0.25622,-535.5508,193.0642,126.2794,122.4319,122.7208,18.7337,-33.6713,129.2109,14.9816,138.1242,163.7253,34.119,-43.1879,29.2258,154.511,28.2337,152.1105,29.6737,4.13,2.41,3.19,2.97,1.5,2.03,1605.79,693.1601,1696.31,901.9318,2625.8,376.592,3.38,1.82,3.12,2.71,1.03,1.9,4.05,1.5,3.14,34.8,16.8,48.8,44.4,29.2,398.6,368.42,42.742,1.6,-0.25204,-0.10901,0,6.15532,0.60903,123.19,54.715,1.35,0.7371,4.5744,-0.25596,-0.05724,1.15225,1.406019492,1.406253972,1.558287756,60.7506,61.0436,61.1724,82.7828,-0.38931,-0.20144,-0.20169,304.55,281.75,33.973,1.47,1.7090757,0.9048213,0.6739296,14.5776,-0.20935,-0.02613,137.9,99.07,67.269,1.33,0.79003,4.44556,0.39348,0.36148,-0.19953,-0.08061,8.1307,97.42,66.37,40.344,1.23,20,1.5,2,12,60,12.58,74
0.29159,158.4936622,30.59264674,175.0987278,149.3529597,18.29438954,5.716698327,87.17198087,110.1627171,80.11097021,102.6876231,109.3049467,115.1155217,114.1157401,121.1402955,119.2212142,122.9315072,112.2210025,113.3629492,95.93875655,1.968910266,2.554361365,2.08397902,1.341181118,1.256637354,1.125742043,1.546058573,1.096979065,1.520609895,1.540080783,-0.21089,-0.08754,13.1969,0.61941,-0.4198,-0.26388,-0.07651,-0.61414,0.68747,-0.73294,-0.7373,0.84891,-0.15775,-0.44341,0.21707,-0.70161,0.26689,-0.44634,0.25641,-0.47066,-0.77543,-599.6374,190.8532,123.5151,130.2331,125.4145,21.1397,-11.1295,137.8379,15.1703,138.1108,161.9132,33.3081,-45.8618,29.0978,154.1638,27.8159,153.788,168.748,5.14,1.57,4.23,2.97,1.5,2.03,1604.89,743.2821,1694.66,874.7617,2708.04,469.7015,3.38,1.82,3.12,2.71,1.03,1.9,4.05,1.5,3.14,34.9,8.5,54.3,45.9,30.8,406.04,370.06,42.48,1.63,-0.25204,-0.10901,0,6.15532,0.60903,123.19,54.715,1.35,0.7371,4.5744,-0.25596,-0.05724,1.15225,1.406019492,1.406253972,1.558287756,60.7506,61.0436,61.1724,82.7828,-0.38931,-0.20144,-0.20169,304.55,281.75,33.973,1.47,1.7090757,0.9048213,0.6739296,14.5776,-0.20935,-0.02613,137.9,99.07,67.269,1.33,0.79003,4.44556,0.39348,0.36148,-0.19953,-0.08061,8.1307,97.42,66.37,40.344,1.23,20,1.5,2,12,60,12.58,62
0.16443,159.6411752,29.21623042,174.9017196,148.0203495,14.93803093,7.855107923,86.57466714,114.8444108,77.61981057,101.5772665,110.7135749,114.652013,113.6515172,121.417182,118.549185,123.8300582,112.689279,112.8724097,94.08544571,1.847742089,2.46591792,2.07554035,1.342363689,1.255685852,1.135018499,1.560527483,1.096666987,1.521895015,1.539984838,-0.20978,-0.08011,13.1895,0.60033,-0.41763,-0.26447,-0.06969,-0.61218,0.69033,-0.73564,-0.72735,0.84984,-0.156,-0.43682,0.21663,-0.70187,0.27258,-0.44583,0.25753,-0.48728,-0.77568,-537.8209,192.9989,125.1004,129.0616,120.6504,22.0487,-16.3079,127.4935,15.3905,138.5886,164.1998,35.068,-42.2758,29.6885,155.3453,27.4892,159.1501,169.0934,5.06,1.57,7,2.97,1.5,2.03,1607.74,760.3133,1696.57,883.1413,2618.65,393.2987,3.38,1.82,3.12,2.71,1.03,1.9,4.05,1.5,3.14,38.8,11.8,61.9,51.9,29.6,459.43,448.53,42.015,1.62,-0.25204,-0.10901,0,6.15532,0.60903,123.19,54.715,1.35,0.7371,4.5744,-0.25596,-0.05724,1.15225,1.406019492,1.406253972,1.558287756,60.7506,61.0436,61.1724,82.7828,-0.38931,-0.20144,-0.20169,304.55,281.75,33.973,1.47,1.7090757,0.9048213,0.6739296,14.5776,-0.20935,-0.02613,137.9,99.07,67.269,1.33,0.79003,4.44556,0.39348,0.36148,-0.19953,-0.08061,8.1307,97.42,66.37,40.344,1.23,20,1.5,2,12,60,12.58,70
0.19514,158.3414699,29.56281975,174.2512458,147.1087573,13.44644681,7.037083394,87.29969533,112.8497261,79.43464967,102.3311502,110.3404508,114.7420318,113.0719816,121.3785243,118.6376472,124.3626673,112.8907166,113.0047584,92.22429942,1.834154203,2.397875866,2.077201246,1.344032835,1.254474093,1.135238791,1.554206614,1.096386176,1.521063273,1.539402215,-0.21134,-0.07968,12.4184,0.59353,-0.4187,-0.26602,-0.06885,-0.61613,0.69516,-0.73407,-0.72776,0.85009,-0.15614,-0.43851,0.21997,-0.70102,0.27112,-0.44637,0.26042,-0.4906,-0.77646,-523.6923,192.9442,125.4343,129.6449,123.0553,21.5666,-20.6515,124.3206,14.9105,138.8493,164.4168,34.6912,-42.7654,29.5031,154.7497,27.5639,164.022,169.6145,4.99,1.55,5.93,2.97,1.5,2.03,1612.23,715.6318,1697.44,889.1538,2591.26,359.8177,3.38,1.82,3.12,2.71,1.03,1.9,4.05,1.5,3.14,38.8,11.8,61.9,51.9,29.6,423.79,406.47,41.807,1.6,-0.25204,-0.10901,0,6.15532,0.60903,123.19,54.715,1.35,0.7371,4.5744,-0.25596,-0.05724,1.15225,1.406019492,1.406253972,1.558287756,60.7506,61.0436,61.1724,82.7828,-0.38931,-0.20144,-0.20169,304.55,281.75,33.973,1.47,1.7090757,0.9048213,0.6739296,14.5776,-0.20935,-0.02613,137.9,99.07,67.269,1.33,0.79003,4.44556,0.39348,0.36148,-0.19953,-0.08061,8.1307,97.42,66.37,40.344,1.23,20,1.5,2,12,60,12.58,70
0.09303,144.077508,30.03431879,168.2897048,147.1115561,14.74708928,15.37812152,87.08656555,113.6453261,92.88979029,101.7152797,110.2856322,114.3823364,114.6271323,121.2584611,119.4116007,123.7261042,112.3478799,114.3469505,93.04616399,1.861160277,2.562769781,2.076362857,1.346322144,1.254448881,1.132978022,1.561314738,1.095505531,1.520249971,1.539485356,-0.20989,-0.08115,12.4368,0.58623,-0.42179,-0.26045,-0.06841,-0.62291,0.68971,-0.69564,-0.72172,0.84092,-0.15399,-0.43752,0.21318,-0.675,0.26714,-0.44505,0.25558,-0.48447,-0.77299,-533.1934,193.779,126.6164,129.0168,129.6674,19.7971,-50.84,125.8877,17.346,139.1941,164.2914,34.7229,-63.1209,29.2542,153.4173,28.3013,163.507,169.4923,4.76,2.21,7.72,2.97,1.5,2.03,1611.26,626.8994,1697.7,907.7622,2627.52,418.6292,3.38,1.82,3.12,2.71,1.03,1.9,4.05,1.5,3.14,38.4,10.1,58.9,54.4,30.3,565.93,571.08,42.539,1.7,-0.25204,-0.10901,0,6.15532,0.60903,123.19,54.715,1.35,0.7371,4.5744,-0.25596,-0.05724,1.15225,1.406019492,1.406253972,1.558287756,60.7506,61.0436,61.1724,82.7828,-0.38931,-0.20144,-0.20169,304.55,281.75,33.973,1.47,1.7090757,0.9048213,0.6739296,14.5776,-0.20935,-0.02613,137.9,99.07,67.269,1.33,0.79003,4.44556,0.39348,0.36148,-0.19953,-0.08061,8.1307,97.42,66.37,40.344,1.23,20,1.5,2,12,60,12.58,84
0.0853,141.4790451,32.36099619,168.7428397,145.7490306,12.52073532,14.97024103,85.42307361,110.4362626,95.04354138,101.9225288,110.5374109,113.9878653,114.5016669,121.3314446,119.3468772,123.5765304,112.723502,112.8040183,91.96180663,1.849061336,2.535600422,2.077824808,1.345521076,1.254706931,1.134085436,1.561312483,1.095417041,1.520470167,1.539426858,-0.20825,-0.07862,13.8714,0.59428,-0.42145,-0.26161,-0.06836,-0.61224,0.69562,-0.72855,-0.73514,0.85058,-0.15438,-0.44155,0.2175,-0.7016,0.27127,-0.44386,0.25666,-0.48477,-0.77336,-530.3217,193.0816,127.5898,128.7082,125.4948,19.0924,-25.9503,127.667,14.985,139.3288,165.8292,34.6996,-42.4435,29.5229,152.9158,28.3224,163.8352,169.132,5,3.35,9.41,2.97,1.5,2.03,1610.71,632.7964,1697.33,916.3461,2628.98,341.6462,3.38,1.82,3.12,2.71,1.03,1.9,4.05,1.5,3.14,42.9,15.4,66.3,60.7,29.3,696.92,705.14,42.739,1.82,-0.25204,-0.10901,0,6.15532,0.60903,123.19,54.715,1.35,0.7371,4.5744,-0.25596,-0.05724,1.15225,1.406019492,1.406253972,1.558287756,60.7506,61.0436,61.1724,82.7828,-0.38931,-0.20144,-0.20169,304.55,281.75,33.973,1.47,1.7090757,0.9048213,0.6739296,14.5776,-0.20935,-0.02613,137.9,99.07,67.269,1.33,0.79003,4.44556,0.39348,0.36148,-0.19953,-0.08061,8.1307,97.42,66.37,40.344,1.23,20,1.5,2,12,60,12.58,70
0.06333,141.1172016,33.13769473,167.7317402,145.0237038,12.00952445,13.89526671,84.98143178,109.8531795,95.34033897,101.8121851,110.6326885,113.6832613,114.3920412,121.4130147,119.5107095,123.5455794,112.5354449,112.9552468,92.49548714,1.849132641,2.582999867,2.075224581,1.344948187,1.255766459,1.134404608,1.559165575,1.095386834,1.520761444,1.539855097,-0.20804,-0.07846,13.6275,0.59833,-0.42089,-0.26113,-0.06929,-0.61387,0.69777,-0.72728,-0.73781,0.85169,-0.15366,-0.44062,0.21642,-0.70158,0.27051,-0.44321,0.25688,-0.48356,-0.77323,-528.7003,193.0278,127.3702,128.7936,123.3613,18.7056,-14.1768,126.2102,14.9594,139.5637,165.4225,34.6535,-43.5325,29.4242,153.2707,28.2346,164.0885,169.9829,6.11,4.63,9.55,2.97,1.5,2.03,1603.67,753.7366,1695.8,912.6698,2610.17,338.2315,3.38,1.82,3.12,2.71,1.03,1.9,4.05,1.5,3.14,45.5,16.9,70.4,64.9,29.8,835.25,848.55,42.065,1.93,-0.25204,-0.10901,0,6.15532,0.60903,123.19,54.715,1.35,0.7371,4.5744,-0.25596,-0.05724,1.15225,1.406019492,1.406253972,1.558287756,60.7506,61.0436,61.1724,82.7828,-0.38931,-0.20144,-0.20169,304.55,281.75,33.973,1.47,1.7090757,0.9048213,0.6739296,14.5776,-0.20935,-0.02613,137.9,99.07,67.269,1.33,0.79003,4.44556,0.39348,0.36148,-0.19953,-0.08061,8.1307,97.42,66.37,40.344,1.23,20,1.5,2,12,60,12.58,70
0.10223,144.0255259,30.11995311,168.0889871,147.1996545,14.82800972,15.08476203,87.21219506,113.5288223,92.90586503,101.7364238,110.2973737,114.3821633,114.6480311,121.2774364,119.4317963,123.7873338,112.3356949,114.3114014,92.93838149,1.860295323,2.559536118,2.076287382,1.346205705,1.254557625,1.13304401,1.561173654,1.095532306,1.52017302,1.539407652,-0.20934,-0.0804,13.3975,0.59896,-0.42009,-0.26086,-0.06898,-0.61503,0.69578,-0.72618,-0.73411,0.85048,-0.15469,-0.43514,0.21261,-0.70189,0.26912,-0.44539,0.25718,-0.48445,-0.77425,-542.8208,193.0481,126.5825,128.7707,126.6385,18.5933,-27.6157,128.1831,15.15,138.6321,163.9272,34.8406,-42.9522,29.1773,153.4627,28.303,163.5445,169.4531,4.77,2.2,7.15,2.97,1.5,2.03,1610.88,632.7654,1697.35,910.3935,2625.98,415.5527,3.38,1.82,3.12,2.71,1.03,1.9,4.05,1.5,3.14,42.1,14.9,66.6,57.1,29.8,554.86,561.94,42.569,1.68,-0.25204,-0.10901,0,6.15532,0.60903,123.19,54.715,1.35,0.7371,1.17623,-0.2523,-0.06364,6.2859,1.408052087,1.405666472,1.561275378,60.4623,61.1774,60.8837,83.0453,-0.3869,-0.20304,-0.20237,293,272.74,28.237,1.44,1.78781,0.89525,0.69034,14.8576,-0.19038,-0.02356,137.9,99.07,67.269,1.33,0.79003,4.44556,0.39348,0.36148,-0.19953,-0.08061,8.1307,97.42,66.37,40.344,1.23,20,1.5,2,12,60,12.58,86
0.10223,144.0255259,30.11995311,168.0889871,147.1996545,14.82800972,15.08476203,87.21219506,113.5288223,92.90586503,101.7364238,110.2973737,114.3821633,114.6480311,121.2774364,119.4317963,123.7873338,112.3356949,114.3114014,92.93838149,1.860295323,2.559536118,2.076287382,1.346205705,1.254557625,1.13304401,1.561173654,1.095532306,1.52017302,1.539407652,-0.20934,-0.0804,13.3975,0.59896,-0.42009,-0.26086,-0.06898,-0.61503,0.69578,-0.72618,-0.73411,0.85048,-0.15469,-0.43514,0.21261,-0.70189,0.26912,-0.44539,0.25718,-0.48445,-0.77425,-542.8208,193.0481,126.5825,128.7707,126.6385,18.5933,-27.6157,128.1831,15.15,138.6321,163.9272,34.8406,-42.9522,29.1773,153.4627,28.303,163.5445,169.4531,4.77,2.2,7.15,2.97,1.5,2.03,1610.88,632.7654,1697.35,910.3935,2625.98,415.5527,3.38,1.82,3.12,2.71,1.03,1.9,4.05,1.5,3.14,42.1,14.9,66.6,57.1,29.8,554.86,561.94,42.569,1.68,-0.25204,-0.10901,0,6.15532,0.60903,123.19,54.715,1.35,0.7371,1.20345,-0.26699,-0.09688,9.0628,1.406896583,1.406817626,1.564677766,56.5581,59.8167,59.86,83.3781,-0.3665,-0.19447,-0.19458,277.7,255.34,52.734,1.43,1.78781,0.89525,0.69034,14.8576,-0.19038,-0.02356,137.9,99.07,67.269,1.33,0.79003,4.44556,0.39348,0.36148,-0.19953,-0.08061,8.1307,97.42,66.37,40.344,1.23,20,1.5,2,12,60,12.58,88
0.10223,144.0255259,30.11995311,168.0889871,147.1996545,14.82800972,15.08476203,87.21219506,113.5288223,92.90586503,101.7364238,110.2973737,114.3821633,114.6480311,121.2774364,119.4317963,123.7873338,112.3356949,114.3114014,92.93838149,1.860295323,2.559536118,2.076287382,1.346205705,1.254557625,1.13304401,1.561173654,1.095532306,1.52017302,1.539407652,-0.20934,-0.0804,13.3975,0.59896,-0.42009,-0.26086,-0.06898,-0.61503,0.69578,-0.72618,-0.73411,0.85048,-0.15469,-0.43514,0.21261,-0.70189,0.26912,-0.44539,0.25718,-0.48445,-0.77425,-542.8208,193.0481,126.5825,128.7707,126.6385,18.5933,-27.6157,128.1831,15.15,138.6321,163.9272,34.8406,-42.9522,29.1773,153.4627,28.303,163.5445,169.4531,4.77,2.2,7.15,2.97,1.5,2.03,1610.88,632.7654,1697.35,910.3935,2625.98,415.5527,3.38,1.82,3.12,2.71,1.03,1.9,4.05,1.5,3.14,42.1,14.9,66.6,57.1,29.8,554.86,561.94,42.569,1.68,-0.25204,-0.10901,0,6.15532,0.60903,123.19,54.715,1.35,0.7371,1.32345,-0.25957,-0.05959,8.7546,1.4065951,1.406529642,1.562906667,60.4491,60.9739,61.0696,83.2528,-0.37996,-0.19781,-0.19793,272.95,253.35,29.18,1.41,1.78781,0.89525,0.69034,14.8576,-0.19038,-0.02356,137.9,99.07,67.269,1.33,0.79003,4.44556,0.39348,0.36148,-0.19953,-0.08061,8.1307,97.42,66.37,40.344,1.23,20,1.5,2,12,60,12.58,90
0.10223,144.0255259,30.11995311,168.0889871,147.1996545,14.82800972,15.08476203,87.21219506,113.5288223,92.90586503,101.7364238,110.2973737,114.3821633,114.6480311,121.2774364,119.4317963,123.7873338,112.3356949,114.3114014,92.93838149,1.860295323,2.559536118,2.076287382,1.346205705,1.254557625,1.13304401,1.561173654,1.095532306,1.52017302,1.539407652,-0.20934,-0.0804,13.3975,0.59896,-0.42009,-0.26086,-0.06898,-0.61503,0.69578,-0.72618,-0.73411,0.85048,-0.15469,-0.43514,0.21261,-0.70189,0.26912,-0.44539,0.25718,-0.48445,-0.77425,-542.8208,193.0481,126.5825,128.7707,126.6385,18.5933,-27.6157,128.1831,15.15,138.6321,163.9272,34.8406,-42.9522,29.1773,153.4627,28.303,163.5445,169.4531,4.77,2.2,7.15,2.97,1.5,2.03,1610.88,632.7654,1697.35,910.3935,2625.98,415.5527,3.38,1.82,3.12,2.71,1.03,1.9,4.05,1.5,3.14,42.1,14.9,66.6,57.1,29.8,554.86,561.94,42.569,1.68,-0.25204,-0.10901,0,6.15532,0.60903,123.19,54.715,1.35,0.7371,1.32502,-0.24308,-0.02129,4.2126,1.407448993,1.407370297,1.556045331,70.7485,58.6718,58.7401,83.1046,-0.43517,-0.18508,-0.18519,257.75,238.38,13.806,1.39,1.78781,0.89525,0.69034,14.8576,-0.19038,-0.02356,137.9,99.07,67.269,1.33,0.79003,4.44556,0.39348,0.36148,-0.19953,-0.08061,8.1307,97.42,66.37,40.344,1.23,20,1.5,2,12,60,12.58,90
0.10223,144.0255259,30.11995311,168.0889871,147.1996545,14.82800972,15.08476203,87.21219506,113.5288223,92.90586503,101.7364238,110.2973737,114.3821633,114.6480311,121.2774364,119.4317963,123.7873338,112.3356949,114.3114014,92.93838149,1.860295323,2.559536118,2.076287382,1.346205705,1.254557625,1.13304401,1.561173654,1.095532306,1.52017302,1.539407652,-0.20934,-0.0804,13.3975,0.59896,-0.42009,-0.26086,-0.06898,-0.61503,0.69578,-0.72618,-0.73411,0.85048,-0.15469,-0.43514,0.21261,-0.70189,0.26912,-0.44539,0.25718,-0.48445,-0.77425,-542.8208,193.0481,126.5825,128.7707,126.6385,18.5933,-27.6157,128.1831,15.15,138.6321,163.9272,34.8406,-42.9522,29.1773,153.4627,28.303,163.5445,169.4531,4.77,2.2,7.15,2.97,1.5,2.03,1610.88,632.7654,1697.35,910.3935,2625.98,415.5527,3.38,1.82,3.12,2.71,1.03,1.9,4.05,1.5,3.14,42.1,14.9,66.6,57.1,29.8,554.86,561.94,42.569,1.68,-0.25204,-0.10901,0,6.15532,0.60903,123.19,54.715,1.35,0.7371,1.32509,-0.24572,-0.03133,5.1556,1.40587876,1.405818799,1.558430323,67.6004,59.6374,59.7384,83.1257,-0.41629,-0.18545,-0.18558,267.8,247.51,13.804,1.4,1.78781,0.89525,0.69034,14.8576,-0.19038,-0.02356,137.9,99.07,67.269,1.33,0.79003,4.44556,0.39348,0.36148,-0.19953,-0.08061,8.1307,97.42,66.37,40.344,1.23,20,1.5,2,12,60,12.58,84
0.10223,144.0255259,30.11995311,168.0889871,147.1996545,14.82800972,15.08476203,87.21219506,113.5288223,92.90586503,101.7364238,110.2973737,114.3821633,114.6480311,121.2774364,119.4317963,123.7873338,112.3356949,114.3114014,92.93838149,1.860295323,2.559536118,2.076287382,1.346205705,1.254557625,1.13304401,1.561173654,1.095532306,1.52017302,1.539407652,-0.20934,-0.0804,13.3975,0.59896,-0.42009,-0.26086,-0.06898,-0.61503,0.69578,-0.72618,-0.73411,0.85048,-0.15469,-0.43514,0.21261,-0.70189,0.26912,-0.44539,0.25718,-0.48445,-0.77425,-542.8208,193.0481,126.5825,128.7707,126.6385,18.5933,-27.6157,128.1831,15.15,138.6321,163.9272,34.8406,-42.9522,29.1773,153.4627,28.303,163.5445,169.4531,4.77,2.2,7.15,2.97,1.5,2.03,1610.88,632.7654,1697.35,910.3935,2625.98,415.5527,3.38,1.82,3.12,2.71,1.03,1.9,4.05,1.5,3.14,42.1,14.9,66.6,57.1,29.8,554.86,561.94,42.569,1.68,-0.25204,-0.10901,0,6.15532,0.60903,123.19,54.715,1.35,0.7371,1.07723,-0.22381,-0.0395,2.3055,1.406537722,1.406595596,1.556420234,67.8851,60.6869,60.6758,82.8154,-0.42077,-0.19601,-0.19594,331.96,317.42,13.794,1.48,1.78781,0.89525,0.69034,14.8576,-0.19038,-0.02356,137.9,99.07,67.269,1.33,0.79003,4.44556,0.39348,0.36148,-0.19953,-0.08061,8.1307,97.42,66.37,40.344,1.23,20,1.5,2,12,60,12.58,90
0.10223,144.0255259,30.11995311,168.0889871,147.1996545,14.82800972,15.08476203,87.21219506,113.5288223,92.90586503,101.7364238,110.2973737,114.3821633,114.6480311,121.2774364,119.4317963,123.7873338,112.3356949,114.3114014,92.93838149,1.860295323,2.559536118,2.076287382,1.346205705,1.254557625,1.13304401,1.561173654,1.095532306,1.52017302,1.539407652,-0.20934,-0.0804,13.3975,0.59896,-0.42009,-0.26086,-0.06898,-0.61503,0.69578,-0.72618,-0.73411,0.85048,-0.15469,-0.43514,0.21261,-0.70189,0.26912,-0.44539,0.25718,-0.48445,-0.77425,-542.8208,193.0481,126.5825,128.7707,126.6385,18.5933,-27.6157,128.1831,15.15,138.6321,163.9272,34.8406,-42.9522,29.1773,153.4627,28.303,163.5445,169.4531,4.77,2.2,7.15,2.97,1.5,2.03,1610.88,632.7654,1697.35,910.3935,2625.98,415.5527,3.38,1.82,3.12,2.71,1.03,1.9,4.05,1.5,3.14,42.1,14.9,66.6,57.1,29.8,554.86,561.94,42.569,1.68,-0.25204,-0.10901,0,6.15532,0.60903,123.19,54.715,1.35,0.7371,1.31849,-0.23704,-0.02056,1.8201,1.405534046,1.408159601,1.555030694,70.0686,61.2532,61.64,82.8012,-0.43301,-0.19543,-0.19684,271.99,252.06,13.819,1.41,1.78781,0.89525,0.69034,14.8576,-0.19038,-0.02356,137.9,99.07,67.269,1.33,0.79003,4.44556,0.39348,0.36148,-0.19953,-0.08061,8.1307,97.42,66.37,40.344,1.23,20,1.5,2,12,60,12.58,84
0.10223,144.0255259,30.11995311,168.0889871,147.1996545,14.82800972,15.08476203,87.21219506,113.5288223,92.90586503,101.7364238,110.2973737,114.3821633,114.6480311,121.2774364,119.4317963,123.7873338,112.3356949,114.3114014,92.93838149,1.860295323,2.559536118,2.076287382,1.346205705,1.254557625,1.13304401,1.561173654,1.095532306,1.52017302,1.539407652,-0.20934,-0.0804,13.3975,0.59896,-0.42009,-0.26086,-0.06898,-0.61503,0.69578,-0.72618,-0.73411,0.85048,-0.15469,-0.43514,0.21261,-0.70189,0.26912,-0.44539,0.25718,-0.48445,-0.77425,-542.8208,193.0481,126.5825,128.7707,126.6385,18.5933,-27.6157,128.1831,15.15,138.6321,163.9272,34.8406,-42.9522,29.1773,153.4627,28.303,163.5445,169.4531,4.77,2.2,7.15,2.97,1.5,2.03,1610.88,632.7654,1697.35,910.3935,2625.98,415.5527,3.38,1.82,3.12,2.71,1.03,1.9,4.05,1.5,3.14,42.1,14.9,66.6,57.1,29.8,554.86,561.94,42.569,1.68,-0.25204,-0.10901,0,6.15532,0.60903,123.19,54.715,1.35,0.7371,1.03166,-0.2446,-0.02649,5.0777,1.404714641,1.406945678,1.557085959,69.6445,59.0915,59.0386,83.201,-0.42661,-0.17944,-0.18384,297.4,274.58,20.337,1.46,1.78781,0.89525,0.69034,14.8576,-0.19038,-0.02356,137.9,99.07,67.269,1.33,0.79003,4.44556,0.39348,0.36148,-0.19953,-0.08061,8.1307,97.42,66.37,40.344,1.23,20,1.5,2,12,60,12.58,86
0.10223,144.0255259,30.11995311,168.0889871,147.1996545,14.82800972,15.08476203,87.21219506,113.5288223,92.90586503,101.7364238,110.2973737,114.3821633,114.6480311,121.2774364,119.4317963,123.7873338,112.3356949,114.3114014,92.93838149,1.860295323,2.559536118,2.076287382,1.346205705,1.254557625,1.13304401,1.561173654,1.095532306,1.52017302,1.539407652,-0.20934,-0.0804,13.3975,0.59896,-0.42009,-0.26086,-0.06898,-0.61503,0.69578,-0.72618,-0.73411,0.85048,-0.15469,-0.43514,0.21261,-0.70189,0.26912,-0.44539,0.25718,-0.48445,-0.77425,-542.8208,193.0481,126.5825,128.7707,126.6385,18.5933,-27.6157,128.1831,15.15,138.6321,163.9272,34.8406,-42.9522,29.1773,153.4627,28.303,163.5445,169.4531,4.77,2.2,7.15,2.97,1.5,2.03,1610.88,632.7654,1697.35,910.3935,2625.98,415.5527,3.38,1.82,3.12,2.71,1.03,1.9,4.05,1.5,3.14,42.1,14.9,66.6,57.1,29.8,554.86,561.94,42.569,1.68,-0.25204,-0.10901,0,6.15532,0.60903,123.19,54.715,1.35,0.7371,0.84771,-0.25591,-0.04726,2.5994,1.407132675,1.402199461,1.559603023,65.7499,56.2218,58.626,83.0304,-0.41413,-0.17479,-0.15132,305,281.97,33.844,1.47,1.78781,0.89525,0.69034,14.8576,-0.19038,-0.02356,137.9,99.07,67.269,1.33,0.79003,4.44556,0.39348,0.36148,-0.19953,-0.08061,8.1307,97.42,66.37,40.344,1.23,20,1.5,2,12,60,12.58,78
0.10223,144.0255259,30.11995311,168.0889871,147.1996545,14.82800972,15.08476203,87.21219506,113.5288223,92.90586503,101.7364238,110.2973737,114.3821633,114.6480311,121.2774364,119.4317963,123.7873338,112.3356949,114.3114014,92.93838149,1.860295323,2.559536118,2.076287382,1.346205705,1.254557625,1.13304401,1.561173654,1.095532306,1.52017302,1.539407652,-0.20934,-0.0804,13.3975,0.59896,-0.42009,-0.26086,-0.06898,-0.61503,0.69578,-0.72618,-0.73411,0.85048,-0.15469,-0.43514,0.21261,-0.70189,0.26912,-0.44539,0.25718,-0.48445,-0.77425,-542.8208,193.0481,126.5825,128.7707,126.6385,18.5933,-27.6157,128.1831,15.15,138.6321,163.9272,34.8406,-42.9522,29.1773,153.4627,28.303,163.5445,169.4531,4.77,2.2,7.15,2.97,1.5,2.03,1610.88,632.7654,1697.35,910.3935,2625.98,415.5527,3.38,1.82,3.12,2.71,1.03,1.9,4.05,1.5,3.14,42.1,14.9,66.6,57.1,29.8,554.86,561.94,42.569,1.68,-0.25204,-0.10901,0,6.15532,0.60903,123.19,54.715,1.35,0.7371,0.56356,-0.25373,-0.04696,0.3533,1.41092218,1.402597887,1.57686184,57.4096,62.9614,64.4207,81.2898,-0.33619,-0.15015,-0.22216,300.39,280.86,30.886,1.45,1.78781,0.89525,0.69034,14.8576,-0.19038,-0.02356,137.9,99.07,67.269,1.33,0.79003,4.44556,0.39348,0.36148,-0.19953,-0.08061,8.1307,97.42,66.37,40.344,1.23,20,1.5,2,12,60,12.58,84
0.10223,144.0255259,30.11995311,168.0889871,147.1996545,14.82800972,15.08476203,87.21219506,113.5288223,92.90586503,101.7364238,110.2973737,114.3821633,114.6480311,121.2774364,119.4317963,123.7873338,112.3356949,114.3114014,92.93838149,1.860295323,2.559536118,2.076287382,1.346205705,1.254557625,1.13304401,1.561173654,1.095532306,1.52017302,1.539407652,-0.20934,-0.0804,13.3975,0.59896,-0.42009,-0.26086,-0.06898,-0.61503,0.69578,-0.72618,-0.73411,0.85048,-0.15469,-0.43514,0.21261,-0.70189,0.26912,-0.44539,0.25718,-0.48445,-0.77425,-542.8208,193.0481,126.5825,128.7707,126.6385,18.5933,-27.6157,128.1831,15.15,138.6321,163.9272,34.8406,-42.9522,29.1773,153.4627,28.303,163.5445,169.4531,4.77,2.2,7.15,2.97,1.5,2.03,1610.88,632.7654,1697.35,910.3935,2625.98,415.5527,3.38,1.82,3.12,2.71,1.03,1.9,4.05,1.5,3.14,42.1,14.9,66.6,57.1,29.8,554.86,561.94,42.569,1.68,-0.25204,-0.10901,0,6.15532,0.60903,123.19,54.715,1.35,0.7371,0.75567,-0.21404,-0.04548,2.6455,1.440980545,1.390205339,1.564201613,68.3451,58.8799,58.9056,81.9754,-0.39544,-0.02921,-0.19292,295.5,284.75,12.151,1.41,1.78781,0.89525,0.69034,14.8576,-0.19038,-0.02356,137.9,99.07,67.269,1.33,0.79003,4.44556,0.39348,0.36148,-0.19953,-0.08061,8.1307,97.42,66.37,40.344,1.23,20,1.5,2,12,60,12.58,84
0.10223,144.0255259,30.11995311,168.0889871,147.1996545,14.82800972,15.08476203,87.21219506,113.5288223,92.90586503,101.7364238,110.2973737,114.3821633,114.6480311,121.2774364,119.4317963,123.7873338,112.3356949,114.3114014,92.93838149,1.860295323,2.559536118,2.076287382,1.346205705,1.254557625,1.13304401,1.561173654,1.095532306,1.52017302,1.539407652,-0.20934,-0.0804,13.3975,0.59896,-0.42009,-0.26086,-0.06898,-0.61503,0.69578,-0.72618,-0.73411,0.85048,-0.15469,-0.43514,0.21261,-0.70189,0.26912,-0.44539,0.25718,-0.48445,-0.77425,-542.8208,193.0481,126.5825,128.7707,126.6385,18.5933,-27.6157,128.1831,15.15,138.6321,163.9272,34.8406,-42.9522,29.1773,153.4627,28.303,163.5445,169.4531,4.77,2.2,7.15,2.97,1.5,2.03,1610.88,632.7654,1697.35,910.3935,2625.98,415.5527,3.38,1.82,3.12,2.71,1.03,1.9,4.05,1.5,3.14,42.1,14.9,66.6,57.1,29.8,554.86,561.94,42.569,1.68,-0.25204,-0.10901,0,6.15532,0.60903,123.19,54.715,1.35,0.7371,1.02748,-0.21445,-0.04343,2.4114,1.386889362,1.427913558,1.557172096,68.7059,58.7441,65.1921,82.5604,-0.41878,-0.16537,-0.20906,299.01,285.19,13.799,1.43,1.78781,0.89525,0.69034,14.8576,-0.19038,-0.02356,137.9,99.07,67.269,1.33,0.79003,4.44556,0.39348,0.36148,-0.19953,-0.08061,8.1307,97.42,66.37,40.344,1.23,20,1.5,2,12,60,12.58,84
0.10223,144.0255259,30.11995311,168.0889871,147.1996545,14.82800972,15.08476203,87.21219506,113.5288223,92.90586503,101.7364238,110.2973737,114.3821633,114.6480311,121.2774364,119.4317963,123.7873338,112.3356949,114.3114014,92.93838149,1.860295323,2.559536118,2.076287382,1.346205705,1.254557625,1.13304401,1.561173654,1.095532306,1.52017302,1.539407652,-0.20934,-0.0804,13.3975,0.59896,-0.42009,-0.26086,-0.06898,-0.61503,0.69578,-0.72618,-0.73411,0.85048,-0.15469,-0.43514,0.21261,-0.70189,0.26912,-0.44539,0.25718,-0.48445,-0.77425,-542.8208,193.0481,126.5825,128.7707,126.6385,18.5933,-27.6157,128.1831,15.15,138.6321,163.9272,34.8406,-42.9522,29.1773,153.4627,28.303,163.5445,169.4531,4.77,2.2,7.15,2.97,1.5,2.03,1610.88,632.7654,1697.35,910.3935,2625.98,415.5527,3.38,1.82,3.12,2.71,1.03,1.9,4.05,1.5,3.14,42.1,14.9,66.6,57.1,29.8,554.86,561.94,42.569,1.68,-0.25204,-0.10901,0,6.15532,0.60903,123.19,54.715,1.35,0.7371,0.29844,-0.26358,-0.0566,4.5671,1.403724417,1.401945378,1.561459042,64.9089,55.1229,54.0621,83.161,-0.40782,-0.13236,-0.12691,358.06,330.22,53.904,1.55,1.78781,0.89525,0.69034,14.8576,-0.19038,-0.02356,137.9,99.07,67.269,1.33,0.79003,4.44556,0.39348,0.36148,-0.19953,-0.08061,8.1307,97.42,66.37,40.344,1.23,20,1.5,2,12,60,12.58,84
0.10223,144.0255259,30.11995311,168.0889871,147.1996545,14.82800972,15.08476203,87.21219506,113.5288223,92.90586503,101.7364238,110.2973737,114.3821633,114.6480311,121.2774364,119.4317963,123.7873338,112.3356949,114.3114014,92.93838149,1.860295323,2.559536118,2.076287382,1.346205705,1.254557625,1.13304401,1.561173654,1.095532306,1.52017302,1.539407652,-0.20934,-0.0804,13.3975,0.59896,-0.42009,-0.26086,-0.06898,-0.61503,0.69578,-0.72618,-0.73411,0.85048,-0.15469,-0.43514,0.21261,-0.70189,0.26912,-0.44539,0.25718,-0.48445,-0.77425,-542.8208,193.0481,126.5825,128.7707,126.6385,18.5933,-27.6157,128.1831,15.15,138.6321,163.9272,34.8406,-42.9522,29.1773,153.4627,28.303,163.5445,169.4531,4.77,2.2,7.15,2.97,1.5,2.03,1610.88,632.7654,1697.35,910.3935,2625.98,415.5527,3.38,1.82,3.12,2.71,1.03,1.9,4.05,1.5,3.14,42.1,14.9,66.6,57.1,29.8,554.86,561.94,42.569,1.68,-0.25204,-0.10901,0,6.15532,0.60903,123.19,54.715,1.35,0.7371,0.25756,-0.21452,-0.02379,4.2309,1.405193757,1.406955712,1.569841782,75.2024,58.8828,67.1354,82.8122,-0.40782,0.18675,-0.22186,386.58,369.57,28,1.55,1.78781,0.89525,0.69034,14.8576,-0.19038,-0.02356,137.9,99.07,67.269,1.33,0.79003,4.44556,0.39348,0.36148,-0.19953,-0.08061,8.1307,97.42,66.37,40.344,1.23,20,1.5,2,12,60,12.58,82
0.26271,148.4489033,34.39977267,172.6750702,143.5451868,14.49173851,8.965591998,95.66278698,105.6779011,89.63019781,102.5260328,109.8376037,113.6091171,113.2299344,121.8166368,118.9551055,125.1622925,117.5078199,98.09189206,92.31543903,1.976234264,2.411543117,2.079591692,1.341133927,1.256536567,1.110922351,1.55891302,1.095018245,1.522868036,1.086485424,-0.2129,-0.07666,12.1919,0.60232,-0.41835,-0.26572,-0.0719,-0.60507,0.69139,-0.74874,-0.72097,0.8376,-0.35999,-0.5323,0.27186,-0.70714,0.2816,0.29258,0.26156,-0.48285,-0.77779,-545.5873,193.6197,126.454,130.6457,123.7355,22.2422,-15.2893,135.2172,20.1585,170.2262,214.0925,31.4401,-45.0505,32.5826,30.1026,27.6702,153.7865,168.2746,4.83,1.56,6.01,2.97,1.5,2.03,1606.25,878.5407,1701.05,1012.5983,2889.39,28.4015,4.06,1.85,3.12,2.71,1.03,1.9,2,1,1,39.4,14.6,61.8,53.4,27.9,366.94,345.66,41.45,1.54,-0.25089,-0.10865,0,6.15737,0.60887,123.19,54.714,1.35,0.74907,5.49795,-0.23066,-0.03108,2.9017,1.39245,1.394990094,2.163257702,61.5662,61.5965,61.6134,46.1174,-0.20895,-0.25249,-0.25274,162.71,143.04,0,1.23,6.0219779,1.9126339,1.4522648,10.1662,-0.20732,-0.02413,91.37,62.39,40.332,1.2,0.79875,4.46774,0.38892,0.35777,-0.203,-0.07991,8.3156,97.67,66.44,40.427,1.23,20,1.5,1,16,80,16.777,92
0.26271,148.4489033,34.39977267,172.6750702,143.5451868,14.49173851,8.965591998,95.66278698,105.6779011,89.63019781,102.5260328,109.8376037,113.6091171,113.2299344,121.8166368,118.9551055,125.1622925,117.5078199,98.09189206,92.31543903,1.976234264,2.411543117,2.079591692,1.341133927,1.256536567,1.110922351,1.55891302,1.095018245,1.522868036,1.086485424,-0.2129,-0.07666,12.1919,0.60232,-0.41835,-0.26572,-0.0719,-0.60507,0.69139,-0.74874,-0.72097,0.8376,-0.35999,-0.5323,0.27186,-0.70714,0.2816,0.29258,0.26156,-0.48285,-0.77779,-545.5873,193.6197,126.454,130.6457,123.7355,22.2422,-15.2893,135.2172,20.1585,170.2262,214.0925,31.4401,-45.0505,32.5826,30.1026,27.6702,153.7865,168.2746,4.83,1.56,6.01,2.97,1.5,2.03,1606.25,878.5407,1701.05,1012.5983,2889.39,28.4015,4.06,1.85,3.12,2.71,1.03,1.9,2,1,1,39.4,14.6,61.8,53.4,27.9,366.94,345.66,41.45,1.54,-0.25089,-0.10865,0,6.15737,0.60887,123.19,54.714,1.35,0.74907,3.66168,-0.24342,-0.06091,3.4201,1.394731054,1.39693145,2.154295832,49.0911,60.7338,60.6592,45.1269,-0.18522,-0.25391,-0.25388,183.54,163.61,14.449,1.27,6.0219779,1.9126339,1.4522648,10.1662,-0.20732,-0.02413,91.37,62.39,40.332,1.2,0.79875,4.46774,0.38892,0.35777,-0.203,-0.07991,8.3156,97.67,66.44,40.427,1.23,20,1.5,1.5,16,80,16.777,92
0.26271,148.4489033,34.39977267,172.6750702,143.5451868,14.49173851,8.965591998,95.66278698,105.6779011,89.63019781,102.5260328,109.8376037,113.6091171,113.2299344,121.8166368,118.9551055,125.1622925,117.5078199,98.09189206,92.31543903,1.976234264,2.411543117,2.079591692,1.341133927,1.256536567,1.110922351,1.55891302,1.095018245,1.522868036,1.086485424,-0.2129,-0.07666,12.1919,0.60232,-0.41835,-0.26572,-0.0719,-0.60507,0.69139,-0.74874,-0.72097,0.8376,-0.35999,-0.5323,0.27186,-0.70714,0.2816,0.29258,0.26156,-0.48285,-0.77779,-545.5873,193.6197,126.454,130.6457,123.7355,22.2422,-15.2893,135.2172,20.1585,170.2262,214.0925,31.4401,-45.0505,32.5826,30.1026,27.6702,153.7865,168.2746,4.83,1.56,6.01,2.97,1.5,2.03,1606.25,878.5407,1701.05,1012.5983,2889.39,28.4015,4.06,1.85,3.12,2.71,1.03,1.9,2,1,1,39.4,14.6,61.8,53.4,27.9,366.94,345.66,41.45,1.54,-0.25089,-0.10865,0,6.15737,0.60887,123.19,54.714,1.35,0.74907,3.94789,-0.25201,-0.09777,4.5296,1.397650615,1.3974669,2.146405929,44.0472,59.5447,59.5103,44.3476,-0.18279,-0.24251,-0.24259,168.19,146.17,38.954,1.25,6.0219779,1.9126339,1.4522648,10.1662,-0.20732,-0.02413,91.37,62.39,40.332,1.2,0.79875,4.46774,0.38892,0.35777,-0.203,-0.07991,8.3156,97.67,66.44,40.427,1.23,20,1.5,1.5,16,80,16.777,80
0.26271,148.4489033,34.39977267,172.6750702,143.5451868,14.49173851,8.965591998,95.66278698,105.6779011,89.63019781,102.5260328,109.8376037,113.6091171,113.2299344,121.8166368,118.9551055,125.1622925,117.5078199,98.09189206,92.31543903,1.976234264,2.411543117,2.079591692,1.341133927,1.256536567,1.110922351,1.55891302,1.095018245,1.522868036,1.086485424,-0.2129,-0.07666,12.1919,0.60232,-0.41835,-0.26572,-0.0719,-0.60507,0.69139,-0.74874,-0.72097,0.8376,-0.35999,-0.5323,0.27186,-0.70714,0.2816,0.29258,0.26156,-0.48285,-0.77779,-545.5873,193.6197,126.454,130.6457,123.7355,22.2422,-15.2893,135.2172,20.1585,170.2262,214.0925,31.4401,-45.0505,32.5826,30.1026,27.6702,153.7865,168.2746,4.83,1.56,6.01,2.97,1.5,2.03,1606.25,878.5407,1701.05,1012.5983,2889.39,28.4015,4.06,1.85,3.12,2.71,1.03,1.9,2,1,1,39.4,14.6,61.8,53.4,27.9,366.94,345.66,41.45,1.54,-0.25089,-0.10865,0,6.15737,0.60887,123.19,54.714,1.35,0.74907,2.81554,-0.24569,-0.03552,1.2254,1.393901342,1.396290412,2.155271672,52.468,60.9125,60.302,45.1162,-0.19369,-0.24536,-0.24507,178.39,156.78,0,1.27,6.0219779,1.9126339,1.4522648,10.1662,-0.20732,-0.02413,91.37,62.39,40.332,1.2,0.79875,4.46774,0.38892,0.35777,-0.203,-0.07991,8.3156,97.67,66.44,40.427,1.23,20,1.5,1.5,16,80,16.777,94
0.26271,148.4489033,34.39977267,172.6750702,143.5451868,14.49173851,8.965591998,95.66278698,105.6779011,89.63019781,102.5260328,109.8376037,113.6091171,113.2299344,121.8166368,118.9551055,125.1622925,117.5078199,98.09189206,92.31543903,1.976234264,2.411543117,2.079591692,1.341133927,1.256536567,1.110922351,1.55891302,1.095018245,1.522868036,1.086485424,-0.2129,-0.07666,12.1919,0.60232,-0.41835,-0.26572,-0.0719,-0.60507,0.69139,-0.74874,-0.72097,0.8376,-0.35999,-0.5323,0.27186,-0.70714,0.2816,0.29258,0.26156,-0.48285,-0.77779,-545.5873,193.6197,126.454,130.6457,123.7355,22.2422,-15.2893,135.2172,20.1585,170.2262,214.0925,31.4401,-45.0505,32.5826,30.1026,27.6702,153.7865,168.2746,4.83,1.56,6.01,2.97,1.5,2.03,1606.25,878.5407,1701.05,1012.5983,2889.39,28.4015,4.06,1.85,3.12,2.71,1.03,1.9,2,1,1,39.4,14.6,61.8,53.4,27.9,366.94,345.66,41.45,1.54,-0.25089,-0.10865,0,6.15737,0.60887,123.19,54.714,1.35,0.74907,5.60765,-0.24627,-0.05338,4.0585,1.396430702,1.396194852,2.15120245,49.1111,60.1813,60.1412,44.6771,-0.18774,-0.24741,-0.24744,163.51,144.23,15.388,1.23,6.0219779,1.9126339,1.4522648,10.1662,-0.20732,-0.02413,82.46,56.3,48.175,1.16,0.79875,4.46774,0.38892,0.35777,-0.203,-0.07991,8.3156,97.19,69.71,27.931,1.19,20,1.5,3,16,80,16.777,92
0.26271,148.4489033,34.39977267,172.6750702,143.5451868,14.49173851,8.965591998,95.66278698,105.6779011,89.63019781,102.5260328,109.8376037,113.6091171,113.2299344,121.8166368,118.9551055,125.1622925,117.5078199,98.09189206,92.31543903,1.976234264,2.411543117,2.079591692,1.341133927,1.256536567,1.110922351,1.55891302,1.095018245,1.522868036,1.086485424,-0.2129,-0.07666,12.1919,0.60232,-0.41835,-0.26572,-0.0719,-0.60507,0.69139,-0.74874,-0.72097,0.8376,-0.35999,-0.5323,0.27186,-0.70714,0.2816,0.29258,0.26156,-0.48285,-0.77779,-545.5873,193.6197,126.454,130.6457,123.7355,22.2422,-15.2893,135.2172,20.1585,170.2262,214.0925,31.4401,-45.0505,32.5826,30.1026,27.6702,153.7865,168.2746,4.83,1.56,6.01,2.97,1.5,2.03,1606.25,878.5407,1701.05,1012.5983,2889.39,28.4015,4.06,1.85,3.12,2.71,1.03,1.9,2,1,1,39.4,14.6,61.8,53.4,27.9,366.94,345.66,41.45,1.54,-0.25089,-0.10865,0,6.15737,0.60887,123.19,54.714,1.35,0.74907,5.62654,-0.23471,-0.03359,0.3969,1.395491543,1.395314301,2.158130323,64.2303,59.6123,59.5654,45.7317,-0.22137,-0.23965,-0.23964,148.42,129.33,0,1.2,6.0219779,1.9126339,1.4522648,10.1662,-0.20732,-0.02413,91.37,62.39,40.332,1.2,0.79875,4.46774,0.38892,0.35777,-0.203,-0.07991,8.3156,97.67,66.44,40.427,1.23,20,1.5,1.5,16,80,16.777,92
0.26271,148.4489033,34.39977267,172.6750702,143.5451868,14.49173851,8.965591998,95.66278698,105.6779011,89.63019781,102.5260328,109.8376037,113.6091171,113.2299344,121.8166368,118.9551055,125.1622925,117.5078199,98.09189206,92.31543903,1.976234264,2.411543117,2.079591692,1.341133927,1.256536567,1.110922351,1.55891302,1.095018245,1.522868036,1.086485424,-0.2129,-0.07666,12.1919,0.60232,-0.41835,-0.26572,-0.0719,-0.60507,0.69139,-0.74874,-0.72097,0.8376,-0.35999,-0.5323,0.27186,-0.70714,0.2816,0.29258,0.26156,-0.48285,-0.77779,-545.5873,193.6197,126.454,130.6457,123.7355,22.2422,-15.2893,135.2172,20.1585,170.2262,214.0925,31.4401,-45.0505,32.5826,30.1026,27.6702,153.7865,168.2746,4.83,1.56,6.01,2.97,1.5,2.03,1606.25,878.5407,1701.05,1012.5983,2889.39,28.4015,4.06,1.85,3.12,2.71,1.03,1.9,2,1,1,39.4,14.6,61.8,53.4,27.9,366.94,345.66,41.45,1.54,-0.25089,-0.10865,0,6.15737,0.60887,123.19,54.714,1.35,0.74907,5.63131,-0.23732,-0.03504,0.4489,1.39460706,1.394394419,2.155895536,58.9392,60.0009,59.969,45.5172,-0.2092,-0.23891,-0.23891,158.42,138.44,0,1.22,6.0219779,1.9126339,1.4522648,10.1662,-0.20732,-0.02413,91.37,62.39,40.332,1.2,0.79875,4.46774,0.38892,0.35777,-0.203,-0.07991,8.3156,97.67,66.44,40.427,1.23,20,1.5,1.5,16,80,16.777,92
0.26271,148.4489033,34.39977267,172.6750702,143.5451868,14.49173851,8.965591998,95.66278698,105.6779011,89.63019781,102.5260328,109.8376037,113.6091171,113.2299344,121.8166368,118.9551055,125.1622925,117.5078199,98.09189206,92.31543903,1.976234264,2.411543117,2.079591692,1.341133927,1.256536567,1.110922351,1.55891302,1.095018245,1.522868036,1.086485424,-0.2129,-0.07666,12.1919,0.60232,-0.41835,-0.26572,-0.0719,-0.60507,0.69139,-0.74874,-0.72097,0.8376,-0.35999,-0.5323,0.27186,-0.70714,0.2816,0.29258,0.26156,-0.48285,-0.77779,-545.5873,193.6197,126.454,130.6457,123.7355,22.2422,-15.2893,135.2172,20.1585,170.2262,214.0925,31.4401,-45.0505,32.5826,30.1026,27.6702,153.7865,168.2746,4.83,1.56,6.01,2.97,1.5,2.03,1606.25,878.5407,1701.05,1012.5983,2889.39,28.4015,4.06,1.85,3.12,2.71,1.03,1.9,2,1,1,39.4,14.6,61.8,53.4,27.9,366.94,345.66,41.45,1.54,-0.25089,-0.10865,0,6.15737,0.60887,123.19,54.714,1.35,0.74907,5.62365,-0.23868,-0.03602,0.8555,1.394344807,1.394112373,2.155230532,57.907,59.6041,59.5573,45.4782,-0.20786,-0.23604,-0.23605,163.52,143.26,0,1.23,6.0219779,1.9126339,1.4522648,10.1662,-0.20732,-0.02413,91.37,62.39,40.332,1.2,0.79875,4.46774,0.38892,0.35777,-0.203,-0.07991,8.3156,97.67,66.44,40.427,1.23,20,1.5,1.5,16,80,16.777,88
0.26271,148.4489033,34.39977267,172.6750702,143.5451868,14.49173851,8.965591998,95.66278698,105.6779011,89.63019781,102.5260328,109.8376037,113.6091171,113.2299344,121.8166368,118.9551055,125.1622925,117.5078199,98.09189206,92.31543903,1.976234264,2.411543117,2.079591692,1.341133927,1.256536567,1.110922351,1.55891302,1.095018245,1.522868036,1.086485424,-0.2129,-0.07666,12.1919,0.60232,-0.41835,-0.26572,-0.0719,-0.60507,0.69139,-0.74874,-0.72097,0.8376,-0.35999,-0.5323,0.27186,-0.70714,0.2816,0.29258,0.26156,-0.48285,-0.77779,-545.5873,193.6197,126.454,130.6457,123.7355,22.2422,-15.2893,135.2172,20.1585,170.2262,214.0925,31.4401,-45.0505,32.5826,30.1026,27.6702,153.7865,168.2746,4.83,1.56,6.01,2.97,1.5,2.03,1606.25,878.5407,1701.05,1012.5983,2889.39,28.4015,4.06,1.85,3.12,2.71,1.03,1.9,2,1,1,39.4,14.6,61.8,53.4,27.9,366.94,345.66,41.45,1.54,-0.25089,-0.10865,0,6.15737,0.60887,123.19,54.714,1.35,0.74907,5.49795,-0.23066,-0.03108,2.9017,1.39245,1.394990094,2.163257702,61.5662,61.5965,61.6134,46.1174,-0.20895,-0.25249,-0.25274,162.71,143.04,0,1.23,6.0219779,1.9126339,1.4522648,10.1662,-0.20732,-0.02413,91.37,62.39,40.332,1.2,0.79875,4.46774,0.38892,0.35777,-0.203,-0.07991,8.3156,97.67,66.44,40.427,1.23,20,1.5,1.5,16,80,16.777,96
0.26271,148.4489033,34.39977267,172.6750702,143.5451868,14.49173851,8.965591998,95.66278698,105.6779011,89.63019781,102.5260328,109.8376037,113.6091171,113.2299344,121.8166368,118.9551055,125.1622925,117.5078199,98.09189206,92.31543903,1.976234264,2.411543117,2.079591692,1.341133927,1.256536567,1.110922351,1.55891302,1.095018245,1.522868036,1.086485424,-0.2129,-0.07666,12.1919,0.60232,-0.41835,-0.26572,-0.0719,-0.60507,0.69139,-0.74874,-0.72097,0.8376,-0.35999,-0.5323,0.27186,-0.70714,0.2816,0.29258,0.26156,-0.48285,-0.77779,-545.5873,193.6197,126.454,130.6457,123.7355,22.2422,-15.2893,135.2172,20.1585,170.2262,214.0925,31.4401,-45.0505,32.5826,30.1026,27.6702,153.7865,168.2746,4.83,1.56,6.01,2.97,1.5,2.03,1606.25,878.5407,1701.05,1012.5983,2889.39,28.4015,4.06,1.85,3.12,2.71,1.03,1.9,2,1,1,39.4,14.6,61.8,53.4,27.9,366.94,345.66,41.45,1.54,-0.25089,-0.10865,0,6.15737,0.60887,123.19,54.714,1.35,0.74907,0.58844,-0.23285,-0.03204,2.6712,1.394019312,1.394218392,2.160452715,59.5216,61.633,61.6152,45.9298,-0.20498,-0.25102,-0.25146,301.02,266.21,30.382,1.5,6.0219779,1.9126339,1.4522648,10.1662,-0.20732,-0.02413,91.37,62.39,40.332,1.2,0.79875,4.46774,0.38892,0.35777,-0.203,-0.07991,8.3156,97.67,66.44,40.427,1.23,20,1.5,1.5,16,80,16.777,92
0.26271,148.4489033,34.39977267,172.6750702,143.5451868,14.49173851,8.965591998,95.66278698,105.6779011,89.63019781,102.5260328,109.8376037,113.6091171,113.2299344,121.8166368,118.9551055,125.1622925,117.5078199,98.09189206,92.31543903,1.976234264,2.411543117,2.079591692,1.341133927,1.256536567,1.110922351,1.55891302,1.095018245,1.522868036,1.086485424,-0.2129,-0.07666,12.1919,0.60232,-0.41835,-0.26572,-0.0719,-0.60507,0.69139,-0.74874,-0.72097,0.8376,-0.35999,-0.5323,0.27186,-0.70714,0.2816,0.29258,0.26156,-0.48285,-0.77779,-545.5873,193.6197,126.454,130.6457,123.7355,22.2422,-15.2893,135.2172,20.1585,170.2262,214.0925,31.4401,-45.0505,32.5826,30.1026,27.6702,153.7865,168.2746,4.83,1.56,6.01,2.97,1.5,2.03,1606.25,878.5407,1701.05,1012.5983,2889.39,28.4015,4.06,1.85,3.12,2.71,1.03,1.9,2,1,1,39.4,14.6,61.8,53.4,27.9,366.94,345.66,41.45,1.54,-0.25089,-0.10865,0,6.15737,0.60887,123.19,54.714,1.35,0.74907,2.60475,-0.23586,-0.03412,0.4864,1.393157372,1.395244261,2.155430569,62.669,59.9286,59.4302,45.6278,-0.21786,-0.2337,-0.23689,187.83,165.44,6.573,1.29,6.0219779,1.9126339,1.4522648,10.1662,-0.20732,-0.02413,91.37,62.39,40.332,1.2,0.79875,4.46774,0.38892,0.35777,-0.203,-0.07991,8.3156,97.67,66.44,40.427,1.23,20,1.5,1.5,16,80,16.777,94
0.26271,148.4489033,34.39977267,172.6750702,143.5451868,14.49173851,8.965591998,95.66278698,105.6779011,89.63019781,102.5260328,109.8376037,113.6091171,113.2299344,121.8166368,118.9551055,125.1622925,117.5078199,98.09189206,92.31543903,1.976234264,2.411543117,2.079591692,1.341133927,1.256536567,1.110922351,1.55891302,1.095018245,1.522868036,1.086485424,-0.2129,-0.07666,12.1919,0.60232,-0.41835,-0.26572,-0.0719,-0.60507,0.69139,-0.74874,-0.72097,0.8376,-0.35999,-0.5323,0.27186,-0.70714,0.2816,0.29258,0.26156,-0.48285,-0.77779,-545.5873,193.6197,126.454,130.6457,123.7355,22.2422,-15.2893,135.2172,20.1585,170.2262,214.0925,31.4401,-45.0505,32.5826,30.1026,27.6702,153.7865,168.2746,4.83,1.56,6.01,2.97,1.5,2.03,1606.25,878.5407,1701.05,1012.5983,2889.39,28.4015,4.06,1.85,3.12,2.71,1.03,1.9,2,1,1,39.4,14.6,61.8,53.4,27.9,366.94,345.66,41.45,1.54,-0.25089,-0.10865,0,6.15737,0.60887,123.19,54.714,1.35,0.74907,1.85422,-0.24298,-0.05304,4.1645,1.389854833,1.395865306,2.15753743,56.938,58.9056,55.9134,45.2626,-0.20559,-0.20712,-0.22698,195.66,172.93,20.034,1.3,6.0219779,1.9126339,1.4522648,10.1662,-0.20732,-0.02413,91.37,62.39,40.332,1.2,0.79875,4.46774,0.38892,0.35777,-0.203,-0.07991,8.3156,97.67,66.44,40.427,1.23,20,1.5,1.5,16,80,16.777,92
0.26271,148.4489033,34.39977267,172.6750702,143.5451868,14.49173851,8.965591998,95.66278698,105.6779011,89.63019781,102.5260328,109.8376037,113.6091171,113.2299344,121.8166368,118.9551055,125.1622925,117.5078199,98.09189206,92.31543903,1.976234264,2.411543117,2.079591692,1.341133927,1.256536567,1.110922351,1.55891302,1.095018245,1.522868036,1.086485424,-0.2129,-0.07666,12.1919,0.60232,-0.41835,-0.26572,-0.0719,-0.60507,0.69139,-0.74874,-0.72097,0.8376,-0.35999,-0.5323,0.27186,-0.70714,0.2816,0.29258,0.26156,-0.48285,-0.77779,-545.5873,193.6197,126.454,130.6457,123.7355,22.2422,-15.2893,135.2172,20.1585,170.2262,214.0925,31.4401,-45.0505,32.5826,30.1026,27.6702,153.7865,168.2746,4.83,1.56,6.01,2.97,1.5,2.03,1606.25,878.5407,1701.05,1012.5983,2889.39,28.4015,4.06,1.85,3.12,2.71,1.03,1.9,2,1,1,39.4,14.6,61.8,53.4,27.9,366.94,345.66,41.45,1.54,-0.25089,-0.10865,0,6.15737,0.60887,123.19,54.714,1.35,0.74907,2.03418,-0.24456,-0.06894,4.9668,1.387254501,1.399219715,2.157952267,55.875,62.2631,54.3456,45.2057,-0.20632,-0.20216,-0.21855,165.41,145.66,14.742,1.24,6.0219779,1.9126339,1.4522648,10.1662,-0.20732,-0.02413,82.46,56.3,48.175,1.16,0.79875,4.46774,0.38892,0.35777,-0.203,-0.07991,8.3156,97.19,69.71,27.931,1.19,20,1.5,3,16,80,16.777,86
0.26271,148.4489033,34.39977267,172.6750702,143.5451868,14.49173851,8.965591998,95.66278698,105.6779011,89.63019781,102.5260328,109.8376037,113.6091171,113.2299344,121.8166368,118.9551055,125.1622925,117.5078199,98.09189206,92.31543903,1.976234264,2.411543117,2.079591692,1.341133927,1.256536567,1.110922351,1.55891302,1.095018245,1.522868036,1.086485424,-0.2129,-0.07666,12.1919,0.60232,-0.41835,-0.26572,-0.0719,-0.60507,0.69139,-0.74874,-0.72097,0.8376,-0.35999,-0.5323,0.27186,-0.70714,0.2816,0.29258,0.26156,-0.48285,-0.77779,-545.5873,193.6197,126.454,130.6457,123.7355,22.2422,-15.2893,135.2172,20.1585,170.2262,214.0925,31.4401,-45.0505,32.5826,30.1026,27.6702,153.7865,168.2746,4.83,1.56,6.01,2.97,1.5,2.03,1606.25,878.5407,1701.05,1012.5983,2889.39,28.4015,4.06,1.85,3.12,2.71,1.03,1.9,2,1,1,39.4,14.6,61.8,53.4,27.9,366.94,345.66,41.45,1.54,-0.25089,-0.10865,0,6.15737,0.60887,123.19,54.714,1.35,0.74907,1.57035,-0.2444,-0.03583,2.7739,1.392572975,1.39490858,2.155548178,56.9265,63.416,57.4297,45.1184,-0.2012,-0.22657,-0.23494,178.26,156.75,0,1.27,6.0219779,1.9126339,1.4522648,10.1662,-0.20732,-0.02413,91.37,62.39,40.332,1.2,0.79875,4.46774,0.38892,0.35777,-0.203,-0.07991,8.3156,97.67,66.44,40.427,1.23,20,1.5,1.5,16,80,16.777,92
0.26271,148.4489033,34.39977267,172.6750702,143.5451868,14.49173851,8.965591998,95.66278698,105.6779011,89.63019781,102.5260328,109.8376037,113.6091171,113.2299344,121.8166368,118.9551055,125.1622925,117.5078199,98.09189206,92.31543903,1.976234264,2.411543117,2.079591692,1.341133927,1.256536567,1.110922351,1.55891302,1.095018245,1.522868036,1.086485424,-0.2129,-0.07666,12.1919,0.60232,-0.41835,-0.26572,-0.0719,-0.60507,0.69139,-0.74874,-0.72097,0.8376,-0.35999,-0.5323,0.27186,-0.70714,0.2816,0.29258,0.26156,-0.48285,-0.77779,-545.5873,193.6197,126.454,130.6457,123.7355,22.2422,-15.2893,135.2172,20.1585,170.2262,214.0925,31.4401,-45.0505,32.5826,30.1026,27.6702,153.7865,168.2746,4.83,1.56,6.01,2.97,1.5,2.03,1606.25,878.5407,1701.05,1012.5983,2889.39,28.4015,4.06,1.85,3.12,2.71,1.03,1.9,2,1,1,39.4,14.6,61.8,53.4,27.9,366.94,345.66,41.45,1.54,-0.25089,-0.10865,0,6.15737,0.60887,123.19,54.714,1.35,0.74907,3.23836,-0.24032,-0.03557,1.9313,1.394060034,1.395029189,2.157251308,57.4075,73.3425,65.3831,45.2017,-0.19427,-0.3243,-0.27178,148.38,129.32,0,1.2,6.0219779,1.9126339,1.4522648,10.1662,-0.20732,-0.02413,91.37,62.39,40.332,1.2,0.79875,4.46774,0.38892,0.35777,-0.203,-0.07991,8.3156,97.67,66.44,40.427,1.23,20,1.5,1.5,16,80,16.777,94
0.26271,148.4489033,34.39977267,172.6750702,143.5451868,14.49173851,8.965591998,95.66278698,105.6779011,89.63019781,102.5260328,109.8376037,113.6091171,113.2299344,121.8166368,118.9551055,125.1622925,117.5078199,98.09189206,92.31543903,1.976234264,2.411543117,2.079591692,1.341133927,1.256536567,1.110922351,1.55891302,1.095018245,1.522868036,1.086485424,-0.2129,-0.07666,12.1919,0.60232,-0.41835,-0.26572,-0.0719,-0.60507,0.69139,-0.74874,-0.72097,0.8376,-0.35999,-0.5323,0.27186,-0.70714,0.2816,0.29258,0.26156,-0.48285,-0.77779,-545.5873,193.6197,126.454,130.6457,123.7355,22.2422,-15.2893,135.2172,20.1585,170.2262,214.0925,31.4401,-45.0505,32.5826,30.1026,27.6702,153.7865,168.2746,4.83,1.56,6.01,2.97,1.5,2.03,1606.25,878.5407,1701.05,1012.5983,2889.39,28.4015,4.06,1.85,3.12,2.71,1.03,1.9,2,1,1,39.4,14.6,61.8,53.4,27.9,366.94,345.66,41.45,1.54,-0.25089,-0.10865,0,6.15737,0.60887,123.19,54.714,1.35,0.74907,2.43367,-0.24213,-0.0393,2.2902,1.394421392,1.394268744,2.156516941,57.0974,62.1551,62.2419,45.0665,-0.19462,-0.26754,-0.25449,158.38,138.43,0,1.22,6.0219779,1.9126339,1.4522648,10.1662,-0.20732,-0.02413,91.37,62.39,40.332,1.2,0.79875,4.46774,0.38892,0.35777,-0.203,-0.07991,8.3156,97.67,66.44,40.427,1.23,20,1.5,1.5,16,80,16.777,92
0.26271,148.4489033,34.39977267,172.6750702,143.5451868,14.49173851,8.965591998,95.66278698,105.6779011,89.63019781,102.5260328,109.8376037,113.6091171,113.2299344,121.8166368,118.9551055,125.1622925,117.5078199,98.09189206,92.31543903,1.976234264,2.411543117,2.079591692,1.341133927,1.256536567,1.110922351,1.55891302,1.095018245,1.522868036,1.086485424,-0.2129,-0.07666,12.1919,0.60232,-0.41835,-0.26572,-0.0719,-0.60507,0.69139,-0.74874,-0.72097,0.8376,-0.35999,-0.5323,0.27186,-0.70714,0.2816,0.29258,0.26156,-0.48285,-0.77779,-545.5873,193.6197,126.454,130.6457,123.7355,22.2422,-15.2893,135.2172,20.1585,170.2262,214.0925,31.4401,-45.0505,32.5826,30.1026,27.6702,153.7865,168.2746,4.83,1.56,6.01,2.97,1.5,2.03,1606.25,878.5407,1701.05,1012.5983,2889.39,28.4015,4.06,1.85,3.12,2.71,1.03,1.9,2,1,1,39.4,14.6,61.8,53.4,27.9,366.94,345.66,41.45,1.54,-0.25089,-0.10865,0,6.15737,0.60887,123.19,54.714,1.35,0.74907,3.14731,-0.2352,-0.03162,2.6516,1.391881291,1.394673989,2.16590927,57.9619,60.9358,64.3318,45.8995,-0.19136,-0.25561,-0.26849,162.68,143.05,0,1.23,6.0219779,1.9126339,1.4522648,10.1662,-0.20732,-0.02413,91.37,62.39,40.332,1.2,0.79875,4.46774,0.38892,0.35777,-0.203,-0.07991,8.3156,97.67,66.44,40.427,1.23,20,1.5,1.5,16,80,16.777,94
0.26271,148.4489033,34.39977267,172.6750702,143.5451868,14.49173851,8.965591998,95.66278698,105.6779011,89.63019781,102.5260328,109.8376037,113.6091171,113.2299344,121.8166368,118.9551055,125.1622925,117.5078199,98.09189206,92.31543903,1.976234264,2.411543117,2.079591692,1.341133927,1.256536567,1.110922351,1.55891302,1.095018245,1.522868036,1.086485424,-0.2129,-0.07666,12.1919,0.60232,-0.41835,-0.26572,-0.0719,-0.60507,0.69139,-0.74874,-0.72097,0.8376,-0.35999,-0.5323,0.27186,-0.70714,0.2816,0.29258,0.26156,-0.48285,-0.77779,-545.5873,193.6197,126.454,130.6457,123.7355,22.2422,-15.2893,135.2172,20.1585,170.2262,214.0925,31.4401,-45.0505,32.5826,30.1026,27.6702,153.7865,168.2746,4.83,1.56,6.01,2.97,1.5,2.03,1606.25,878.5407,1701.05,1012.5983,2889.39,28.4015,4.06,1.85,3.12,2.71,1.03,1.9,2,1,1,39.4,14.6,61.8,53.4,27.9,366.94,345.66,41.45,1.54,-0.25089,-0.10865,0,6.15737,0.60887,123.19,54.714,1.35,0.74907,2.81838,-0.22436,-0.03263,4.1808,1.388080248,1.396591817,2.162783473,58.1701,73.0405,69.5845,45.716,-0.18792,-0.30538,-0.29032,172.52,151.92,6.966,1.25,6.0219779,1.9126339,1.4522648,10.1662,-0.20732,-0.02413,91.37,62.39,40.332,1.2,0.79875,4.46774,0.38892,0.35777,-0.203,-0.07991,8.3156,97.67,66.44,40.427,1.23,20,1.5,1.5,16,80,16.777,94
0.26271,148.4489033,34.39977267,172.6750702,143.5451868,14.49173851,8.965591998,95.66278698,105.6779011,89.63019781,102.5260328,109.8376037,113.6091171,113.2299344,121.8166368,118.9551055,125.1622925,117.5078199,98.09189206,92.31543903,1.976234264,2.411543117,2.079591692,1.341133927,1.256536567,1.110922351,1.55891302,1.095018245,1.522868036,1.086485424,-0.2129,-0.07666,12.1919,0.60232,-0.41835,-0.26572,-0.0719,-0.60507,0.69139,-0.74874,-0.72097,0.8376,-0.35999,-0.5323,0.27186,-0.70714,0.2816,0.29258,0.26156,-0.48285,-0.77779,-545.5873,193.6197,126.454,130.6457,123.7355,22.2422,-15.2893,135.2172,20.1585,170.2262,214.0925,31.4401,-45.0505,32.5826,30.1026,27.6702,153.7865,168.2746,4.83,1.56,6.01,2.97,1.5,2.03,1606.25,878.5407,1701.05,1012.5983,2889.39,28.4015,4.06,1.85,3.12,2.71,1.03,1.9,2,1,1,39.4,14.6,61.8,53.4,27.9,366.94,345.66,41.45,1.54,-0.25089,-0.10865,0,6.15737,0.60887,123.19,54.714,1.35,0.74907,5.65307,-0.23761,-0.03227,2.3011,1.394555708,1.394410554,2.163799685,57.5522,61.2648,61.214,45.7545,-0.20077,-0.25765,-0.25762,142.73,124.76,0,1.18,6.0219779,1.9126339,1.4522648,10.1662,-0.20732,-0.02413,91.37,62.39,40.332,1.2,0.79875,4.46774,0.38892,0.35777,-0.203,-0.07991,8.3156,97.67,66.44,40.427,1.23,20,1.5,1.5,16,80,16.777,90
0.26271,148.4489033,34.39977267,172.6750702,143.5451868,14.49173851,8.965591998,95.66278698,105.6779011,89.63019781,102.5260328,109.8376037,113.6091171,113.2299344,121.8166368,118.9551055,125.1622925,117.5078199,98.09189206,92.31543903,1.976234264,2.411543117,2.079591692,1.341133927,1.256536567,1.110922351,1.55891302,1.095018245,1.522868036,1.086485424,-0.2129,-0.07666,12.1919,0.60232,-0.41835,-0.26572,-0.0719,-0.60507,0.69139,-0.74874,-0.72097,0.8376,-0.35999,-0.5323,0.27186,-0.70714,0.2816,0.29258,0.26156,-0.48285,-0.77779,-545.5873,193.6197,126.454,130.6457,123.7355,22.2422,-15.2893,135.2172,20.1585,170.2262,214.0925,31.4401,-45.0505,32.5826,30.1026,27.6702,153.7865,168.2746,4.83,1.56,6.01,2.97,1.5,2.03,1606.25,878.5407,1701.05,1012.5983,2889.39,28.4015,4.06,1.85,3.12,2.71,1.03,1.9,2,1,1,39.4,14.6,61.8,53.4,27.9,366.94,345.66,41.45,1.54,-0.25089,-0.10865,0,6.15737,0.60887,123.19,54.714,1.35,0.74907,0.80077,-0.24287,-0.04364,2.2649,1.404109369,1.396151914,2.165499783,57.6896,58.7864,58.7491,44.7706,-0.17449,-0.17679,-0.25106,194.5,173,20.079,1.3,6.0219779,1.9126339,1.4522648,10.1662,-0.20732,-0.02413,91.37,62.39,40.332,1.2,0.79875,4.46774,0.38892,0.35777,-0.203,-0.07991,8.3156,97.67,66.44,40.427,1.23,20,1.5,1.5,16,80,16.777,96
0.26271,148.4489033,34.39977267,172.6750702,143.5451868,14.49173851,8.965591998,95.66278698,105.6779011,89.63019781,102.5260328,109.8376037,113.6091171,113.2299344,121.8166368,118.9551055,125.1622925,117.5078199,98.09189206,92.31543903,1.976234264,2.411543117,2.079591692,1.341133927,1.256536567,1.110922351,1.55891302,1.095018245,1.522868036,1.086485424,-0.2129,-0.07666,12.1919,0.60232,-0.41835,-0.26572,-0.0719,-0.60507,0.69139,-0.74874,-0.72097,0.8376,-0.35999,-0.5323,0.27186,-0.70714,0.2816,0.29258,0.26156,-0.48285,-0.77779,-545.5873,193.6197,126.454,130.6457,123.7355,22.2422,-15.2893,135.2172,20.1585,170.2262,214.0925,31.4401,-45.0505,32.5826,30.1026,27.6702,153.7865,168.2746,4.83,1.56,6.01,2.97,1.5,2.03,1606.25,878.5407,1701.05,1012.5983,2889.39,28.4015,4.06,1.85,3.12,2.71,1.03,1.9,2,1,1,39.4,14.6,61.8,53.4,27.9,366.94,345.66,41.45,1.54,-0.25089,-0.10865,0,6.15737,0.60887,123.19,54.714,1.35,0.74907,3.39308,-0.23597,-0.06837,5.3825,1.373743552,1.735433199,2.117468226,48.1752,60.0676,270.5005,44.7968,-0.46107,-0.29261,0.51232,174.06,151.16,14.863,1.27,6.0219779,1.9126339,1.4522648,10.1662,-0.20732,-0.02413,91.37,62.39,40.332,1.2,0.79875,4.46774,0.38892,0.35777,-0.203,-0.07991,8.3156,97.67,66.44,40.427,1.23,20,1.5,1.5,16,80,16.777,90
